GyaraManasa17/my_repository/metric_ws/joints_from_fk_poses_5dof_081043.csv
trial,x,y,z,j1,j2,j3,j4,j5,success
0,0.2614896214787279,0.1075135808786617,0.1331587570585532,-0.21250294614583254,-0.4696636665612459,0.3081336281728,0.9070130495587365,0.0,True
1,-0.1545965313081901,0.0630728900067727,-0.1845288942731947,-1.252333919517696,-0.433091125683859,0.44904481796547757,-0.10891791596775868,0.0,True
2,0.0703488468386476,-0.3420037150042929,0.0551306566156112,2.748935277108103,-0.5091643156483768,0.46179585382342325,0.691639151482377,0.0,True
3,0.1791616559190021,-0.2322188056685051,0.1622263105418187,-1.8576391492970286,-1.0367303404491395,-1.0545562078012154,-0.5408350983797572,0.0,True
4,0.2271960954532126,-0.2779535388395874,0.1180599097975327,-1.8723396202549338,-1.3595991090405732,-0.285931881889701,0.46783884275471777,0.0,True
5,0.0733553643349467,-0.10637973932933,-0.0031909434347545,0.2902357899583876,-0.2402149213012308,-0.7618822723859922,-1.5164637131220662,0.0,True
6,0.1584460638621542,-0.0169079014452481,0.3281516592549471,-1.4547626967541871,-1.2755520783830432,-0.38541256217285985,0.7363739031087608,0.0,True
7,0.0467176872326872,-0.2884804179374341,-0.1093012381943207,1.5750436023809016,0.1898743794299662,0.8265558143611997,-0.6139301178441383,0.0,True
8,0.0395561198309564,0.0835492776113444,0.3099613769903657,-0.3065850888378918,-1.333679781993851,0.3195126625709235,-0.8839452667161822,0.0,True
9,0.1494120279425244,0.0592773014238507,-0.0224096066319311,-0.9922609319910407,-0.1107009002007544,0.817060615401715,1.050827439664863,0.0,True
10,0.241967006928399,0.1156252235681333,-0.1313473440723753,2.6163471448235214,0.6394427621271461,-0.39905252333264807,0.379726003143005,0.0,True
11,-0.1579783258550884,-0.1329247727373935,0.2584488259739054,1.3248957730829716,-0.8837386281229556,1.0063388150651007,1.1786296473816036,0.0,True
12,0.0046821215610371,0.1993254190620694,0.0112980665513655,0.17235902510583398,0.42671717586927116,0.8473500179126856,-1.1417677692812869,0.0,True
13,-0.1367414774249115,-0.3008862785996737,0.1364529568030964,-1.2607355508953333,-0.5182147203013301,0.1503891525091603,-1.672891314229928,0.0,True
14,-0.1573181803367897,-0.2203299286105491,0.0081096661938262,-0.31687509175390005,0.3138506810646504,-0.5337549967691303,1.357851396428887,0.0,True
15,-0.1602212091378805,-0.1163623300344512,-0.1444307421660798,-0.6487527913413942,-0.1998729044571519,0.507482290570624,-1.632209636364132,0.0,True
16,-0.1090867619622296,0.0479280153315291,-0.1465030905042674,-0.029997108969837427,-1.4179200713988394,-0.25722009409219027,-0.07106775395572185,0.0,True
17,-0.0553428406331208,-0.128969567536567,-0.146851895555402,-1.0088706342503428,0.7636374367866665,-1.3396432641195133,-0.004712457549758353,0.0,True
18,0.2696275392584706,-0.0154323969169763,0.279489821805242,-0.9804622186347842,1.273033435922116,0.3066689576720818,0.3038372122892177,0.0,True
19,-0.0084198800449259,0.1552595433618589,0.1926910609380367,1.3236368894577026,0.7143370478879659,-0.9267022165236993,0.9026465972815637,0.0,True
20,0.165667620579594,-0.1650081661501339,0.2340151242931914,-0.5252774837426841,-0.08753828960470855,0.1354257083730772,0.29344508681911985,0.0,True
21,0.2632874441477533,0.1238232124874331,0.1362030712748102,1.8264427813701332,-0.9148823933210224,0.6772883152589202,1.6024540498899296,0.0,True
22,-0.1145031607528667,0.0904036446997436,0.2741110367031633,0.4392090104520321,-1.1860018009319901,0.7574102772632614,1.2717346845893187,0.0,True
23,-0.1019147206552727,-0.2986489437472913,0.0835246190316486,1.288462433964014,-0.6180950102861971,0.24468970396555956,-0.5850466202315874,0.0,True
24,-0.2129183193892884,-0.0216009660364807,0.1531062854800633,-1.487552541308105,-0.6094514338765293,-0.28420924041420226,-0.758392624631524,0.0,True
25,0.0053920243390275,-0.2729788860401495,0.2932490652806139,-0.1468193675391376,-0.8392417158465832,0.023756056348793075,-1.6533467884757556,0.0,True
26,0.0017862303014546,0.1235195131610866,0.032501593613694,-1.184990563429892,1.3363661190960554,0.6697490269085392,-0.7894168491172604,0.0,True
27,0.0728541447551511,0.1319339604384995,0.2435014157535141,0.932312473654747,0.4600636870600283,0.19242208066862077,1.217113645863719,0.0,True
28,0.1746939986406658,0.0377394973134957,-0.0645231643161514,0.4556224602274596,-0.5435988034587352,0.224985908716917,-0.5183171476004643,0.0,True
29,0.0125546959881129,-0.1561056157621951,-0.0042111712356729,2.3719035401009023,-0.22874770313501358,0.9086157912388444,0.8613852754584512,0.0,True
30,0.0911412190052056,-0.0020601707507516,0.3871756609964315,-1.401419092901051,1.2271383670158684,0.6059002994559703,-0.4899728851858527,0.0,True
31,0.0722634061346165,0.3000341350953616,-0.0052699588194346,-0.9373146845027804,0.8979209123644978,0.13403123933821903,0.18173659848980606,0.0,True
32,0.0624630124319854,-0.0862528609529477,0.1837821415258864,0.4576225820928812,1.038338287035003,0.338517794222571,1.7603275198163464,0.0,True
33,-0.270176991120175,0.1583028114635259,0.2423958195243821,-2.1303498283959925,0.11985573568381368,0.1542883662274106,0.62611490748357,0.0,True
34,-0.0137994868070469,0.0703272569507496,0.2750186298890499,0.8664073110558093,-0.7251585486810654,0.24831187273375677,1.7603350649494678,0.0,True
35,0.1340377014921938,0.2480772709384873,-0.0853049146044382,1.126617109403014,-0.5551978235598654,-0.9664932682644575,-0.8121910285158083,0.0,True
36,0.286772998274293,0.0706120694842635,0.2443312809347487,2.7145334975793958,-1.1900500904303044,0.33962505843956015,-1.1152769068675115,0.0,True
37,-0.1920978431097876,0.1119656972329595,-0.0167457070979234,-1.0456917551346123,0.8804572387598455,-0.1338353163795547,0.8437425214424727,0.0,True
38,-0.0460161833180032,0.0870468326583381,0.1772261171802077,-1.9376823236234486,0.8012983649969101,0.8032944590551776,-0.021802967635448978,0.0,True
39,-0.1134133041720344,-0.1070099449913191,0.0655319915373176,-0.8192861136049032,0.3909439849667251,1.2767839103937146,-0.612967900603544,0.0,True
40,-0.0232972298242216,0.3146352187867079,-0.0470786306480258,2.359375418163836,0.7298585758544504,0.19078133325092494,0.9114962394861503,0.0,True
41,-0.0089840641109996,-0.0338746085834103,0.3082340338863161,-0.867528042756021,0.48661857610568404,-1.3184709287481382,-0.34500594822457065,0.0,True
42,0.077105993463295,0.1678358135190452,0.3753723400733583,0.17011058935895562,0.7414381932467222,-1.2471356940222904,0.7761279038665816,0.0,True
43,-0.0513816885943735,0.0739527509563895,-0.0601351266165702,-2.4758814540691674,1.2318250753451139,0.07391951747704284,1.5652191674220377,0.0,True
44,0.1024339617512828,-0.203343036090592,-0.0585685638523259,0.2369605950079858,0.3519269856624305,-0.8040450877742842,0.7234370716917328,0.0,True
45,-0.1263545504142691,-0.2404842079826217,-0.103626361867575,1.323177696671337,-0.8865735358558595,0.17938762858975665,0.16508652764605358,0.0,True
46,0.0795238789623876,0.0455025968130724,0.1700412575132807,2.358566528186202,-0.7937230698298663,-0.9760314874816686,-0.08537499004276472,0.0,True
47,0.1630518562927846,-0.0354614025530211,0.1461807635412232,0.8132379027083516,-0.9925682621542364,-0.07565154607873414,-0.32142841380788,0.0,True
48,-0.2544012197414322,0.1155647376944911,0.2671606888029851,-0.5899192714132367,0.26722752931527793,0.8776155896019189,0.5111460022162648,0.0,True
49,-0.0342975931166116,0.0336869411491487,-0.0950873977464791,0.1876431321725249,-1.0462435532826928,-0.9103853148641065,-0.5675013129343278,0.0,True
