GyaraManasa17/my_repository/metric_ws/40_poses/hardware_validation_raw_data_20260401_061442.csv
execution_order,pose_id,iteration,test_type,status,failure_type,target_x,target_y,target_z,target_qx,target_qy,target_qz,target_qw,cmd_j1,cmd_j2,cmd_j3,cmd_j4,cmd_j5,actual_x,actual_y,actual_z,actual_qx,actual_qy,actual_qz,actual_qw,cartesian_error_mm,orientation_error_deg,mean_joint_error_rad,joint_tracking_error_rad,execution_time_sec
0,0,1,Interior (6-DOF Spread),success,none,-0.100667638440641,0.215350943503464,0.3896291814611472,0.3954134704272615,0.815427196410276,0.0159050975478419,-0.4224614806478102,-1.0887759356436075,-0.7834644687882832,-1.2563507645488534,-0.3242052921288976,0.447181729456362,-0.10062637901387333,0.21527208096232672,0.3897040906186593,0.39531434383073766,0.8153704647032282,0.01605073636369839,-0.42265819371390173,0.11633152010953339,0.03095059761363693,0.0001278297960166097,0.00042859798260045284,8.154696226119995
0,0,2,Interior (6-DOF Spread),success,none,-0.100667638440641,0.215350943503464,0.3896291814611472,0.3954134704272615,0.815427196410276,0.0159050975478419,-0.4224614806478102,-1.0887759356436075,-0.7834644687882832,-1.2563507645488534,-0.3242052921288976,0.447181729456362,-0.10062637801547455,0.2152720790521323,0.3897040924317957,0.39531434142924277,0.8153704633296452,0.016050739889656045,-0.4226581984759771,0.11633433668640449,0.030951347009642926,0.0001278328905390702,0.0004286083595779506,9.155195951461792
0,0,3,Interior (6-DOF Spread),success,none,-0.100667638440641,0.215350943503464,0.3896291814611472,0.3954134704272615,0.815427196410276,0.0159050975478419,-0.4224614806478102,-1.0887759356436075,-0.7834644687882832,-1.2563507645488534,-0.3242052921288976,0.447181729456362,-0.10063763596430762,0.21529359729762582,0.38968366041560376,0.39534138746692604,0.8153859464638605,0.01601100762331338,-0.4226045353517239,0.08459723629557209,0.022507574521081684,9.29590856790341e-05,0.00031168064267360763,8.706092834472656
1,1,1,Interior (6-DOF Spread),success,none,-0.2760391314719972,-0.028471296689295,0.2736487761491024,-0.0326661878561283,0.41158279742353,0.9099404059657844,-0.0392553006203384,0.0985251941798788,-0.7189925895015895,-1.3918387645488532,-1.0578995861730454,-2.290694098697453,-0.2760176411026928,-0.028469172468759615,0.27376734858345525,-0.03236986859213157,0.41159921178796305,0.9099377581030362,-0.039389806311735304,0.12052290435468957,0.03733879933641463,0.0001534540046843752,0.0005050855572134435,8.206212759017944
1,1,2,Interior (6-DOF Spread),success,none,-0.2760391314719972,-0.028471296689295,0.2736487761491024,-0.0326661878561283,0.41158279742353,0.9099404059657844,-0.0392553006203384,0.0985251941798788,-0.7189925895015895,-1.3918387645488532,-1.0578995861730454,-2.290694098697453,-0.2760176074823374,-0.028469169145402755,0.2737675337617971,-0.03236940580353404,0.4115992373899319,0.9099377538918795,-0.039390016376667586,0.12071113928231048,0.0373971143451269,0.00015369366625101187,0.0005058743900458315,8.256266593933105
1,1,3,Interior (6-DOF Spread),success,none,-0.2760391314719972,-0.028471296689295,0.2736487761491024,-0.0326661878561283,0.41158279742353,0.9099404059657844,-0.0392553006203384,0.0985251941798788,-0.7189925895015895,-1.3918387645488532,-1.0578995861730454,-2.290694098697453,-0.2760217444652328,-0.02846957806646432,0.2737447400847507,-0.03242637022142265,0.41159608531654457,0.9099382704432414,-0.03936415944894139,0.09754147125081268,0.030219137084781016,0.00012419382164087224,0.00040877722553954215,8.228978872299194
2,2,1,Interior (6-DOF Spread),success,none,0.2001560267500582,0.0478147655654614,0.4102485561154708,0.2606227411186032,-0.3735634450348702,0.2057417273246617,0.8661388347043271,0.2488553113926719,-0.0454672122725083,-0.9129907645488532,0.1037830460635222,0.4707730142046711,0.20015735795237607,0.04781510385490905,0.41022765559299484,0.2606213675044948,-0.37347569517188767,0.20572589579837952,0.8661808493114568,0.020945605246181383,0.011296304122808853,0.00012750855345803336,0.00038170257271983584,8.35611081123352
2,2,2,Interior (6-DOF Spread),success,none,0.2001560267500582,0.0478147655654614,0.4102485561154708,0.2606227411186032,-0.3735634450348702,0.2057417273246617,0.8661388347043271,0.2488553113926719,-0.0454672122725083,-0.9129907645488532,0.1037830460635222,0.4707730142046711,0.20015709678976262,0.04781503748711957,0.4102317633647921,0.2606216376043112,-0.37349293802217426,0.20572900679415468,0.8661725942463789,0.01682900477489153,0.009076617291780449,0.00010245349096933282,0.00030669913205978055,8.503611087799072
2,2,3,Interior (6-DOF Spread),success,none,0.2001560267500582,0.0478147655654614,0.4102485561154708,0.2606227411186032,-0.3735634450348702,0.2057417273246617,0.8661388347043271,0.2488553113926719,-0.0454672122725083,-0.9129907645488532,0.1037830460635222,0.4707730142046711,0.2001572280387534,0.04781507084050104,0.41022969941540277,0.2606215018936906,-0.3734842741450746,0.20572744363950377,0.8661767421551786,0.018897392011443047,0.010191927974488119,0.00011504273236832979,0.0003443855953516598,8.10476016998291
3,3,1,Interior (6-DOF Spread),success,none,0.0887216663825219,-0.1415823677942397,0.4268182216686982,0.7170197514935436,-0.5227842456555721,0.28156372816114,0.3651043350146242,2.067389535431099,-0.6171788415973064,-1.016741164548853,-0.6041446031302662,-0.3793711016344114,0.08868534949204726,-0.14151534835509655,0.42686326474824665,0.7169090434572205,-0.5227663299561359,0.28175857396391807,0.36519706142200115,0.08854039062492979,0.027867271279811874,0.00013055313850979244,0.0004112545332350917,9.886801719665527
3,3,2,Interior (6-DOF Spread),success,none,0.0887216663825219,-0.1415823677942397,0.4268182216686982,0.7170197514935436,-0.5227842456555721,0.28156372816114,0.3651043350146242,2.067389535431099,-0.6171788415973064,-1.016741164548853,-0.6041446031302662,-0.3793711016344114,0.0886873457037937,-0.14151903232215174,0.4268607901064994,0.7169151289901085,-0.5227673155295501,0.28174786565777593,0.36519196573365614,0.08367414720092507,0.02633568778360215,0.00012337782841710389,0.00038865201658683815,8.606144428253174
3,3,3,Interior (6-DOF Spread),success,none,0.0887216663825219,-0.1415823677942397,0.4268182216686982,0.7170197514935436,-0.5227842456555721,0.28156372816114,0.3651043350146242,2.067389535431099,-0.6171788415973064,-1.016741164548853,-0.6041446031302662,-0.3793711016344114,0.08869381381090805,-0.14153096858427425,0.4268527710188726,0.7169348467504161,-0.5227705079211292,0.28171316827849446,0.36517545424266207,0.06790656910821159,0.02137304119819157,0.00010012875495983842,0.00031541519219878227,7.909002304077148
4,4,1,Boundary (Absolute Extreme),success,none,-0.2947983774182762,0.0747375331758717,0.3190187413818793,0.0910699717541841,0.960827900765466,-0.0656670817323857,-0.2533847661799577,-0.2389505791549622,-0.9851105593232627,-1.3083187645488532,-0.3532473579348119,0.1971141111242813,-0.2947290094347243,0.07472063558376729,0.31912162085978685,0.09103631433129121,0.9607651510408625,-0.0656293030348691,-0.25364445312594636,0.12522632604812856,0.03115855759406785,0.00010998829117546683,0.00039503363251424946,12.6607027053833
4,4,2,Boundary (Absolute Extreme),success,none,-0.2947983774182762,0.0747375331758717,0.3190187413818793,0.0910699717541841,0.960827900765466,-0.0656670817323857,-0.2533847661799577,-0.2389505791549622,-0.9851105593232627,-1.3083187645488532,-0.3532473579348119,0.1971141111242813,-0.2947212772697867,0.07471875121569976,0.31913308221405956,0.09103256244071098,0.960758154889299,-0.06562509325692471,-0.2536733874970089,0.13917981473143562,0.03463040363854644,0.00012224308502702396,0.00043905029305249825,10.105974912643433
4,4,3,Boundary (Absolute Extreme),success,none,-0.2947983774182762,0.0747375331758717,0.3190187413818793,0.0910699717541841,0.960827900765466,-0.0656670817323857,-0.2533847661799577,-0.2389505791549622,-0.9851105593232627,-1.3083187645488532,-0.3532473579348119,0.1971141111242813,-0.29473570595541787,0.07472226611163937,0.3191116940792293,0.09103956170252679,0.9607712097972637,-0.06563294902234956,-0.2536193932496959,0.11314150189791057,0.028151659850487128,9.937355117192737e-05,0.0003569116703683122,9.156984090805054
5,5,1,Interior (6-DOF Spread),success,none,0.14764048602908,-0.1715019408424009,0.2580462075453266,0.8497788611955595,-0.4144310993407121,0.1346326546407912,-0.296642544603434,-0.9016302795215592,-0.4830529461545387,-0.184510764548853,0.684624362181806,-2.478137579334022,0.14763285128640968,-0.1714922876547042,0.25804365194374046,0.8497790956536205,-0.4144306444014544,0.13463399359948122,-0.29664190084774766,0.012569981217828635,0.00018006327068069018,3.746728573138514e-05,0.00013056203526431306,7.905991077423096
5,5,2,Interior (6-DOF Spread),success,none,0.14764048602908,-0.1715019408424009,0.2580462075453266,0.8497788611955595,-0.4144310993407121,0.1346326546407912,-0.296642544603434,-0.9016302795215592,-0.4830529461545387,-0.184510764548853,0.684624362181806,-2.478137579334022,0.14763279550127023,-0.1714922170461819,0.2580436332530976,0.849779097284141,-0.41443064092711646,0.13463400353471464,-0.29664189652155426,0.012661888144417167,0.0001813781779665837,3.77410194409955e-05,0.0001315166611894601,8.506123304367065
5,5,3,Interior (6-DOF Spread),success,none,0.14764048602908,-0.1715019408424009,0.2580462075453266,0.8497788611955595,-0.4144310993407121,0.1346326546407912,-0.296642544603434,-0.9016302795215592,-0.4830529461545387,-0.184510764548853,0.684624362181806,-2.478137579334022,0.14763196998106748,-0.1714911732699383,0.25804335685949586,0.8497791226295572,-0.4144305917121102,0.13463414835098406,-0.2966418269460587,0.014021059168067757,0.00020086011697609325,4.1792281406016764e-05,0.00014563417067410927,8.01550579071045
6,6,1,Interior (6-DOF Spread),success,none,0.0535317902432537,0.102360334673267,0.2876254009980217,0.7843229354555543,0.5184382301272414,-0.2084431237831177,-0.269463909658514,1.1853505823968558,-0.708933147343382,-0.7303603645488531,1.4868841348955557,-2.447683375386204,0.05353682609750356,0.10237274617288625,0.2876200354733755,0.7843220006782944,0.5184398367390494,-0.20843889372589627,-0.26946681153030705,0.014428929466648643,0.0006252235185359493,9.668644394980052e-05,0.00030467773441651794,9.153664350509644
6,6,2,Interior (6-DOF Spread),success,none,0.0535317902432537,0.102360334673267,0.2876254009980217,0.7843229354555543,0.5184382301272414,-0.2084431237831177,-0.269463909658514,1.1853505823968558,-0.708933147343382,-0.7303603645488531,1.4868841348955557,-2.447683375386204,0.053535440227679656,0.10236933052019787,0.2876215124702723,0.7843222579406619,0.5184393945883857,-0.20844005786668773,-0.26946601291113104,0.010457929832012746,0.00045315358337912444,7.007812005230818e-05,0.0002208297458706922,8.302109956741333
6,6,3,Interior (6-DOF Spread),success,none,0.0535317902432537,0.102360334673267,0.2876254009980217,0.7843229354555543,0.5184382301272414,-0.2084431237831177,-0.269463909658514,1.1853505823968558,-0.708933147343382,-0.7303603645488531,1.4868841348955557,-2.447683375386204,0.05353629921153099,0.10237144759422645,0.2876205970415302,0.7843220984867677,0.5184396686386797,-0.20843933631438552,-0.2694665079076574,0.012919202961053667,0.0005598021335367107,8.657035592949392e-05,0.0002727999816010311,9.007248640060425
7,7,1,Interior (6-DOF Spread),success,none,0.0002571219574874,0.0034302168957392,0.4155197585206143,-0.0841332353938877,0.8206435142876289,-0.3437868833905867,-0.4486383844126514,2.8573896411922046,-0.8099848162962852,-0.8296563645488533,0.721964161075124,-2.2070522709534464,0.00021061119456441957,0.0034438031736509986,0.4154979896872901,-0.08408552621980024,0.8206784961339998,-0.3438194200095811,-0.44855839830266364,0.05311986558218677,0.011994569669417707,6.121199628945639e-05,0.0002613705790548064,9.354976415634155
7,7,2,Interior (6-DOF Spread),success,none,0.0002571219574874,0.0034302168957392,0.4155197585206143,-0.0841332353938877,0.8206435142876289,-0.3437868833905867,-0.4486383844126514,2.8573896411922046,-0.8099848162962852,-0.8296563645488533,0.721964161075124,-2.2070522709534464,0.0002152144457889249,0.0034424585160786753,0.415500144769837,-0.08409024828116957,0.8206750342028165,-0.34381619986023476,-0.448566315157396,0.04786226096673491,0.010807405543495787,5.515352768545867e-05,0.0002355013839989532,7.655387878417969
7,7,3,Interior (6-DOF Spread),success,none,0.0002571219574874,0.0034302168957392,0.4155197585206143,-0.0841332353938877,0.8206435142876289,-0.3437868833905867,-0.4486383844126514,2.8573896411922046,-0.8099848162962852,-0.8296563645488533,0.721964161075124,-2.2070522709534464,0.0002212747128821635,0.0034406882489856523,0.41550298178095446,-0.08409646489661839,0.8206704764106884,-0.3438119604544576,-0.4485767376806428,0.040940605493975525,0.009244495460381228,4.7177509900731e-05,0.0002014443998699336,8.832378387451172
8,8,1,Interior (6-DOF Spread),success,none,-0.0818671387889826,-0.03184675706197,0.3641526297180047,-0.1690810766886667,0.9634321441513936,-0.0804704457247125,-0.1916627258663394,0.3270883315748394,-0.2407118396159013,-0.8749427645488533,-1.6182149309698564,0.0984596476313499,-0.08184360203321508,-0.031838771633089145,0.3642293335014125,-0.1690851908172853,0.9633736812177871,-0.0805125437627688,-0.19193509027799002,0.08063012052291875,0.032287472383632464,0.00017530828152425293,0.000558109067661106,9.254529237747192
8,8,2,Interior (6-DOF Spread),success,none,-0.0818671387889826,-0.03184675706197,0.3641526297180047,-0.1690810766886667,0.9634321441513936,-0.0804704457247125,-0.1916627258663394,0.3270883315748394,-0.2407118396159013,-0.8749427645488533,-1.6182149309698564,0.0984596476313499,-0.08184600808929446,-0.03183958794753214,0.3642215000730697,-0.16908477121581528,0.9633796561357231,-0.08050824415647666,-0.1919072716432405,0.07239494787558869,0.0289896261412828,0.00015740227347174341,0.000501103741977358,9.254963636398315
8,8,3,Interior (6-DOF Spread),success,none,-0.0818671387889826,-0.03184675706197,0.3641526297180047,-0.1690810766886667,0.9634321441513936,-0.0804704457247125,-0.1916627258663394,0.3270883315748394,-0.2407118396159013,-0.8749427645488533,-1.6182149309698564,0.0984596476313499,-0.08184362674525347,-0.03183878001745001,0.36422925305475967,-0.16908518650946613,0.9633737425831129,-0.0805124996062964,-0.19193480458637843,0.08054554720813108,0.03225360408989155,0.00017512438993970425,0.0005575236329928283,7.674883842468262
9,9,1,Boundary (Absolute Extreme),success,none,-0.1655045431898191,-0.2912919082566771,0.2896906973841103,-0.3326136418136458,0.8062056825671151,0.2878091344114969,-0.3956848048955893,1.023515609274921,-1.082961496680373,-1.3807027645488532,-0.2150245936104229,-0.9489933951935944,-0.16546479239572903,-0.29122667564679555,0.28981868071001865,-0.332464617572569,0.8062178279562897,0.2876516440359193,-0.3958997646263516,0.14904747811793218,0.035014545438035845,0.0001222238301018974,0.00043699098640198337,8.133276224136353
9,9,2,Boundary (Absolute Extreme),success,none,-0.1655045431898191,-0.2912919082566771,0.2896906973841103,-0.3326136418136458,0.8062056825671151,0.2878091344114969,-0.3956848048955893,1.023515609274921,-1.082961496680373,-1.3807027645488532,-0.2150245936104229,-0.9489933951935944,-0.1654754309737147,-0.29124413396972343,0.2897844434650125,-0.332504491057965,0.8062145859158277,0.28769378216157654,-0.3958422572040804,0.10917065221459814,0.025646637511261266,8.95236627652507e-05,0.00032007699191440535,8.103530406951904
9,9,3,Boundary (Absolute Extreme),success,none,-0.1655045431898191,-0.2912919082566771,0.2896906973841103,-0.3326136418136458,0.8062056825671151,0.2878091344114969,-0.3956848048955893,1.023515609274921,-1.082961496680373,-1.3807027645488532,-0.2150245936104229,-0.9489933951935944,-0.16546865291124507,-0.2912330109037113,0.2898062580165654,-0.3324790859630513,0.8062166522016281,0.28766693411866734,-0.395878898306969,0.1345781187858051,0.03161539071476472,0.00011035854203289008,0.00039456862774839817,9.804762840270996
10,10,1,Interior (6-DOF Spread),success,none,0.2357109864873126,-0.149117588264123,0.3526880040270158,-0.2864282894648866,-0.168489869694388,-0.3287143482058934,0.8840344315060144,-0.5879312083989454,0.2128775522450956,-1.0932083645488533,0.3725859258160053,-0.4698758485779253,0.2356998639487206,-0.14911017438582747,0.3526844328244249,-0.2864200214560038,-0.16845486456732567,-0.3287088228140029,0.8840458357556913,0.01383582104741296,0.004369990513810216,8.813022613926024e-05,0.0002817973397741532,8.305791854858398
10,10,2,Interior (6-DOF Spread),success,none,0.2357109864873126,-0.149117588264123,0.3526880040270158,-0.2864282894648866,-0.168489869694388,-0.3287143482058934,0.8840344315060144,-0.5879312083989454,0.2128775522450956,-1.0932083645488533,0.3725859258160053,-0.4698758485779253,0.23569579848739103,-0.14910746449705312,0.35268312660116835,-0.2864169997079674,-0.16844207147353726,-0.32870680337401786,0.8840500032529974,0.01889326028507833,0.005967054737394121,0.00012033870984981543,0.000384784345463119,9.955801963806152
10,10,3,Interior (6-DOF Spread),success,none,0.2357109864873126,-0.149117588264123,0.3526880040270158,-0.2864282894648866,-0.168489869694388,-0.3287143482058934,0.8840344315060144,-0.5879312083989454,0.2128775522450956,-1.0932083645488533,0.3725859258160053,-0.4698758485779253,0.23569728038898635,-0.1491084522786344,0.3526836027918579,-0.2864181011476248,-0.16844673458559092,-0.3287075394711022,0.884048484211864,0.017049757566939144,0.005384921423692562,0.00010859865318277317,0.00034724537634458726,10.008300542831421
11,11,1,Boundary (Absolute Extreme),success,none,-0.2369508863384167,-0.200646671591433,0.2571587840680704,-0.2723865692079258,0.7889662298300856,0.5164775629606422,-0.191281917757723,0.6783699320006513,-1.0056866910105056,-1.1171507645488532,-0.9982869247819584,-1.1664621473280117,-0.2369236848060298,-0.2006247480035983,0.257286896738068,-0.2722098397727603,0.7890254673038463,0.516381752836315,-0.19154764528578802,0.13279090059807944,0.03878091772949202,0.0001353709503638445,0.00047967943221786035,14.159673929214478
11,11,2,Boundary (Absolute Extreme),success,none,-0.2369508863384167,-0.200646671591433,0.2571587840680704,-0.2723865692079258,0.7889662298300856,0.5164775629606422,-0.191281917757723,0.6783699320006513,-1.0056866910105056,-1.1171507645488532,-0.9982869247819584,-1.1664621473280117,-0.23692499092522418,-0.2006258006937945,0.25728075213763535,-0.2722183172277328,0.7890226280711178,0.5163863496727528,-0.1915349002899928,0.12642142534415288,0.036920809354362955,0.0001288779469847512,0.0004566718406706897,8.754798412322998
11,11,3,Boundary (Absolute Extreme),success,none,-0.2369508863384167,-0.200646671591433,0.2571587840680704,-0.2723865692079258,0.7889662298300856,0.5164775629606422,-0.191281917757723,0.6783699320006513,-1.0056866910105056,-1.1171507645488532,-0.9982869247819584,-1.1664621473280117,-0.23693002698005172,-0.2006298595973554,0.25725705364644086,-0.2722510120584533,0.7890116758850819,0.5164040772889044,-0.19148574544742952,0.10185610442859956,0.02974682007679946,0.00010383600055530184,0.00036793711098044574,9.357415199279785
12,12,1,Interior (6-DOF Spread),success,none,-0.2087689242406136,0.0194453701275966,0.3918832401104264,0.1119407497550342,0.8843379040898912,0.1704754955067547,-0.4199450504124384,-0.0878534715482266,-1.0322070385185074,-0.7368563645488532,-0.476403185863651,-0.3386225188873313,-0.20868874813667232,0.019438308211312403,0.39193258676412784,0.1119698780029826,0.8842429609899595,0.17046806104798756,-0.4201401819895901,0.09440958921814127,0.025104249136574972,8.763038314514582e-05,0.00030604728586205564,10.006050109863281
12,12,2,Interior (6-DOF Spread),success,none,-0.2087689242406136,0.0194453701275966,0.3918832401104264,0.1119407497550342,0.8843379040898912,0.1704754955067547,-0.4199450504124384,-0.0878534715482266,-1.0322070385185074,-0.7368563645488532,-0.476403185863651,-0.3386225188873313,-0.20868454996544838,0.01943793842489769,0.39193516950251023,0.1119714028528305,0.8842379890756019,0.17046767160550966,-0.42015039754366656,0.09935245481041884,0.026418581426046323,9.221824827380653e-05,0.0003220703803636659,9.856911420822144
12,12,3,Interior (6-DOF Spread),success,none,-0.2087689242406136,0.0194453701275966,0.3918832401104264,0.1119407497550342,0.8843379040898912,0.1704754955067547,-0.4199450504124384,-0.0878534715482266,-1.0322070385185074,-0.7368563645488532,-0.476403185863651,-0.3386225188873313,-0.20869310142731012,0.019438691639334933,0.3919299084762104,0.11196829675399884,0.884248116553262,0.17046846488777562,-0.42012958878520174,0.08928402761784457,0.023741335576181386,8.28728975219406e-05,0.00028943193472218733,7.805973291397095
13,13,1,Interior (6-DOF Spread),success,none,0.1146111449054794,-0.2331955317566311,0.289699214302424,0.6453192592373218,-0.549377170773517,-0.1210623048086298,0.5168091487625799,-1.1562710903105755,-0.2594589818198336,-0.0239667645488526,-0.1407817186178603,2.070262120140059,0.11460352456165986,-0.23317821365862812,0.28969482091202525,0.6453398281806836,-0.5493617066868797,-0.12109928399952159,0.5167912390942866,0.019423903767391282,0.005555547037657683,8.70994401685872e-05,0.00026658564137142397,8.814122438430786
13,13,2,Interior (6-DOF Spread),success,none,0.1146111449054794,-0.2331955317566311,0.289699214302424,0.6453192592373218,-0.549377170773517,-0.1210623048086298,0.5168091487625799,-1.1562710903105755,-0.2594589818198336,-0.0239667645488526,-0.1407817186178603,2.070262120140059,0.11460353835467435,-0.23317824500223305,0.28969482886718056,0.645339790955493,-0.5493617346728146,-0.12109921707691443,0.5167912715111926,0.019388747639874103,0.00554549269333921,8.694180578995292e-05,0.0002661031771711503,10.286625623703003
13,13,3,Interior (6-DOF Spread),success,none,0.1146111449054794,-0.2331955317566311,0.289699214302424,0.6453192592373218,-0.549377170773517,-0.1210623048086298,0.5168091487625799,-1.1562710903105755,-0.2594589818198336,-0.0239667645488526,-0.1407817186178603,2.070262120140059,0.11460427454571329,-0.23317991808034777,0.28969525347801334,0.6453378040006128,-0.5493632286070672,-0.12109564478579651,0.51679300169023,0.017512191764845305,0.005008809919326893,7.852770633302655e-05,0.00024035009999597042,14.569403886795044
14,14,1,Interior (6-DOF Spread),success,none,-0.0916667789349811,-0.1202637896328151,0.2575709528129097,-0.3393583531885198,0.7968533052972491,0.4359300737471933,-0.2445929041505323,-2.282212988618636,-0.9288691327114658,0.1486412354511475,0.6861528919610647,2.0972848644881226,-0.09166693473796952,-0.12026397037973965,0.25756670533081266,-0.3393616728727786,0.7968521007746776,0.43593277247766743,-0.2445874125050319,0.004254180083944273,0.0008095737247561365,7.099305783270227e-06,2.5204300832144495e-05,8.605125904083252
14,14,2,Interior (6-DOF Spread),success,none,-0.0916667789349811,-0.1202637896328151,0.2575709528129097,-0.3393583531885198,0.7968533052972491,0.4359300737471933,-0.2445929041505323,-2.282212988618636,-0.9288691327114658,0.1486412354511475,0.6861528919610647,2.0972848644881226,-0.09166697207290712,-0.1202640136920492,0.25756568736103336,-0.33936246846837415,0.7968518120885372,0.43593341926060414,-0.24458609637104234,0.005273754664465521,0.001003599209406431,8.800756472604476e-06,3.124491056998501e-05,10.114560604095459
14,14,3,Interior (6-DOF Spread),success,none,-0.0916667789349811,-0.1202637896328151,0.2575709528129097,-0.3393583531885198,0.7968533052972491,0.4359300737471933,-0.2445929041505323,-2.282212988618636,-0.9288691327114658,0.1486412354511475,0.6861528919610647,2.0972848644881226,-0.09166700445577766,-0.12026405125940308,0.2575648043847067,-0.3393631585578164,0.7968515616837437,0.4359339802715776,-0.244584954771182,0.006158122885166866,0.001171892580541877,1.0276574957512886e-05,3.648446485839131e-05,13.51793122291565
15,15,1,Boundary (Absolute Extreme),success,none,-0.2690608472176378,-0.1793287855510223,0.2635269268732583,-0.0371202482377684,0.610875509750247,0.7238041708118195,-0.3186859285778977,-2.573669338316908,0.3372488371102076,-0.645726764548853,-0.0337846340697554,1.3011862373451677,-0.26903526860739335,-0.17931246530512363,0.26354375838426514,-0.037147792784968124,0.6108712570482099,0.7238146471338102,-0.3186670761125206,0.034697485370031415,0.004038366675117325,0.0001242484764261989,0.00036959021769480494,9.21481204032898
15,15,2,Boundary (Absolute Extreme),success,none,-0.2690608472176378,-0.1793287855510223,0.2635269268732583,-0.0371202482377684,0.610875509750247,0.7238041708118195,-0.3186859285778977,-2.573669338316908,0.3372488371102076,-0.645726764548853,-0.0337846340697554,1.3011862373451677,-0.2690353778637016,-0.1793125350189583,0.2635436865155917,-0.03714767515024612,0.6108712752219759,0.7238146023825278,-0.318667156634367,0.03454928933327326,0.004021118342850688,0.00012371781497677175,0.0003680116991592836,7.873224496841431
15,15,3,Boundary (Absolute Extreme),success,none,-0.2690608472176378,-0.1793287855510223,0.2635269268732583,-0.0371202482377684,0.610875509750247,0.7238041708118195,-0.3186859285778977,-2.573669338316908,0.3372488371102076,-0.645726764548853,-0.0337846340697554,1.3011862373451677,-0.2690325321932643,-0.17931071936007678,0.2635455582905736,-0.03715073914044106,0.6108708021130497,0.7238157676908412,-0.31866505950479823,0.038409081891245825,0.004470337614417937,0.00013753904597819112,0.0004091244228234527,8.471688985824585
16,16,1,Interior (6-DOF Spread),success,none,-0.0930491788503632,-0.167152209469936,0.4096040026222969,0.5514560406216398,-0.4122583611614797,0.7187431293418621,-0.0966829506077596,-2.1318828714058435,0.0162611827892198,-1.0865267645488532,0.276506911119748,-1.496740133804345,-0.09304928460255635,-0.16715237774137276,0.4095847318231957,0.5514139274077964,-0.41230888621934403,0.7187380821604081,-0.0967451924265587,0.019271823909562877,0.01039303271413897,0.0001291741321376362,0.000404594980785504,8.758419513702393
16,16,2,Interior (6-DOF Spread),success,none,-0.0930491788503632,-0.167152209469936,0.4096040026222969,0.5514560406216398,-0.4122583611614797,0.7187431293418621,-0.0966829506077596,-2.1318828714058435,0.0162611827892198,-1.0865267645488532,0.276506911119748,-1.496740133804345,-0.09304928468445536,-0.16715237787105666,0.40958471672889973,0.551413894428722,-0.41230892577785494,0.7187380782082451,-0.09674524116658255,0.019286918984625066,0.010401170675675194,0.00012927527870001121,0.0004049117964927493,7.553138494491577
16,16,3,Interior (6-DOF Spread),success,none,-0.0930491788503632,-0.167152209469936,0.4096040026222969,0.5514560406216398,-0.4122583611614797,0.7187431293418621,-0.0966829506077596,-2.1318828714058435,0.0162611827892198,-1.0865267645488532,0.276506911119748,-1.496740133804345,-0.09304927387243771,-0.16715236066718486,0.409586713376989,0.5514182568379576,-0.4123036924183454,0.7187386012825399,-0.09673879403013601,0.01729016752723984,0.009324632943283338,0.00011589505106312514,0.0003630026795772604,8.454973936080933
17,17,1,Interior (6-DOF Spread),success,none,-0.0735725795602773,-0.2904611295078819,0.2544027004709406,0.507699742623449,-0.2007000581525029,0.7552716355106333,-0.3626640519692552,-1.857300310374313,0.2572305472153742,-0.079832364548853,-0.8478359222235007,-1.0292037633378466,-0.07356964227686019,-0.29045115942541744,0.2544182751098251,0.5076683660340345,-0.20073482515409924,0.7552688930073133,-0.36269444351160707,0.01872430384830096,0.006405249566255485,0.00010621347526929836,0.00033848488038069804,9.055034637451172
17,17,2,Interior (6-DOF Spread),success,none,-0.0735725795602773,-0.2904611295078819,0.2544027004709406,0.507699742623449,-0.2007000581525029,0.7552716355106333,-0.3626640519692552,-1.857300310374313,0.2572305472153742,-0.079832364548853,-0.8478359222235007,-1.0292037633378466,-0.07356980286544736,-0.29045170450373753,0.2544174240306024,0.5076700809552381,-0.20073292500083717,0.7552690429587771,-0.36269278249179876,0.01770095891229365,0.006055172648514287,0.00010040839911580612,0.00031998504949212715,8.005893230438232
17,17,3,Interior (6-DOF Spread),success,none,-0.0735725795602773,-0.2904611295078819,0.2544027004709406,0.507699742623449,-0.2007000581525029,0.7552716355106333,-0.3626640519692552,-1.857300310374313,0.2572305472153742,-0.079832364548853,-0.8478359222235007,-1.0292037633378466,-0.0735689493224054,-0.29044880730141687,0.2544219471387918,0.507660966457236,-0.20074302395661264,0.7552682459171806,-0.3627016103874439,0.02313978441012836,0.007915759957053178,0.00013126119969238402,0.0004183078662792397,7.504092454910278
18,18,1,Boundary (Absolute Extreme),success,none,-0.0835118219948655,0.2910230283014848,0.3009960985515337,-0.0102553241080515,-0.5126012627521814,0.5999108949470664,0.6142000422306381,1.88791378324848,0.2924385947691008,-0.5150643645488533,-0.4427755307199608,-0.9236863806454076,-0.08350559397469026,0.29100405161053994,0.30100672203958445,-0.010308099317207354,-0.5125753430142239,0.599944028109927,0.6141884270788179,0.022622146955680093,0.007847450056059203,0.00013380481672800037,0.00039274563722445984,7.6044700145721436
18,18,2,Boundary (Absolute Extreme),success,none,-0.0835118219948655,0.2910230283014848,0.3009960985515337,-0.0102553241080515,-0.5126012627521814,0.5999108949470664,0.6142000422306381,1.88791378324848,0.2924385947691008,-0.5150643645488533,-0.4427755307199608,-0.9236863806454076,-0.08350677964814247,0.2910076643498604,0.3010047006653262,-0.010298053742536485,-0.5125802769368395,0.5999377215358009,0.6141906382084479,0.018315911980859686,0.006353714412185946,0.0001083354528565228,0.0003179876236416041,7.608917236328125
18,18,3,Boundary (Absolute Extreme),success,none,-0.0835118219948655,0.2910230283014848,0.3009960985515337,-0.0102553241080515,-0.5126012627521814,0.5999108949470664,0.6142000422306381,1.88791378324848,0.2924385947691008,-0.5150643645488533,-0.4427755307199608,-0.9236863806454076,-0.08350621736025239,0.2910059510674535,0.30100565933435636,-0.010302817787244869,-0.5125779370696323,0.599940712395265,0.6141895896103619,0.02035810451607088,0.007062108023018366,0.00012041411843891626,0.0003534410855444555,7.704991102218628
19,19,1,Interior (6-DOF Spread),success,none,0.0140006403920929,-9.143081912857311e-05,0.3431679986429616,0.2421557469909872,0.009985682702874,0.9700136710964632,0.0182854648876458,3.0959236537084216,-0.8822299008870488,-1.1867507645488533,1.5803428128273704,0.0319751178861151,0.013964979972713273,-8.980111027660689e-05,0.34316849727615983,0.2421071212145421,0.00998698716365236,0.9700257755117094,0.01828651928353104,0.035701121779845905,0.005745365068246502,0.00010198607049567293,0.0003554006857217934,7.858798027038574
19,19,2,Interior (6-DOF Spread),success,none,0.0140006403920929,-9.143081912857311e-05,0.3431679986429616,0.2421557469909872,0.009985682702874,0.9700136710964632,0.0182854648876458,3.0959236537084216,-0.8822299008870488,-1.1867507645488533,1.5803428128273704,0.0319751178861151,0.013968589583615174,-8.996607229828143e-05,0.3431684472333905,0.2421120430246624,0.009986855130263225,0.9700245504432475,0.018286412562522728,0.032087396914141385,0.005163833064115123,9.166329768724307e-05,0.0003194279198664035,10.741538286209106
19,19,3,Interior (6-DOF Spread),success,none,0.0140006403920929,-9.143081912857311e-05,0.3431679986429616,0.2421557469909872,0.009985682702874,0.9700136710964632,0.0182854648876458,3.0959236537084216,-0.8822299008870488,-1.1867507645488533,1.5803428128273704,0.0319751178861151,0.013960955424860325,-8.961718531635011e-05,0.3431685529573012,0.2421016336727847,0.009987134372360167,0.9700271413629243,0.018286638271437082,0.039730254922948655,0.006393739772779976,0.00011349536633684237,0.00039550824475523516,8.358192920684814
20,20,1,Boundary (Absolute Extreme),success,none,0.073638689991938,-0.32901730053417,0.2947516214543471,0.1348779356527059,-0.3687384844197235,-0.529278785542519,0.7521328604419208,1.755991435490314,-1.0395229964517492,-1.357688364548853,-0.3198380641881588,-2.43267073963728,0.07362764870265145,-0.32895836393247624,0.2948538683649736,0.1347168647693561,-0.36890378404745144,-0.5291815811226382,0.7521490667831284,0.11853212147342605,0.028757491257133543,0.00010038258786022602,0.0003596048021481192,8.660793542861938
20,20,2,Boundary (Absolute Extreme),success,none,0.073638689991938,-0.32901730053417,0.2947516214543471,0.1348779356527059,-0.3687384844197235,-0.529278785542519,0.7521328604419208,1.755991435490314,-1.0395229964517492,-1.357688364548853,-0.3198380641881588,-2.43267073963728,0.07362635211844686,-0.32895144297243845,0.2948658685537405,0.13469795760008435,-0.3689231855106323,-0.5291701690125611,0.7521509659890566,0.13244561630840324,0.032133065777270264,0.00011216556625431862,0.0004018154547374562,7.753784418106079
20,20,3,Boundary (Absolute Extreme),success,none,0.073638689991938,-0.32901730053417,0.2947516214543471,0.1348779356527059,-0.3687384844197235,-0.529278785542519,0.7521328604419208,1.755991435490314,-1.0395229964517492,-1.357688364548853,-0.3198380641881588,-2.43267073963728,0.07362500372486727,-0.32894424546685075,0.29487834674469426,0.13467829660559125,-0.368943360036338,-0.5291583014948367,0.7521529402107081,0.146913770562632,0.03564320129945072,0.00012441825066092927,0.00044570875620986974,7.654923677444458
21,21,1,Boundary (Absolute Extreme),success,none,0.266325756198048,0.1833685902514879,0.3282301074377704,0.7049693585037887,-0.003689385104369,0.4152697168478376,0.574939696209459,-2.516912049165139,-0.9947127541106427,-1.393694764548853,-0.1224393612667567,-1.578237299298505,0.2662687298736155,0.1833274743305992,0.32831832502353825,0.7049691998420111,-0.0038545461064725217,0.4154023691156061,0.5748429711508783,0.11280453478256203,0.02668545447180554,9.354219078573645e-05,0.0003492547030447337,7.706044673919678
21,21,2,Boundary (Absolute Extreme),success,none,0.266325756198048,0.1833685902514879,0.3282301074377704,0.7049693585037887,-0.003689385104369,0.4152697168478376,0.574939696209459,-2.516912049165139,-0.9947127541106427,-1.393694764548853,-0.1224393612667567,-1.578237299298505,0.2662555446350783,0.18331796779188025,0.3283387114291718,0.7049691577254436,-0.0038927211599118663,0.4154330269744882,0.5748206098224594,0.13887809020753483,0.032853493308610364,0.00011516338187305685,0.0004299809173902008,7.866207838058472
21,21,3,Boundary (Absolute Extreme),success,none,0.266325756198048,0.1833685902514879,0.3282301074377704,0.7049693585037887,-0.003689385104369,0.4152697168478376,0.574939696209459,-2.516912049165139,-0.9947127541106427,-1.393694764548853,-0.1224393612667567,-1.578237299298505,0.2662744696768261,0.1833316127261463,0.3283094491512829,0.7049692175388673,-0.0038379262692678534,0.4153890215878176,0.5748527058202862,0.10145320173621868,0.02400014714460453,8.412922074306495e-05,0.0003141098692341879,8.407653570175171
22,22,1,Boundary (Absolute Extreme),success,none,0.3149295146445209,0.090994427200215,0.2728720719220687,-0.2118088966674385,-0.0735667971225708,0.1322878318983354,0.9655179165532284,0.2918067734534695,0.4812817589209071,-1.383486764548853,0.8160779231980488,-0.4445688340297393,0.3149038692610583,0.09098672380590306,0.27289050707260765,-0.21181022883518916,-0.07355830717697508,0.13228980737680932,0.9655180004900216,0.03250973319274755,0.0010105073865408745,0.00013436189607753945,0.0004597831307619707,7.85676908493042
22,22,2,Boundary (Absolute Extreme),success,none,0.3149295146445209,0.090994427200215,0.2728720719220687,-0.2118088966674385,-0.0735667971225708,0.1322878318983354,0.9655179165532284,0.2918067734534695,0.4812817589209071,-1.383486764548853,0.8160779231980488,-0.4445688340297393,0.31490638063106363,0.09098747817015368,0.27288870242138685,-0.21181009840755766,-0.07355913842636766,0.13228961395157302,0.9655179922751802,0.02932652562111052,0.0009115680088511216,0.00012120599371584495,0.00041476397161733483,8.205216646194458
22,22,3,Boundary (Absolute Extreme),success,none,0.3149295146445209,0.090994427200215,0.2728720719220687,-0.2118088966674385,-0.0735667971225708,0.1322878318983354,0.9655179165532284,0.2918067734534695,0.4812817589209071,-1.383486764548853,0.8160779231980488,-0.4445688340297393,0.31490500798384713,0.09098706585230029,0.27288968881326126,-0.2118101696981707,-0.07355868408406988,0.13228971966931882,0.9655179967655005,0.03106639206266828,0.0009656463016432496,0.00012839670380981882,0.0004393703997242348,7.256130695343018
23,23,1,Interior (6-DOF Spread),success,none,-0.1760593697935636,-0.0229689789022939,0.3626157556280754,0.2320737423203335,0.6057592061461271,0.7148089586757229,-0.2612388081652071,-3.020057747591629,-0.4327557353635005,-0.2012147645488531,-0.0713427943601106,1.3612367803408645,-0.17605856344048704,-0.022968880413172906,0.36259352010577983,0.23201392157006784,0.6057731382051645,0.7148334749802447,-0.26119255018934406,0.022250356337554338,0.00924823708688067,8.42082707748798e-05,0.0002473239348813911,7.771730184555054
23,23,2,Interior (6-DOF Spread),success,none,-0.1760593697935636,-0.0229689789022939,0.3626157556280754,0.2320737423203335,0.6057592061461271,0.7148089586757229,-0.2612388081652071,-3.020057747591629,-0.4327557353635005,-0.2012147645488531,-0.0713427943601106,1.3612367803408645,-0.1760588427649566,-0.022968914532691048,0.3626012144470844,0.23203462053869658,0.6057683179724634,0.7148249925236532,-0.26120855628373824,0.014550871012155854,0.00604821976761748,5.507100701920287e-05,0.00016174632882808658,8.103504657745361
23,23,3,Interior (6-DOF Spread),success,none,-0.1760593697935636,-0.0229689789022939,0.3626157556280754,0.2320737423203335,0.6057592061461271,0.7148089586757229,-0.2612388081652071,-3.020057747591629,-0.4327557353635005,-0.2012147645488531,-0.0713427943601106,1.3612367803408645,-0.17605878427673438,-0.022968907389123876,0.36259960264830715,0.23203028443561574,0.6057693277762324,0.7148267695147779,-0.2612052032700068,0.01616374645571177,0.006718574130700464,6.117481656549573e-05,0.0001796735274927912,7.9562132358551025
24,24,1,Interior (6-DOF Spread),success,none,0.014517509854246,0.000764641741859,0.3164509374887018,0.1957988014852144,-0.1796630546012106,0.9581937479497844,-0.1060601599954524,-2.846717918560552,-0.8383341532875974,-1.3686387645488531,1.863120821990219,-0.4222643466313371,0.014487599982909646,0.0007555572347953607,0.31646050920920393,0.19576531513108608,-0.17966930853284133,0.9581985224029768,-0.10606824514297082,0.03269168862750444,0.004049174334306898,0.00012304714491684354,0.0004193667089242765,8.409428358078003
24,24,2,Interior (6-DOF Spread),success,none,0.014517509854246,0.000764641741859,0.3164509374887018,0.1957988014852144,-0.1796630546012106,0.9581937479497844,-0.1060601599954524,-2.846717918560552,-0.8383341532875974,-1.3686387645488531,1.863120821990219,-0.4222643466313371,0.014484171101237509,0.0007545157826185644,0.31646160575333215,0.19576147665214516,-0.1796700253401279,0.9581990696203941,-0.10606917192031072,0.03643925593262916,0.0045133207711983234,0.00013715167839194463,0.00046743757338595337,9.703294038772583
24,24,3,Interior (6-DOF Spread),success,none,0.014517509854246,0.000764641741859,0.3164509374887018,0.1957988014852144,-0.1796630546012106,0.9581937479497844,-0.1060601599954524,-2.846717918560552,-0.8383341532875974,-1.3686387645488531,1.863120821990219,-0.4222643466313371,0.01448910125583816,0.0007560132154866353,0.3164600290581132,0.19576699575729647,-0.17966899462142183,0.9581982828179276,-0.1060678393702115,0.03105087060324118,0.003845952628731431,0.00011687159959863357,0.00039831940812268843,8.060312747955322
25,25,1,Boundary (Absolute Extreme),success,none,0.2642028435877414,-0.1105331942094941,0.2500917698207342,-0.2819115971324704,0.0691354546987572,-0.1933094135830801,0.9372180167527624,-0.4130573985799826,-0.1108535863008579,-0.4315443645488532,0.5629970640322253,-0.588690137219412,0.2641737219092913,-0.11052043102188147,0.25009902287406016,-0.2819121168018297,0.06913301246142114,-0.1933101597067603,0.9372178866957606,0.03261254200970689,0.00029899148215818596,8.906754185439292e-05,0.00029378372717404406,7.854969024658203
25,25,2,Boundary (Absolute Extreme),success,none,0.2642028435877414,-0.1105331942094941,0.2500917698207342,-0.2819115971324704,0.0691354546987572,-0.1933094135830801,0.9372180167527624,-0.4130573985799826,-0.1108535863008579,-0.4315443645488532,0.5629970640322253,-0.588690137219412,0.2641837692129071,-0.11052483446403061,0.2500965212220804,-0.28191193749718924,0.06913385514906564,-0.19330990225913944,0.9372179315705451,0.021361014355265454,0.00019581778318360232,5.833851559939041e-05,0.00019242588761056022,8.262509822845459
25,25,3,Boundary (Absolute Extreme),success,none,0.2642028435877414,-0.1105331942094941,0.2500917698207342,-0.2819115971324704,0.0691354546987572,-0.1933094135830801,0.9372180167527624,-0.4130573985799826,-0.1108535863008579,-0.4315443645488532,0.5629970640322253,-0.588690137219412,0.2641765660856899,-0.11052167754221201,0.25009831479263117,-0.2819120660446364,0.0691332510077253,-0.19331008682936657,0.9372178993988379,0.029427493887240405,0.0002697870685307782,8.03688349807763e-05,0.00026509156770696397,6.958397388458252
26,26,1,Interior (6-DOF Spread),success,none,-0.1770484652814765,0.237528852320103,0.2837605070744275,0.3333674928643747,0.8169219656456658,-0.3678823655876115,-0.2935424702434141,2.243030335644005,0.1438331992501251,-0.6828467645488532,0.3024919173671454,-2.1808873915053213,-0.17703020746090856,0.2375059123866575,0.28376639525872255,0.3333786652072209,0.816919407282794,-0.36789287587871394,-0.2935237289676417,0.02990416814873884,0.0027906474186811074,0.00010395791677091925,0.00032115829111314037,7.9574713706970215
26,26,2,Interior (6-DOF Spread),success,none,-0.1770484652814765,0.237528852320103,0.2837605070744275,0.3333674928643747,0.8169219656456658,-0.3678823655876115,-0.2935424702434141,2.243030335644005,0.1438331992501251,-0.6828467645488532,0.3024919173671454,-2.1808873915053213,-0.17702818068929613,0.2375033658614183,0.2837670484454229,0.33337990533249734,0.8169191232716287,-0.36789404251744706,-0.29352164866288705,0.03322369321299128,0.0031004112568953136,0.00011549746665047156,0.00035680756082319984,7.806395530700684
26,26,3,Interior (6-DOF Spread),success,none,-0.1770484652814765,0.237528852320103,0.2837605070744275,0.3333674928643747,0.8169219656456658,-0.3678823655876115,-0.2935424702434141,2.243030335644005,0.1438331992501251,-0.6828467645488532,0.3024919173671454,-2.1808873915053213,-0.17702820743461842,0.23750339946542703,0.2837670398265634,0.3333798889678815,0.8169191270194636,-0.3678940271225517,-0.2935216761145109,0.03317988880257324,0.0030963233368004046,0.00011534519128144626,0.0003563371347033416,6.404552459716797
27,27,1,Interior (6-DOF Spread),success,none,-0.2004315825126326,0.0507148770561808,0.3408185728049533,0.0478771729958632,-0.4446210310718451,0.8813138309130027,0.1526625247923692,2.9072440167984874,0.0322648407681864,-1.3194547645488532,1.065228277217208,-0.9082448124465144,-0.2004237837120887,0.05071301520865169,0.34081469640958517,0.047862344389038414,-0.4446200981303857,0.8813163194058629,0.15265552553712058,0.00890585241262825,0.001903530802782197,9.031330357757717e-05,0.0002926014314115212,7.795340061187744
27,27,2,Interior (6-DOF Spread),success,none,-0.2004315825126326,0.0507148770561808,0.3408185728049533,0.0478771729958632,-0.4446210310718451,0.8813138309130027,0.1526625247923692,2.9072440167984874,0.0322648407681864,-1.3194547645488532,1.065228277217208,-0.9082448124465144,-0.2004208667280022,0.05071231882217476,0.34081324567464155,0.04785679868686936,-0.44461974918566144,0.8813172500091008,0.1526529078986712,0.012237275792982005,0.002615426280874776,0.00012408969790168173,0.00040203180367054836,7.459679365158081
27,27,3,Interior (6-DOF Spread),success,none,-0.2004315825126326,0.0507148770561808,0.3408185728049533,0.0478771729958632,-0.4446210310718451,0.8813138309130027,0.1526625247923692,2.9072440167984874,0.0322648407681864,-1.3194547645488532,1.065228277217208,-0.9082448124465144,-0.20042085607038265,0.050712316277827796,0.3408132403732866,0.04785677842537273,-0.44461974791074316,0.8813172534090424,0.15265289833499274,0.012249448011849143,0.002618027524090425,0.00012421310159625444,0.0004024316128398577,7.154906988143921
28,28,1,Boundary (Absolute Extreme),success,none,0.1559209332500994,-0.044931996334352,0.4345816467380977,0.787672042555759,0.1190015156218984,0.4531878682913303,-0.4000401838431853,-0.3026107818522163,-0.0697013229263723,-1.1553843645488533,0.2824026688397458,-2.0466315346649417,0.1559319865725845,-0.04493544717291954,0.43456379376111537,0.7876993773230923,0.11895642141397617,0.45312536945580634,-0.4000705691809037,0.021279403466967387,0.009996463712065314,0.00010376571105597809,0.0003288989125989644,7.905146598815918
28,28,2,Boundary (Absolute Extreme),success,none,0.1559209332500994,-0.044931996334352,0.4345816467380977,0.787672042555759,0.1190015156218984,0.4531878682913303,-0.4000401838431853,-0.3026107818522163,-0.0697013229263723,-1.1553843645488533,0.2824026688397458,-2.0466315346649417,0.15593322736405676,-0.04493583454659107,0.4345617887549825,0.7877024459748576,0.11895135838081043,0.4531183521461435,-0.40007398052478993,0.023668895297219848,0.011118822399199868,0.00011541608644373702,0.0003658262987697131,7.306915044784546
28,28,3,Boundary (Absolute Extreme),success,none,0.1559209332500994,-0.044931996334352,0.4345816467380977,0.787672042555759,0.1190015156218984,0.4531878682913303,-0.4000401838431853,-0.3026107818522163,-0.0697013229263723,-1.1553843645488533,0.2824026688397458,-2.0466315346649417,0.15593089551262923,-0.04493510654450382,0.43456555666338437,0.7876966790057014,0.11896087331345177,0.45313153971370107,-0.4000675695686673,0.01917838851890001,0.009009577463052088,9.352157706829234e-05,0.00029642879627811024,7.904409646987915
29,29,1,Interior (6-DOF Spread),success,none,0.0488545567231071,0.1193339801094656,0.3822076117262725,0.789232810416998,0.4977779355088033,0.3481170166827902,0.09023990568343,-1.8703391470713413,-0.2974105135985261,-1.0180403645488534,-1.3485386056292243,-0.5831140153698118,0.04884376339042898,0.11929903161293706,0.38227894680032737,0.7892282725155889,0.4976797686359745,0.3483105719674713,0.09007400961540017,0.08016599173166035,0.03130730340872027,0.0001669268708854088,0.0005200047511056936,9.103898286819458
29,29,2,Interior (6-DOF Spread),success,none,0.0488545567231071,0.1193339801094656,0.3822076117262725,0.789232810416998,0.4977779355088033,0.3481170166827902,0.09023990568343,-1.8703391470713413,-0.2974105135985261,-1.0180403645488534,-1.3485386056292243,-0.5831140153698118,0.048843743270267026,0.11929896646464251,0.3822790796763314,0.7892282640061362,0.4976795857117105,0.3483109325463408,0.0900737005367227,0.08031534082443285,0.03136563043379402,0.00016723786377798033,0.000520973545360619,8.707041501998901
29,29,3,Interior (6-DOF Spread),success,none,0.0488545567231071,0.1193339801094656,0.3822076117262725,0.789232810416998,0.4977779355088033,0.3481170166827902,0.09023990568343,-1.8703391470713413,-0.2974105135985261,-1.0180403645488534,-1.3485386056292243,-0.5831140153698118,0.0488448383646349,0.11930251234827624,0.38227184697118466,0.7892287268790684,0.49768954227753176,0.34829130576054035,0.09009052396364202,0.07218610097928076,0.02819083234388458,0.00015031021499927187,0.0004682411232021165,10.766190767288208
30,30,1,Interior (6-DOF Spread),success,none,-0.0671067674165097,0.2716518805861629,0.3326221873166243,0.6078431034262894,0.6672936736061087,0.4253848980584646,0.0655255926043461,1.854166205914996,0.1826992257704727,-0.9168883645488533,0.2900453177360389,2.342205293420572,-0.0671003950394769,0.27162999790236253,0.3326197690221742,0.6078347687015417,0.6673115512725452,0.4253633238045723,0.06556088969575748,0.022919580873191354,0.0052517590024777445,0.00011596347561663168,0.0003602787183257624,8.154336214065552
30,30,2,Interior (6-DOF Spread),success,none,-0.0671067674165097,0.2716518805861629,0.3326221873166243,0.6078431034262894,0.6672936736061087,0.4253848980584646,0.0655255926043461,1.854166205914996,0.1826992257704727,-0.9168883645488533,0.2900453177360389,2.342205293420572,-0.0671010684259231,0.2716323103071369,0.3326200249029746,0.6078356494366548,0.6673096623265092,0.42536560345150387,0.06555716009665433,0.020497569310866024,0.004696841239629867,0.00010371031519788576,0.00032221023178273896,8.30352520942688
30,30,3,Interior (6-DOF Spread),success,none,-0.0671067674165097,0.2716518805861629,0.3326221873166243,0.6078431034262894,0.6672936736061087,0.4253848980584646,0.0655255926043461,1.854166205914996,0.1826992257704727,-0.9168883645488533,0.2900453177360389,2.342205293420572,-0.06710134408075673,0.27163325690319107,0.33262012962543275,0.6078360099709466,0.6673088890614244,0.42536653664715013,0.06555563334310538,0.019506107534946058,0.004469679459250571,9.869434856922821e-05,0.00030662647514372146,6.066911697387695
31,31,1,Interior (6-DOF Spread),success,none,0.0582653429077912,-0.211752244489776,0.3507842300472504,0.772306700834852,-0.6109113721755056,0.1612967781951915,0.0656734690425191,1.785904060854084,-0.676468584014621,-0.9324787645488534,-1.1969957960855817,0.101462174781135,0.05825742544822321,-0.21171600700125187,0.3508519244127526,0.7722836716576383,-0.6108778520720813,0.16147453079528032,0.0658191176121462,0.07719047131150084,0.026742692711631003,0.00011487648004833706,0.0003801310941739608,8.00474762916565
31,31,2,Interior (6-DOF Spread),success,none,0.0582653429077912,-0.211752244489776,0.3507842300472504,0.772306700834852,-0.6109113721755056,0.1612967781951915,0.0656734690425191,1.785904060854084,-0.676468584014621,-0.9324787645488534,-1.1969957960855817,0.101462174781135,0.058257414370179735,-0.21171595629802822,0.3508520190776163,0.7722836394203791,-0.6108778051685975,0.16147477938827373,0.06581932130856001,0.07729842952435229,0.02678009405167808,0.00011503714224780359,0.0003806627327641706,7.653954744338989
31,31,3,Interior (6-DOF Spread),success,none,0.0582653429077912,-0.211752244489776,0.3507842300472504,0.772306700834852,-0.6109113721755056,0.1612967781951915,0.0656734690425191,1.785904060854084,-0.676468584014621,-0.9324787645488534,-1.1969957960855817,0.101462174781135,0.05825653907598543,-0.21171195015652833,0.35085949823410384,0.7722810921678126,-0.6108740992360093,0.16149442005752349,0.06583541488415821,0.08582797153925548,0.029735093660675678,0.00012773069624170963,0.0004226662395694993,9.00730586051941
32,32,1,Boundary (Absolute Extreme),success,none,0.0156721981672707,-0.3097376215500944,0.2569409989117429,0.5579143276580054,-0.3787783066252888,0.5923896218253563,-0.4408323188896272,-1.5589410471305565,0.1003946990215012,-0.265061164548853,-0.1685136160415528,-1.4748645788559125,0.015671878458083835,-0.3097106556639916,0.2569524524966146,0.5578994516830548,-0.37879879916226145,0.5923764060385572,-0.44085129594208744,0.029299246298944072,0.003929712255811714,0.00010432485648419476,0.00031113567763014024,8.707734823226929
32,32,2,Boundary (Absolute Extreme),success,none,0.0156721981672707,-0.3097376215500944,0.2569409989117429,0.5579143276580054,-0.3787783066252888,0.5923896218253563,-0.4408323188896272,-1.5589410471305565,0.1003946990215012,-0.265061164548853,-0.1685136160415528,-1.4748645788559125,0.01567187903545267,-0.3097107038497341,0.25695243203752427,0.5578994782652156,-0.37879876253913136,0.5923764296500919,-0.4408512620433709,0.02924689390236948,0.003922690682515956,0.00010413844533642691,0.00031057974702423,7.904472589492798
32,32,3,Boundary (Absolute Extreme),success,none,0.0156721981672707,-0.3097376215500944,0.2569409989117429,0.5579143276580054,-0.3787783066252888,0.5923896218253563,-0.4408323188896272,-1.5589410471305565,0.1003946990215012,-0.265061164548853,-0.1685136160415528,-1.4748645788559125,0.01567192494613333,-0.3097145762619935,0.25695078777200064,0.5579016144027027,-0.3787958199720905,0.5923783273944677,-0.4408485370871298,0.025039603403175403,0.0033584091199424767,8.915796595295732e-05,0.0002659023487480869,7.83840274810791
33,33,1,Interior (6-DOF Spread),success,none,0.1554479314696125,0.2082125220886457,0.338644255325559,-0.5959594217238933,-0.4531671604338103,0.1761328200025408,0.6391002441564487,-2.1740673430726987,-0.9087502483950506,-0.8110963645488533,-1.0434877339686068,1.440160351135209,0.15542146367646184,0.20817410448361176,0.3387145571206598,-0.595860908589425,-0.45328441977958145,0.17596849522563346,0.6391542075963355,0.08437297461395774,0.02647270303342242,9.851008009862384e-05,0.00034601637476568137,7.604017734527588
33,33,2,Interior (6-DOF Spread),success,none,0.1554479314696125,0.2082125220886457,0.338644255325559,-0.5959594217238933,-0.4531671604338103,0.1761328200025408,0.6391002441564487,-2.1740673430726987,-0.9087502483950506,-0.8110963645488533,-1.0434877339686068,1.440160351135209,0.15542020457807645,0.20817227692122925,0.3387178998323215,-0.5958562231277487,-0.4532899952986172,0.175960680732656,0.639156772911165,0.0883853347050483,0.02773157935964821,0.00010319460169680995,0.0003624707468794677,7.904033660888672
33,33,3,Interior (6-DOF Spread),success,none,0.1554479314696125,0.2082125220886457,0.338644255325559,-0.5959594217238933,-0.4531671604338103,0.1761328200025408,0.6391002441564487,-2.1740673430726987,-0.9087502483950506,-0.8110963645488533,-1.0434877339686068,1.440160351135209,0.15541533176851724,0.20816520411120334,0.3387308350111483,-0.5958380907930259,-0.45331157075622475,0.1759304402464882,0.6391666993620075,0.10391233544428426,0.03260314044996007,0.00012132262006996353,0.0004261453738532382,8.307950019836426
34,34,1,Interior (6-DOF Spread),success,none,0.2796673757768712,0.0370766319204964,0.2915626907964208,0.7596316884253637,-0.1953363362455289,0.4022125740728236,0.4722588897415465,0.1376417042709627,0.2127251364548197,-0.0924531645488531,-1.0402123130130527,1.960884345397896,0.27966462680349663,0.03707625113960455,0.2915748923418336,0.7596572372750418,-0.1952962810277583,0.40215699614391925,0.4722816902282763,0.01251317542283145,0.008776496086952258,0.0001114076643372236,0.0003591761863504514,7.756329298019409
34,34,2,Interior (6-DOF Spread),success,none,0.2796673757768712,0.0370766319204964,0.2915626907964208,0.7596316884253637,-0.1953363362455289,0.4022125740728236,0.4722588897415465,0.1376417042709627,0.2127251364548197,-0.0924531645488531,-1.0402123130130527,1.960884345397896,0.27966489766424374,0.037076288658381445,0.29157369174527714,0.7596547228502445,-0.195300223478152,0.40216246645842213,0.4722794462315515,0.011281832599989652,0.00791267687508869,0.00010044244541054236,0.00032382452514837624,6.753934860229492
34,34,3,Interior (6-DOF Spread),success,none,0.2796673757768712,0.0370766319204964,0.2915626907964208,0.7596316884253637,-0.1953363362455289,0.4022125740728236,0.4722588897415465,0.1376417042709627,0.2127251364548197,-0.0924531645488531,-1.0402123130130527,1.960884345397896,0.27966461727829617,0.037076249820004015,0.2915749345561627,0.7596573256869635,-0.19529614240246507,0.4021568037947803,0.47228176913195935,0.012556471152041351,0.00880686979500682,0.00011179322585987695,0.0003604192300827681,7.256096839904785
35,35,1,Interior (6-DOF Spread),success,none,-0.1088019681359358,0.0311019315179084,0.2728668747165866,0.0204948534758661,-0.3497498312370161,0.9259271339580292,0.141116827950997,2.889603237737803,-1.0369319280170592,0.0151948354511473,0.8846434018676514,-0.7049308311610831,-0.10880845570558327,0.031103601818520808,0.2728603960680283,0.02048420530949434,-0.34974875482359463,0.9259283571259213,0.14111301606257295,0.00931940723482175,0.0013093993265772454,1.6882360961061048e-05,5.691433822504005e-05,8.771997451782227
35,35,2,Interior (6-DOF Spread),success,none,-0.1088019681359358,0.0311019315179084,0.2728668747165866,0.0204948534758661,-0.3497498312370161,0.9259271339580292,0.141116827950997,2.889603237737803,-1.0369319280170592,0.0151948354511473,0.8846434018676514,-0.7049308311610831,-0.10880919207908343,0.031103791409664773,0.27285966067448547,0.020482996669001833,-0.34974863262777955,0.9259284959591999,0.14111258339776162,0.010377232549314134,0.0014580244296437228,1.8798639013520997e-05,6.337458424409271e-05,7.758304834365845
35,35,3,Interior (6-DOF Spread),success,none,-0.1088019681359358,0.0311019315179084,0.2728668747165866,0.0204948534758661,-0.3497498312370161,0.9259271339580292,0.141116827950997,2.889603237737803,-1.0369319280170592,0.0151948354511473,0.8846434018676514,-0.7049308311610831,-0.10881184184699279,0.03110447362454355,0.2728570143741129,0.0204786474621365,-0.3497481929441028,0.9259289955210497,0.14111102644313922,0.014183752320162796,0.0019928444943109296,2.5694274041159273e-05,8.662136476283754e-05,10.41384482383728
36,36,1,Boundary (Absolute Extreme),success,none,0.2376983799352953,0.2453860393038874,0.2796409312412982,0.7401495698494375,0.1846102447922343,0.3931946561811133,0.5133182581206909,0.8271660684255586,0.410865663813454,-0.8239027645488534,0.0096692839405974,1.7498495800130178,0.2376765126535758,0.24536226453107313,0.2796584601363966,0.7401444143628993,0.18463965399884022,0.39316524472707437,0.5133376417108815,0.036751598544022344,0.005291397297685936,0.00014767827271488615,0.00044219385261097516,10.762423038482666
36,36,2,Boundary (Absolute Extreme),success,none,0.2376983799352953,0.2453860393038874,0.2796409312412982,0.7401495698494375,0.1846102447922343,0.3931946561811133,0.5133182581206909,0.8271660684255586,0.410865663813454,-0.8239027645488534,0.0096692839405974,1.7498495800130178,0.23767765330253418,0.24536350468790113,0.2796575462003793,0.7401446832793775,0.18463812017868622,0.3931667787040369,0.5133366307927401,0.034834739679369515,0.005015425394980386,0.0001399760723061489,0.0004191311286263666,11.255312442779541
36,36,3,Boundary (Absolute Extreme),success,none,0.2376983799352953,0.2453860393038874,0.2796409312412982,0.7401495698494375,0.1846102447922343,0.3931946561811133,0.5133182581206909,0.8271660684255586,0.410865663813454,-0.8239027645488534,0.0096692839405974,1.7498495800130178,0.23767537834297836,0.24536103128372638,0.27965936894052607,0.7401441469279627,0.18464117926464976,0.39316371932055877,0.5133386469944211,0.03865776861519188,0.005565829962323954,0.00015533748071869385,0.0004651278926986242,12.00987982749939
37,37,1,Interior (6-DOF Spread),success,none,0.0614510269039923,0.2743103478746687,0.2520012425343859,0.1617523963427481,-0.4487666813357682,0.4967552900775725,0.7250371092435245,1.392437988761417,0.3869363847401419,-0.003365164548853,-1.3301962482781209,-0.3699345877350875,0.06145164611976028,0.2743137827340518,0.25202361411445595,0.16170303206599246,-0.4487179395017549,0.4967878831231059,0.7250559560282416,0.02264220135015102,0.009044828689338773,0.00012408812031235988,0.0004131316679075281,9.054518222808838
37,37,2,Interior (6-DOF Spread),success,none,0.0614510269039923,0.2743103478746687,0.2520012425343859,0.1617523963427481,-0.4487666813357682,0.4967552900775725,0.7250371092435245,1.392437988761417,0.3869363847401419,-0.003365164548853,-1.3301962482781209,-0.3699345877350875,0.06145179212757208,0.27431459265499725,0.2520288973808974,0.16169137167001557,-0.4487064258676198,0.496795581419424,0.7250604071349583,0.027989181173094912,0.011181292181118609,0.00015339879989821544,0.000510716927517819,13.959725141525269
37,37,3,Interior (6-DOF Spread),success,none,0.0614510269039923,0.2743103478746687,0.2520012425343859,0.1617523963427481,-0.4487666813357682,0.4967552900775725,0.7250371092435245,1.392437988761417,0.3869363847401419,-0.003365164548853,-1.3301962482781209,-0.3699345877350875,0.06145179019892744,0.27431458195659086,0.25202882757293904,0.16169152574562778,-0.4487065780046264,0.4967954796987199,0.7250603483216745,0.02791853185360851,0.011153061838261659,0.0001530115017283528,0.0005094274796952606,10.154193878173828
38,38,1,Interior (6-DOF Spread),success,none,-0.1021892984402124,-0.231459097343058,0.3329091971597629,0.0835405262658757,-0.6545292847066476,-0.4857484242116157,0.5732895117726794,-2.029106158617505,-0.018489617393679,-0.2949427645488529,-0.4198475840310809,1.3959803087883746,-0.10218491384679648,-0.2314502089421458,0.33290601492478206,0.08358287647470708,-0.654518712594184,-0.4857803749327522,0.5732683359077672,0.010409368360877802,0.006656749329547466,8.544162914558908e-05,0.00025406897787682594,9.111061573028564
38,38,2,Interior (6-DOF Spread),success,none,-0.1021892984402124,-0.231459097343058,0.3329091971597629,0.0835405262658757,-0.6545292847066476,-0.4857484242116157,0.5732895117726794,-2.029106158617505,-0.018489617393679,-0.2949427645488529,-0.4198475840310809,1.3959803087883746,-0.10218285339645483,-0.2314460333867161,0.3329045185955665,0.08360276922079045,-0.6545137455788174,-0.48579538175778153,0.5732583892886468,0.015300147296021032,0.009783509004111164,0.0001255740292562993,0.00037340869865835376,11.607938766479492
38,38,3,Interior (6-DOF Spread),success,none,-0.1021892984402124,-0.231459097343058,0.3329091971597629,0.0835405262658757,-0.6545292847066476,-0.4857484242116157,0.5732895117726794,-2.029106158617505,-0.018489617393679,-0.2949427645488529,-0.4198475840310809,1.3959803087883746,-0.10218414810222279,-0.23144865772570639,0.3329054590981416,0.0835902676324638,-0.6545168670336924,-0.48578595050774803,0.5732646406458511,0.012226393439606055,0.00781846842264364,0.00010035215741005243,0.00029840857786075556,9.607746839523315
39,39,1,Interior (6-DOF Spread),success,none,0.1646443056602937,0.0120200681685767,0.3615594286183481,0.9481808908213688,0.0784281100359512,0.266579898365461,-0.1540687756323288,-3.0630092096524275,-0.7907804267215252,-0.3088627645488531,-1.4837043103950958,0.2996289666669347,0.1645948439832115,0.012016173191568823,0.36162378175846144,0.948106695768933,0.07846351673477421,0.2668338297389379,-0.15406776848705006,0.0812585687058346,0.030585579138737422,0.00012405719038338647,0.00047043975918335026,10.33137035369873
39,39,2,Interior (6-DOF Spread),success,none,0.1646443056602937,0.0120200681685767,0.3615594286183481,0.9481808908213688,0.0784281100359512,0.266579898365461,-0.1540687756323288,-3.0630092096524275,-0.7907804267215252,-0.3088627645488531,-1.4837043103950958,0.2996289666669347,0.16459432553379633,0.012016132453285805,0.36162445589419234,0.9481059179534018,0.07846388803733105,0.2668364901696479,-0.15406775824209948,0.08210998418746768,0.030906043535650615,0.0001253567811617229,0.000475368857650557,8.215214490890503
39,39,3,Interior (6-DOF Spread),success,none,0.1646443056602937,0.0120200681685767,0.3615594286183481,0.9481808908213688,0.0784281100359512,0.266579898365461,-0.1540687756323288,-3.0630092096524275,-0.7907804267215252,-0.3088627645488531,-1.4837043103950958,0.2996289666669347,0.16459507512317453,0.012016191480154884,0.36162348119484644,0.9481070424549694,0.0784633516960842,0.26683264349174374,-0.15406777357746052,0.08087896546220072,0.030442700544214166,0.00012347743411026402,0.0004682421339844712,8.507485389709473
