GyaraManasa17/my_repository/metric_ws/40_poses/og/omx_all_reachable_poses_6dof_FULL.csv
j1,j2,j3,j4,j5,x,y,z,roll,pitch,yaw,qx,qy,qz,qw
-0.08806751357939024,-1.3108437019956778,0.08010124852194878,-0.5283673411032628,-0.8658448624023056,-0.09361981884771566,0.009325797249160536,0.3891737088260273,2.275747791187487,-1.3824828590128013,3.053525140010403,-0.29797193842179365,-0.6869250487772269,-0.34838549675218866,0.5638920525493278
2.9426543438170336,-0.7674466804506187,-0.06652559078864484,-1.6616945644407914,-1.8474845645799634,0.1253641795630253,-0.022854780478394645,0.3561272746331858,1.2941080890098298,-0.6459258179097382,-0.1989383097727595,0.5436991143776111,-0.30874222522880435,0.1152461537705752,0.7718729399498706
-2.1992568419970073,0.27303718899456,1.177767630536601,0.3906633294373838,-1.3623738416706037,-0.005533200188492248,-0.024125175645527255,-0.10051460361692074,1.779218811919189,1.3001245046212486,0.9423358115927853,0.37800505546504687,0.620302155967977,-0.1913875763904052,0.6600819713851858
-1.8461204422957311,-0.522746843917968,-0.31679177516758283,-1.06930724921266,2.6316924426171497,0.015588681361704682,0.012703361380985156,0.42515840460913096,-0.5099002109726432,-1.2327467852915823,1.2954722112940618,0.17342256946087217,-0.5702584504586621,0.36017304594267424,0.717638689772542
0.6961165190229326,0.884679980436303,-0.8581600465737046,1.1988139898897228,-2.5412060330340944,0.23622254529551934,0.18737636296612628,-0.031341003117911465,-2.5412060330340944,1.2253339237523209,0.6961165190229321,0.792665397273732,0.10671005929097735,-0.5989076747464267,-0.040051571015642516
-0.5551105370342686,1.1861623979281362,-1.436897010343877,-0.9483250659815389,-1.707132145714814,0.27180649719256306,-0.16112132550446576,0.26465384313064516,-1.707132145714814,-1.1990596783972798,-0.5551105370342686,0.7000086499415971,0.18620461160672125,0.5576576453161831,-0.4053809112966998
1.6589501778779274,1.1551900934578123,0.37042026326140065,0.08015778839129206,-1.033157446598851,0.0008350018834211821,0.12632529992556987,-0.19405351385950403,2.10843520699094,1.5358245084792883,-1.4826424757118681,0.6930245047807453,-0.1693219098483872,-0.6854129777578962,-0.14579498118848688
0.5539170971128318,-1.0873597925244651,-0.386899377137478,0.7336665416094716,-0.8823938987432016,0.03538644188541536,0.014464695356609707,0.3712885697708453,-0.8823938987432018,-0.7405926280524715,0.553917097112832,-0.29343147566268807,-0.42361402001682713,0.08184286097958172,0.853083159628812
-1.1189933395475267,0.2664966034651479,0.7591212540481158,-1.2892826942062892,-0.6456018765393492,0.13212844323434847,-0.2475442389932565,0.11220570575434605,-0.6456018765393491,-0.26366483669302543,-1.1189933395475267,-0.33268687194490965,0.061255321815953175,-0.5343197361849719,0.7746416270172661
-1.9215093278299864,-0.489944636384926,-0.7012632592399468,0.44794429647191714,-1.0581129048822024,-0.030713549494121646,-0.11675577720665006,0.40684187846276443,-1.0581129048822018,-0.7432635991529557,-1.9215093278299866,0.5263592070615953,-0.2058417286999963,0.7642691774557433,-0.3105926468196038
-1.1811891775255452,0.8426062696240857,0.13657385256592347,0.5982118534295229,2.8090932763364065,0.08022126513616422,-0.16615189870537395,-0.13564812764472012,-0.3324993772533509,1.5642006779702613,1.9604034760642837,-0.6426937077512749,0.28952999801638035,0.6460843346176172,0.2927323194101813
1.7093298138862512,-1.3950079679161245,-0.1904263985734751,1.7143162784803982,0.18088845708012213,0.00723145863058481,0.03420109585857556,0.20900225145326362,0.18088845708012213,0.12888191199079868,1.7093298138862512,0.010791147640352484,0.11009387408607375,0.7458901337035996,0.6568186952766724
-0.5033883911812049,0.09727075366546711,1.3201134682496019,-0.49971941024368327,1.7087733891958519,0.1453117627197991,-0.07341616221889932,-0.06465202347997528,1.7087733891958516,0.9176648116713855,-0.5033883911812047,0.7272937420841591,0.11328557699692877,-0.4701259287067239,0.48702341004035316
1.3558106367445353,0.6211625570222408,-1.0524963665883318,1.1157267266746638,-1.9023811017544345,0.08245000082150727,0.3226320277562441,0.10062829657728142,-1.9023811017544343,0.6843929171085725,1.3558106367445353,0.7195442093106821,0.32919833489360123,-0.5558621769519674,-0.2547583705886134
0.07166600951476054,-1.4904014682206137,0.2645286781678533,-0.06224491266660803,-1.6159252271388138,-0.02714180430844229,-0.002809949216878645,0.3635682267117321,-1.6159252271388134,-1.2881177027193684,0.07166600951475999,-0.5628280014841199,-0.4353347944033806,-0.4139772087205849,0.567742131770288
-1.0367045365998577,-0.2767668269385779,-0.8720633302180192,0.6372665968639872,-0.4481622495273858,0.10260073011342105,-0.1531901122509052,0.38039197175022604,-0.4481622495273858,-0.5115635602926096,-1.0367045365998582,-0.3089562237235162,-0.10775993971647192,-0.5161810688471679,0.7915118137959801
2.5488612605485113,0.34444486858635814,-0.4724927108383288,1.2138799395677855,-2.4229696050411706,-0.20626350253946987,0.1470045707782471,0.04660375368352493,-2.4229696050411706,1.0858320973158149,2.548861260548511,0.4078276354199869,0.7135301298028921,-0.42918809266199653,0.37463175888913613
-0.9733154308123524,0.3948815682508906,-0.8614792524409358,-0.8493963188358892,2.4234933755046675,0.13708106267360642,-0.18382244107128415,0.3785482994898377,2.423493375504667,-1.3159940030259343,-0.9733154308123522,0.5542662118185929,-0.5363717100918101,0.3760417622972546,0.5135045745247349
2.7381651011812203,1.4871621515609155,-0.8283155549195705,1.4811846581687658,-1.2329238289148723,-0.11826520593983585,0.05560231446016459,-0.16398588368507305,1.9086688246749208,1.0015613987796828,-0.40342755240857286,0.7568398346786472,0.12855141946121415,-0.48540229602848683,0.41839288737785474
0.11768405306432417,-1.291880647591833,0.9391662526687283,0.18683516973974212,2.4724390692963794,0.16814361408565912,0.01846091720607953,0.1869845414326304,2.4724390692963794,-0.1658792251833625,0.11768405306432417,0.94127314438304,0.028199646503932453,0.0973597390832043,0.3220725520841049
2.1114330466416273,1.3356444466872168,-0.4266427813715443,1.3409795956080408,-2.6331722829507886,-0.04259740937876402,0.09095089547950133,-0.1559436766971503,0.5084203706390046,0.8916113926660798,-1.0301596069481662,0.4030397976280798,0.251407811313018,-0.5245407838808787,0.7065479459911745
0.3205937854752534,-1.2753225361600284,-0.9613938444619438,-0.9080582206154139,1.1483360945541539,-0.32165569966700347,-0.11078988438895174,0.21673238698636407,-1.9932565590356395,0.003181947647592942,-2.8209988681145397,-0.13316353636835843,0.8290170375703977,-0.5359594966407936,0.08800932882610715
-3.1362706366593933,0.531836211535039,0.024656646984687614,-0.06894762573814028,2.465441176723164,-0.31979723166132845,-0.0017658471562645838,0.017432133982333058,2.465441176723164,0.48754523278158635,-3.136270636659393,-0.08249011161299591,0.9152862508514564,0.32247102366685837,0.22684554080609293
-0.028744911691176434,0.2850671196834631,-1.4556122197553738,0.2738245285558192,0.9395924794507509,0.2188149091296321,-0.005946514198234576,0.4143992055048747,0.939592479450751,-0.8967205715160917,-0.028744911691176545,0.40236163269307257,-0.3923478193595988,0.18467368871303771,0.8062654239625142
-2.334602542141014,-1.375455464709148,-0.3839018795438631,1.474847706495521,0.46812589711635644,0.0058181301568287075,-0.006454761745815982,0.27446012421935095,0.4681258971163562,-0.2845096377574896,-2.334602542141014,0.036690044559354616,0.26529967567368606,0.8726688190096068,-0.4083124478215766
-2.2526564028802,-0.050401403934341005,1.0837987658769688,0.05298187837193202,0.35646320448617397,-0.08586015735802666,-0.12055567228212138,-0.05912373922617232,0.35646320448617397,1.0863792403145598,-2.2526564028802003,-0.524515789527043,-0.08169659302106405,0.8000464458507409,-0.27952555823604175
-3.1200436525593247,1.1418305557190163,-0.7401937514807514,-0.8623442538392713,-1.606576048481722,-0.37129867602975597,-0.008260982292714256,0.11334965309098252,-1.6065760484817224,-0.4607074496010062,-3.1200436525593247,-0.16607364948374273,0.6988853667574761,-0.6777347292543686,-0.1570172724318136
-2.1394337673096753,-1.0508817625840747,-0.1632581395967292,-0.846926484118286,-3.0643053989370297,0.0825264022158904,0.11036168826916709,0.4008282712900125,0.07728725465276348,-1.0805262672907034,1.0021588862801183,0.2759592250888199,-0.4348761145290621,0.4290760568614951,0.7420397620941046
2.0578350482405092,0.31175214478033153,-0.5139674244364515,-1.6347682159537993,1.953822638307805,-0.05427986396650558,0.12515307786356333,0.35275535736995167,-1.1877700152819877,-1.304609157979874,-1.0837576053492843,0.6404509157296755,0.20166058898302897,0.63069543752006,-0.38907440995703907
-2.3068320508683975,1.3716532944135889,-1.457429729862636,-1.574573026199297,2.8711681148428068,-0.14878796952700257,-0.17750027888740266,0.23078057542176922,-0.2704245387469843,-1.481243191941449,0.8347606027213936,0.18007488297149238,-0.6515223784874223,0.21330207781292565,0.7054033246686493
-1.8882746165252302,0.6795773245386059,-0.4790476193280844,0.7466180411451131,2.637626995640949,-0.08595168626585588,-0.29809417170800967,-0.010193810673027687,2.6376269956409484,0.9471477463556344,-1.8882746165252302,-0.5975224612086172,0.6313985954317807,0.43873696170774484,0.22762381349372932
-2.0831612425088153,-0.09021052432239096,0.08370646147754157,-1.2234513560405855,3.0636064072819447,-0.08099169212143947,-0.1653280602782981,0.34027272750571413,3.063606407281945,-1.2299554188854345,-2.0831612425088153,0.39263211070695897,-0.7158714234991224,0.26356541938409306,0.5137133445454048
-1.5570537174722903,-1.1755841142887897,-0.9191642652040238,-0.46248785966311234,0.6263076051828849,0.007822863698177324,0.30393597291208946,0.32628591708594934,-2.5152850484069083,-0.5843564144338672,1.5845389361175028,0.5765918866460247,0.7109299225164978,-0.017595323459924844,-0.40225718901842494
2.1365296867976538,0.1262111501450245,-1.3597010249766797,1.8837383383121564,2.160675541718389,-0.09944706131168693,0.17551675136080686,0.20391460959360114,2.1606755417183896,0.6502484634805015,2.1365296867976546,0.27075166405532186,0.8050259344214633,0.2554551830711627,0.4619192903118495
0.6112510925577936,1.0067387635956564,-0.15931050131293967,-0.7911105694802304,-1.2069375371985787,0.3087207700962107,0.20793679094962675,0.0057231608406048745,-1.206937537198579,0.05631769280248666,0.6112510925577939,-0.5479640327333822,-0.14857999863315682,0.2628836743590155,0.7800971584310783
-2.552861913543801,-1.2744690914959687,0.85208022816109,1.1465820259111001,0.11368509942579763,-0.08543560916607612,-0.0650596007320276,0.06499006758204202,0.11368509942579741,0.7241931625762215,-2.5528619135438007,-0.35386537092485626,-0.05176648998210736,0.8993252767170001,-0.2516218918000525
-1.9622791249308171,-0.7177239149359911,0.9202900889935202,0.023632060107555475,-1.728780636867347,-0.06843230000487437,-0.19485073184638907,0.11098859286636514,-1.7287806368673468,0.22619823416508456,-1.962279124930817,-0.3594181708561277,0.6689384638271622,-0.488304360004548,0.42999856054589375
1.093408616143197,0.08877734919318181,-1.119131537291792,-0.7114325779155606,3.115362731129973,0.04504149484133896,0.06387359769549432,0.44836970686734107,-0.02622992245981992,-1.3998058875756223,-2.048184037446596,0.5554224694732469,0.326275853358775,0.657749653705499,-0.39040407396637056
-2.6181345550234996,0.6551410001812528,0.4995548800829206,-0.7009923271067224,3.1055172706107492,-0.2396021657701669,-0.14521538910724116,-0.03695113816180195,3.105517270610749,0.4537035531574509,-2.6181345550234996,-0.2559992059050592,0.9399930865722173,0.07516260276213242,0.21266872576483115
-1.2512382721430613,-0.8227033378396363,1.2743339474127877,-0.8638241051149746,2.0775553631056654,0.06861297678815188,-0.1710883900583178,0.17394387765691338,2.0775553631056654,-0.4121934955418234,-1.2512382721430613,0.6229893279593588,-0.578128111852255,-0.14781807398136704,0.5057687223814183
1.0748884967829424,-1.467349387263225,1.004413041193739,-0.7843300272661721,2.9962631244723243,0.02951933776515204,0.032383198286184876,0.3031898868501557,2.9962631244723243,-1.247266373335658,1.074888496782942,0.7171849397521218,0.37805785733812536,0.5305048306991861,-0.24755331406078734
-1.6316857208654663,0.9915131201996901,-0.48186339571099945,0.9061576620398586,-2.0558426775805865,-0.0034027439793879012,-0.2526499760620557,-0.10859840475251384,-2.055842677580586,1.4158073865285492,-1.6316857208654656,-0.20110902150109472,0.7039477435585796,0.09567859480089193,0.6744318663190398
2.9183527821000954,1.1088819549030768,0.7893675507501334,-1.2590424247096919,1.7310429923796273,-0.1961132691520012,0.04724666170525901,-0.11750240775777297,1.7310429923796276,0.6392070809435184,2.9183527821000954,-0.12188442015657944,0.741062638723406,0.5849383936377701,0.306296309575976
2.631772336833329,-0.5985761347403649,0.7290163881789216,1.2302531732597284,0.05842499559657188,-0.07870086531125307,0.05071292507883271,0.006647690377150489,0.05842499559657188,1.360693426698285,2.631772336833329,-0.60274998515926,0.18052732472447028,0.7472811136780437,0.21371307297037273
1.5980520038796202,-0.4638805395470391,-1.2777750229634244,0.05432222305632717,0.4875933590828838,0.014055790431396173,-0.07540745866595967,0.46532406057669273,-2.6539992945069084,-1.454259314135657,-1.5435406497101738,0.6314900791874043,-0.3906173380332517,0.5880763012684842,0.3206316250809976
0.9452659329047446,-0.855400342336363,1.0491797832708163,-0.21974993868343384,3.020219409229506,0.1292510597788636,0.16233210944025322,0.14183657823948856,3.020219409229506,-0.025970497748980303,0.9452659329047446,0.8890172862394323,0.4536546602695425,0.03914732547628875,0.04809574712232614
-2.8329848493131786,-0.532511899096136,0.5913331563740001,1.2075229729869423,2.3589669288569977,-0.10927676385567489,-0.038662200337539775,0.022506753332897395,2.3589669288569985,1.2663442302648065,-2.8329848493131773,-0.3375304069302143,0.7016776574364277,0.3878823856453866,0.4932230168575819
-1.3098384998522465,0.9572410836316774,1.0351087396320757,-1.6673711665195272,-1.0585208627830016,0.06847378947279013,-0.21147476683141286,-0.05049384793104015,-1.0585208627830018,0.3249786567442259,-1.309838499852247,-0.3101013948810211,0.41422738181651314,-0.4540539373776728,0.7253191180426132
-2.474809545147452,0.7265855782549706,0.42340325270084755,-0.7331988242008093,-0.5317970354508303,-0.22332910115193363,-0.18521140139085743,-0.038522619126022596,-0.5317970354508306,0.4167900067550092,-2.474809545147452,-0.10449473126560234,-0.30826027824405006,0.8742125824225924,-0.360289900952903
0.3421130440457385,-0.35899012078564807,0.4929787684994067,0.6701364416954056,-1.3167241462605597,0.21081008877803706,0.0707994751946302,0.05633151824330625,-1.31672414626056,0.8041250894091645,0.3421130440457384,-0.6075049644563811,0.20917124924011754,0.3598311669337365,0.6765401968510705
1.6599488680536822,-1.1169302937901904,0.1647585038581756,0.5714065314340393,-2.1343957605288524,0.0017193934578648793,0.11500911357705264,0.29748605246573495,-2.134395760528852,-0.38076525849797505,1.6599488680536825,0.513040420582927,0.6962578521515781,-0.23781073409122047,-0.4421092454545136
-1.6076581157616305,-1.3622768352330246,0.0838445699098358,-1.4326305023885206,-0.43227932914068523,0.02045657306614884,0.22930906817730606,0.2947834095011793,2.709313324449108,-0.4305298858780837,1.5339345378281632,0.7188242962892809,0.6291802102380841,0.2956130539272263,0.006067656615140134
-1.2989011397728611,-0.36221234833064564,-1.4262243141848314,-1.1819273304043865,0.34803468354012335,-0.04355262021629647,0.1992564859251382,0.33595150776069693,-2.7935579700496693,-0.1712286606699296,1.842691513816932,0.5816428497651839,0.7904685074252644,-0.08645581907954676,-0.17139581509825483
-0.5378290962427941,-0.4020406641957177,-0.5985789644846929,0.8873664412589302,0.4339850521140587,0.18154135298543483,-0.10112845172450999,0.30909416273345597,0.43398505211405874,-0.11325318742148038,-0.5378290962427943,0.19253910289866172,-0.11039137849263794,-0.24729188852189898,0.9431803429253317
-0.1116346224481446,0.7563893954770684,-1.0436506865371684,0.6017352436025265,-0.40225668908411816,0.38555908308891795,-0.0418762297936758,0.12192217696411203,-0.40225668908411816,0.3144739525424265,-0.11163462244814462,-0.1884434990990401,0.16420197114256932,-0.022755360422946395,0.9679922282189185
-0.6599223197258932,-0.5877400609205194,-0.4543964840314014,-0.4513985467010144,2.965871001722858,0.030844537507324576,-0.014622992699254229,0.4454248153780239,2.9658710017228564,-1.493535091652935,-0.6599223197258917,0.6723084176719328,-0.29325635949625745,0.6192829196446488,0.28016203272189316
-0.49362945040892203,1.3399385235412486,-0.6353623002178246,1.6605521267517231,-1.6331741379517435,0.10955760081350362,-0.05249176948583998,-0.12666288993537447,1.5084185156380499,0.7764643035146461,2.6479632031808715,-0.11269635972660023,0.681955956468182,0.5908053340369104,0.41615461215211175
-2.3450291584364096,0.9036915213131902,-1.375878409235474,1.441553666582099,-1.2116205748765836,-0.20899853402927804,-0.22598951124689529,0.044727995866993484,-1.2116205748765836,0.9693667786598148,-2.34502915843641,0.15762522843637738,0.6129521593801617,-0.5675313402131473,0.5266423032262464
-2.7303487713284125,1.2654090628273185,-0.7670975014800936,0.9486979167743701,0.21547374747851267,-0.22440427177670813,-0.10309847080643318,-0.14244921015322876,0.2154737474785131,1.4470094781215952,-2.7303487713284116,-0.6607669697773366,-0.05549012071130399,0.7439819118936123,-0.08245467197100834
-2.6192387777922717,0.8442603103083366,0.9322409257261444,-0.4208400692537333,3.1046808398592014,-0.09229434544053362,-0.06004137798157143,-0.15061999230641068,3.104680839859202,1.3556611667807479,-2.6192387777922708,-0.2122812385916256,0.7494022322893416,0.17578960942241695,0.6020224108792552
0.3191138680025807,1.2120640062114898,-1.2117428416134692,-0.7563611586202821,-1.630782786434757,0.3617282681105955,0.11555240474732759,0.19135144495674006,-1.6307827864347575,-0.7560399940222615,0.3191138680025809,-0.6277987991123357,-0.3573197600166083,-0.16404022622577477,0.6717753055260215
0.33565750323340504,-0.8883680095696044,-0.9733903576177813,-0.9932268703368503,1.9861873396784095,-0.24554153854064792,-0.08984554675639066,0.3227306724436793,-1.1554053139113836,-0.2866074160655572,-2.805935150356388,0.20824361999098281,-0.5129243580651497,0.830510696763084,-0.061605033873880985
-2.823796475438904,0.1686990911830497,-0.6723499542714411,-0.8982624796708202,-2.282553075624251,-0.15952055491822956,-0.05642088776894197,0.3987297857810619,-2.2825530756242527,-1.4019133427592108,-2.8237964754389013,0.3751350245545806,-0.6435574065948623,0.40702126163087055,0.5286220486791524
-0.46928323767745983,-0.21291144104145898,0.14843383445355163,1.9679763382849653,1.415442511407179,0.07270286496677403,-0.030780268913031854,0.04691725180419301,-1.7261501421826146,1.2380939218927356,2.6723094159123333,-0.5107692704123323,-0.5141808875034857,0.6174652934643402,-0.30572762174127766
2.48949000100588,0.08234805157677405,1.3257997283080742,-0.34717310066810403,-1.4859676664714525,-0.09320605301228019,0.08032771610581024,-0.07648793664405909,-1.4859676664714527,1.0609746792167445,2.4894900010058794,-0.539881933458589,-0.43342035627986236,0.7113992552936013,-0.12076999732947911
-1.670050068432394,0.25694313982406625,-0.2087954103095182,0.49155437980264094,-1.3439002261419337,-0.01935486442621908,-0.31486807563199243,0.08926697719691105,-1.3439002261419337,0.5397021093171892,-1.6700500684323942,-0.2480221317793084,0.5848035445183583,-0.4477811357354737,0.6292709201495499
-1.6628832274037824,0.6109984106439375,1.1836320231533675,-0.5460318966530584,2.3420700551771643,0.001326452493610106,-0.11557952124134246,-0.12162582383514926,2.3420700551771647,1.2485985371442467,-1.662883227403782,0.6717049643752251,-0.39896546562975793,-0.5961423583576125,-0.18507643458941964
-0.9190810714776068,-0.8693400344762763,0.2975336065991028,1.406988596824571,-0.7618461159395205,0.09025375519168494,-0.10257212279281072,0.10928257892065935,-0.7618461159395203,0.8351821689473975,-0.9190810714776069,-0.13758795150378078,0.48815854379363066,-0.24122696013169048,0.8273937064227036
-0.8557164901515439,0.31048082160323665,-0.5869714405335539,1.000576568507092,-2.6889907029072075,0.20918279519799937,-0.22706441709718148,0.10223625170908009,-2.688990702907207,0.7240859495767751,-0.8557164901515439,0.7962064792965664,-0.45043870064512376,-0.22697835638317107,-0.33412728865043806
-1.4218548925617598,-0.33156824595860135,-1.114415849890163,0.19947063142561938,-0.8101789214006891,0.01901643942113779,-0.046759851508954446,0.4625630413581716,-0.8101789214006896,-1.246513464423145,-1.4218548925617593,0.592533580565926,0.1976802166222717,0.6612727327544118,-0.4153851956598927
2.0121617291956566,-0.905391896848985,0.36650961255317793,-0.20585699487736275,-2.3784002196536163,-0.046875500627673414,0.12461752043574159,0.3291441898185016,-2.3784002196536163,-0.7447392791731698,2.0121617291956566,0.34818948520338144,0.8027623076617959,-0.11232007553874163,-0.4708725522073714
2.524633000488609,0.2700121258319408,-1.1117216336169866,-1.2919804942163917,1.9351135187622073,-0.03266947187249545,0.03168535292995912,0.40382898619896684,-1.2064791348275856,-1.0079026515883556,-0.6169596531011845,-0.594069367982454,-0.22805998594812085,-0.479959394400697,0.6039115900202502
1.5126525267463071,-0.4303844218779629,-0.3212066542900396,0.9389103167072499,-0.6553990622312109,0.024535239865100755,0.21534730619420367,0.24080483665258978,-0.6553990622312111,0.18731924053924742,1.5126525267463073,-0.2938519169399403,-0.15550863346023333,0.6687823346958938,0.6649799279893814
1.2555440804699396,0.005340079612153215,-1.2927188884395242,1.0333820997871512,-0.7843194357063221,0.07827172309544003,0.20320739800875182,0.346501352680355,-0.7843194357063223,-0.25399670904021954,1.2555440804699398,-0.2380819639837375,-0.31739263319731037,0.49920708060309754,0.7703059038417507
-0.9421264256996569,1.4414718417848538,-0.9489742292108903,1.4390213457603325,-1.3386391242275553,0.11961308506429422,-0.1480073133614006,-0.15565774270971383,1.8029535293622374,1.2100736952554976,2.199466227890136,-0.021737393214361894,0.7349356736272209,0.2522880288034267,0.6290848844860513
-1.6784418217151675,0.9302426167125177,-1.4421154754592969,-0.8094466281728188,-1.542103965629715,-0.016412561097981088,-0.2629253758594711,0.33205420233946714,-1.5421039656297155,-1.3213194869195979,-1.6784418217151673,0.6950736040566753,-0.11546056277401796,0.707058615590493,-0.06008042532161898
0.8434541332409071,0.5335976701498901,0.40177951621690133,-0.8153348751037356,3.032129289960022,0.22324567494247258,0.23731669574572892,0.03859972271510496,3.032129289960022,0.12004231126305576,0.8434541332409071,0.9080334301077523,0.4109818042613441,-0.03229529067742489,0.07433882278392956
-2.9606645341403537,-1.036917509105154,-1.0536826033414188,-0.6311577882248762,-0.061745741631279216,0.3122329172288648,0.05492117024975475,0.31793169763493895,3.079846911958514,-0.4198347529183444,0.18092811944943965,0.974165745210646,0.08190953190517941,0.210155537269585,0.01125075980515104
0.9769126005613815,1.4441833513636495,0.48755900431119437,-1.1501376241635781,-1.6810601612069989,0.12359490766182119,0.16527800344936844,-0.17650940596968717,-1.6810601612069984,0.781604731511266,0.9769126005613811,0.7275170997176711,0.09885028318272521,-0.5400340132150205,-0.4114738821650315
0.8558713703206657,-0.22407002500982998,-0.3434406523318567,1.1085689989843337,-2.5542176400714345,0.16686842726010973,0.17839341643858614,0.17413780760803216,-2.5542176400714345,0.5410583216426468,0.8558713703206653,0.8712992721789357,0.3123916137995068,-0.34849665147723724,-0.1476453244683008
0.12865778682401796,0.6700578339846563,-0.5124039614844875,-0.7526192910378625,0.24304331521276223,0.36194146773013836,0.04527276826850372,0.21484820333500027,0.24304331521276235,-0.5949654185376938,0.1286577868240179,0.1343624014733399,-0.2829005138773905,0.09646638492422284,0.9447794879747745
-0.9526951887443871,-1.1853318627637595,1.3581318306631545,-0.6024760960787774,-0.37930620759013767,0.10331046281863332,-0.12841705380290908,0.1749888521947445,-0.3793062075901378,-0.4296761281793824,-0.9526951887443872,-0.25968240471289217,-0.10160380659125366,-0.47567834084182753,0.8342492620450216
-0.6330530012175823,-0.2936523332064196,-0.6329954126224154,1.1213177553533515,-1.7232140148336805,0.1868496815875516,-0.12830490227810437,0.2572652018562692,-1.723214014833681,0.19467000952451663,-0.6330530012175825,-0.6980775708564688,0.2952421418455185,-0.13165752167754408,0.6388944198624132
2.7123771001220165,-1.3957970167934584,-0.6416122533218691,-1.677626708807358,2.3014253795947863,0.2953679044820288,-0.1296895337685044,0.12963005629904714,-0.8401672739950069,0.5734433253328919,-0.42921555346777673,-0.32722182591302235,0.3356056856619132,-0.07381577370681622,0.880253333961087
-1.5043367259014069,-1.2435841728050558,-1.1471210577858977,0.7426098401982231,0.31696391612705677,-0.0023756678821580867,0.21598830358952184,0.3669937739509591,-2.8246287374627355,-1.4934972631970629,1.6372559276883858,-0.4168567105792391,-0.602426899494189,-0.3736924101530977,0.5689167744097933
-1.2590685127743428,1.1993637574477414,0.3717936360559144,-1.3326072776449924,1.1205837290827163,0.09877281565369546,-0.269285381007599,-0.07809460566351259,1.120583729082716,0.2385501158586638,-1.2590685127743428,0.4858536533835866,-0.22919254858001042,-0.5463164254977125,0.642616033413907
-0.5014302016375098,-0.8948149022234086,-0.7226696796978581,-1.5745927670044289,2.1318036831961114,-0.20715388763691903,0.12013161055784956,0.27412311961991837,-1.0097889703936818,0.050484695335902385,2.6401624519522833,-0.1413696692929771,-0.4629620279857952,0.8506206774011131,0.20524434322276816
2.6461158223213905,-1.2003655632929116,-1.154399095556518,1.0965899193629711,2.868347070115951,0.14319631544771683,-0.07090423979691038,0.3677859380934283,2.8683470701159504,-1.258174739486458,2.6461158223213905,-0.27411553494176705,-0.7569231580549559,-0.24970287634774657,0.5381231084495103
2.8239678517450217,-0.8073508066614167,0.5378364358001892,0.6109447912518042,0.5082614061635788,-0.1722353935808943,0.060568386704277166,0.14495051510755785,0.5082614061635788,0.3414304203905769,2.8239678517450217,-0.12318104838590577,0.2706358807123293,0.9350551692190351,0.19301419612653517
-0.8696615759919148,0.8701050862286883,-0.20398124203899992,-0.14846942353333925,0.4006519078373749,0.23739984779037682,-0.2669886618970746,-0.03187044617717747,0.40065190783737487,0.5176544206563491,-0.8696615759919151,0.28012305395191905,0.1464535017681884,-0.44527248181116613,0.8377439127837397
1.9376529293467124,1.4298555567868112,-0.27768453581731256,-1.1192911103681409,0.28434116669678167,-0.10992443900317476,0.31730393235609156,-0.06481710172900716,0.2843411666967818,0.032879910601357754,1.9376529293467124,0.06681190616565404,0.12598502093852323,0.8144767207488125,0.562398093037212
1.3227937940799706,-0.6110628524399376,-0.7398254898237911,-0.09979076334516312,-1.1577249448841522,0.010129637010618791,-0.007386453248841832,0.4574711817372247,-1.1577249448841542,-1.450679105608892,1.3227937940799726,0.018044466420944916,-0.6896545121026434,0.09833415818663595,0.7172039071991828
-2.605075492208511,-1.3630273098450625,-1.2026894270523112,1.1517100400188938,-2.974909658635183,0.18337594738514687,0.10191816526894451,0.33445750958344944,-2.974909658635184,-1.4140066968784801,-2.6050754922085098,0.2529617841881065,-0.7162417774623537,0.23259809117776428,0.6073764729872225
1.7497230892973388,-1.1915570316438946,-0.616568939588749,-1.0281546818924925,1.9304918705009837,0.0638431760847071,-0.2866465672485419,0.29765051358521766,-1.2111007830888094,-0.3053120004646568,-1.3918695642924543,-0.5119203047684939,0.264730333027664,-0.5874065179246961,0.5681628596101453
-3.138699520500023,-0.022413326501731667,-1.291158503125669,1.7356900718669788,3.114704784917753,-0.1861693415865747,-0.0005733318791608061,0.2425799563275107,3.114704784917753,0.42211824223957817,-3.138699520500023,-0.00423069609903817,0.9777161219034867,0.01344821996106581,0.20945746957414232
-0.3368342095620296,-1.213161315428313,-0.910549427661174,-1.0242035843954307,-1.5556985506598582,-0.3052296154637303,0.11108712586556911,0.23130451770580684,1.585894102929935,0.006321673895124391,2.804758444027764,0.11723073153688417,0.7027128901865167,0.6914390858350589,0.11984798758684934
-2.723348304288374,-0.24699506335927124,-1.199593780234204,-0.9937184757449863,-0.7551783231028346,0.11664991332998394,0.046513581515065267,0.4154373424414402,2.386414330486959,-0.7012853342513314,0.41824434930141896,0.8802663003613369,0.0573516048700769,0.38422872128451424,0.2724157183553445
1.9692890325066177,0.2085223366665021,-1.4131984301869864,-1.6533516601171734,0.48202367607431107,0.034800940036182726,-0.05415673590468116,0.3401654939326229,-2.659568977515482,-0.2835648999521352,-1.1723036210831754,0.8195363922275615,-0.5036830939982023,0.24502385737008323,-0.12094110944801104
-3.1179290775123203,-0.7863155648349156,-0.7849566425462079,-0.8461657184037307,-0.40997889138516097,0.20511762350539214,0.004570706752585194,0.3965818585534635,2.731613762204632,-0.724154727804939,0.023663576077473047,0.9163726260386723,-0.06126563940364665,0.34902942007533977,0.1862423034579469
-2.110547301568271,-0.3907355687301144,0.28343633886486796,0.3968024392332852,-1.7598237169703739,-0.1162695392449957,-0.21410687675787549,0.15473952313977507,-1.7598237169703739,0.28950320936803875,-2.110547301568271,-0.2959943570239677,0.7088225874253505,-0.4938000622058384,0.4075774512054235
3.0355827967598668,-0.6307506164475438,0.9299178042094725,-1.3752447658121216,-3.1298112188917897,-0.125338827968021,0.014614055237173637,0.28085539103472074,-3.12981121889179,-1.0760775780501928,3.0355827967598668,-0.042479588830190804,-0.8576544056571522,-0.022098022732696294,0.5119922678918112
-0.3518744540379197,0.7340085650098023,0.18639939722279442,-1.2879248442596263,-2.136639888313103,0.3194253357388265,-0.1128724936535955,0.09708594675432469,-2.136639888313103,-0.36751688202702937,-0.3518744540379195,0.8637392003667752,-0.0641713744445578,0.24054289927464614,-0.43815036466971874
0.9291964581652081,0.6210100957986988,-0.8054251625698328,-0.26914694929965965,-2.431211848418719,0.2270135926154736,0.28782321207139505,0.24226291405900574,-2.4312118484187186,-0.4535620160707936,0.9291964581652081,0.7817009534502068,0.4792439451105131,0.036629499165604096,-0.39740047841041426
-0.2711377723536499,-0.6747463600097571,-0.1690523146962306,1.3810896312319325,-1.8819886258739882,0.16443922452980153,-0.042375580382385,0.18545925501030996,-1.881988625873988,0.5372909565259452,-0.2711377723536502,-0.7508791284774855,0.260203507479263,0.13578574695803525,0.5916391637099672
1.1624361570323973,-1.1482858115604695,0.2504707496497458,1.3580530299231428,-2.701461218136105,0.05698898408783318,0.10397678001563412,0.15999624694887146,-2.701461218136105,0.46023796801241934,1.1624361570323973,0.8214744815073136,0.48006175061203643,-0.30273468814845694,-0.05542653176280951
-1.7920346520177748,0.49441594589870363,0.8443708487642629,-1.6455505224991962,-0.3367199986911782,-0.045587055485192346,-0.25603346787971093,0.08827050212190979,-0.3367199986911781,-0.3067637278362294,-1.7920346520177746,-0.22106515276909455,0.035210151998968334,-0.7767606282823702,0.5886708501172483
0.15570623608828615,-0.06725958073747962,0.21309773387834308,-0.5718574945967367,0.27311870875111177,0.2918433039453368,0.043928933360712796,0.23671695216514707,0.2731187087511119,-0.4260193414558735,0.15570623608828613,0.14894414849501192,-0.1984514564732892,0.1040011975419982,0.9631284498770433
0.8452433896189349,-0.18444510417786897,-1.0985305533409115,0.03532537591075835,2.075548597034723,0.06904270841408935,0.06431401144637247,0.4598741973998268,2.075548597034723,-1.247650281608022,0.845243389618935,0.7592931876575435,0.016008710720873356,0.6280033847438524,0.1697920054306641
1.2740043376995125,-0.49143278764298026,-0.9948513525397145,-1.0150119314509158,-0.5374905126069471,-0.03382199723362424,-0.14983090379902636,0.40252558112960635,2.604102140982846,-0.6402965819561826,-1.8675883158902806,-0.47712729480062005,0.785348368993493,0.022137654028620644,-0.39381138651594577
0.954256246353423,-1.2346201612411005,0.0017828260972467813,0.8856195632355905,0.08187447111021795,0.05720341630790682,0.0637837023890637,0.29564201970701365,0.0818744711102179,-0.3472177719082634,0.954256246353423,0.11506865317899181,-0.13480587651383344,0.4582276409926387,0.8709845060293733
0.10496676356792767,-0.27376024220543393,0.0830875607322652,-0.5381909744559581,0.028786067897036638,0.23996819382552229,0.02401735627771296,0.31895289413805744,0.028786067897036638,-0.728863655929127,0.10496676356792767,0.03212433622561048,-0.35518542470907544,0.054131727547481016,0.9326741645231859
-0.6556724161205616,0.04731792405533475,0.20067534382205032,0.7957911181174733,-2.712571588508299,0.19466744742458875,-0.14050667276468917,0.01792654704354929,-2.712571588508299,1.0437843859948583,-0.6556724161205616,0.7677285126830089,-0.37320096153532584,-0.4017352225664624,-0.3315460512087545
-0.531329963020307,-0.9778382924866991,0.4849906011314138,-1.2239962657736874,0.42706739524103376,0.0062177384258530165,0.003398263717818671,0.3674024061746751,-2.714525258348762,-1.4247486964608198,2.6102626905694883,-0.06053389331303693,-0.7500431662856323,-0.012961095128799779,0.6584853122748082
1.2318582042052721,-0.7558761293635792,-1.2119347629075452,-1.055875360709064,2.54521782270152,-0.0799901074946977,-0.26093332742693354,0.3022218476580917,-0.5963748308882734,-0.11790640060960489,-1.9097344493845214,-0.2154012109215694,0.20684768603620834,-0.7888616686906733,0.5371346393461832
2.235785142573861,-0.7208737805384989,0.30549330691251164,1.8709658376347529,-2.871467950299675,-0.02831506264650247,0.05141376009182967,0.06309445870818506,-2.8714679502996754,1.4555853640087655,2.235785142573861,0.4042830017719864,0.6260583748641794,-0.37883744396604735,0.5487151873148095
-0.5488537929342163,0.4218089985984492,-1.1586580216351572,-0.255525971262919,0.8882710801186664,0.2281244569635141,-0.13216642838813664,0.38333126658104505,0.8882710801186661,-0.9923749942996268,-0.5488537929342162,0.24722301261038895,-0.5162006855578946,-0.01828892150029096,0.8198067757805857
-0.03197199677352369,1.3644007751251674,0.6789000244910981,-1.2018372224840936,0.9580959951019508,0.19196147461487445,-0.005755688990959119,-0.16709889981795384,0.9580959951019512,0.8414635771321723,-0.031971996773523526,0.42647675643025273,0.3556815014115247,-0.20118353200978056,0.8069283934937747
0.03000295273794551,-0.05181693372920204,-1.379690148475926,-1.1117617596576181,-0.7871250251661399,-0.08519378375493772,-0.002916975817967406,0.4012099926641742,2.354467628423653,-0.5983238117270471,-3.111589700851847,0.09976785742116621,0.8841243566791704,0.36232393950150804,-0.2776542083533767
0.20442950987492736,-1.4110813461281855,-1.4879728971637765,-0.8936234956718173,-2.7855523493128453,-0.35009500525627707,-0.07507161296474626,0.03666707432160331,0.356040304276948,0.6510850853739862,-2.9371631437148658,-0.3302453749338563,0.13478688317499002,0.9334153526114336,-0.03881066822461768
-0.6276604321656336,0.8252688614595773,0.2070626678265326,-0.043424047545076894,0.34213524191726474,0.22372159058005386,-0.15361195845300807,-0.11100759094056512,0.34213524191726474,0.9889074817410335,-0.6276604321656336,0.2868839148203498,0.3985267081135648,-0.3446029111984159,0.8000768187687308
-2.844396936168313,-1.2425849392154125,-0.9790912677958593,1.2431806235830962,-0.014379099773944581,0.10715400252293415,0.029142462695498438,0.3544585867980753,-0.01437909977394436,-0.9784955834281753,-2.8443969361683124,0.4657104384136395,0.06330070232212605,0.8734367660715322,-0.12733822800952052
0.8604427484184818,-0.9366771021292892,0.2823031349037275,1.1645592418328896,-1.9597544193872647,0.10895239145641805,0.11271651124519547,0.15225428971504895,-1.9597544193872647,0.5101852746073279,0.8604427484184818,0.7889637467699158,0.20736952655948962,-0.4152929226558726,-0.40257406042765936
2.0490343187052744,-0.5014265471542106,0.6126407612059519,-1.6594294821936046,-3.0004541754936347,-0.02774154906430696,0.07666588457462778,0.32897634368744255,-3.0004541754936365,-1.5482152681418633,2.0490343187052757,-0.32843097497906915,-0.6350672456791362,-0.31919465730506547,0.6220429718980157
-0.6137424367523963,0.332891093943567,0.5510910955533483,1.2876865503566595,1.031509415625354,0.05529480328047119,-0.03050136503260778,-0.054817536479278645,-2.1100832379644396,0.9699239137362183,2.527850216837397,0.4516552646240404,0.6642071530600641,-0.5384424127438784,0.25478647515082825
-0.012173533511574686,0.12378222678840656,-1.2736536702483203,1.0662805417264376,-3.0199013597085145,0.2612116671584692,-0.0030339364544312393,0.31005089127672336,-3.019901359708514,-0.08359090173347616,-0.012173533511574686,0.997274779050906,-0.003529444365805749,0.042074989134215465,-0.06050002794041401
-0.15827337627197569,1.243976794488309,-0.15896423719278352,-0.7013623329610708,1.0927059102632648,0.3425465429788961,-0.05275799219604964,-0.09149391968335102,1.0927059102632648,0.38365022433445484,-0.15827337627197557,0.5213258765724619,0.12206594309891589,-0.1650542022208643,0.8282972571972942
-2.598158907425601,1.3821861537598528,-0.48532248210268825,1.096708330761327,-0.995487976823624,-0.10969043401014533,-0.07351402041113556,-0.18242207339689623,2.1461046767661696,1.1480206511713016,0.5434337461641927,0.6411885506380762,0.4477680340020158,-0.35200983300458366,0.5142665726300883
1.5922416402868143,1.4628943047032807,0.30567603448504976,-1.5756277579359697,0.7531950438120112,0.0063814122303760415,0.26195590067134555,-0.10274229763759711,0.7531950438120112,0.19294258125236108,1.5922416402868143,0.19203302070920417,0.3242498411268962,0.6366984558891606,0.6727558515203265
-0.4730431845166101,-0.9778921261531867,-1.2068720232943715,0.2776208757662608,2.5582744916926976,-0.18101227357973423,0.0987837302001536,0.40284288958172,-0.5833181618970955,-1.234449379908496,2.668549469073183,0.4839527563229836,-0.3578506771585538,0.7203067379566968,0.34480548974564484
-3.096166439434395,-0.43365431761635476,-1.121681804271618,0.9208132787005459,2.913728557663912,-0.08626377648000794,-0.00446682426843499,0.40427211173701727,2.913728557663912,-0.6345228431874267,-3.0961664394343944,0.01401909112995156,0.9444956462361626,0.10094501902535537,-0.3123164140079644
2.174645798813227,-1.289119459972101,-1.1389799304046404,1.3424148866513603,1.339117725902581,0.0890311637862188,-0.11167125891693076,0.3403866569713213,1.339117725902581,-1.085684503725381,2.174645798813227,0.6056521622424682,0.2822245168245389,0.743463212114503,0.02823530957089361
2.615869727075741,0.6213382138278654,-0.04397514962741034,1.5938649839665728,0.3092789884782543,-0.08125075140849845,0.0541027760084458,-0.04967751081608306,-2.832313665111539,0.9703646054227653,-0.5257229265140522,0.8253463199475409,-0.2964779075929779,-0.40957271456460953,-0.25130557881296195
-3.1118594706892826,0.5015267871204627,-0.6862309347123012,-1.1832949101442178,2.3291305791400085,-0.22449345813943403,-0.007033776132927544,0.33920306480372997,2.3291305791400094,-1.3679990577360563,-3.1118594706892835,-0.2390825540527647,-0.7156086222698234,-0.2975984176594886,0.5849606943096781
1.4886871324817408,0.287252146645558,0.08604526430763015,1.3397460843853863,2.7024757784220808,0.02447719562540731,0.15161691738024805,-0.027654618638396355,-0.4391168751677108,1.4285491582512186,-1.6529055211080508,0.3587693866211632,0.5541890451076829,-0.44574453484860527,0.6045418423556052
0.917547651145564,-1.1972070316137757,0.4822697123654782,-1.5364750778158704,-1.3818962213713244,-0.05919665389751331,-0.09302578404607495,0.33381110522667723,1.7596964322184694,-0.890180256525625,-2.2240450024442295,0.062029928372137895,-0.7451403998190677,-0.3687708076772369,0.5522011987932535
2.6119349830065612,0.9347769311836864,-0.3301414148490758,0.055685838299681656,-2.34663824081614,-0.2859144974499697,0.1744162036399483,-0.05209741176988411,-2.34663824081614,0.6603213546342923,2.6119349830065612,0.3494227238818118,0.808985396230228,-0.4316611803513036,0.1926525735591283
1.6564102525747328,0.27844846523334477,-1.2852110551813494,1.549954018780616,-1.403482161581407,-0.01032570049733892,0.26013439281224066,0.1983253053577706,-1.4034821615814068,0.5431914288326114,1.6564102525747328,-0.5714588422419262,-0.3196133383001473,0.6591267263119689,0.3699108869247019
-1.9097149579170702,-0.12131467456802181,-0.23878709588433855,0.1596744095036886,-1.2429029791702138,-0.08131935745403313,-0.2647202487405005,0.2649120423500743,-1.2429029791702138,-0.20042736094867153,-1.9097149579170694,0.4010660934507967,-0.4258459616222774,0.6939461054945298,-0.41980949051098115
-0.4048278976247084,0.6606294787712343,0.39802362608841424,0.23537717093601884,2.486734000113634,0.1975268656823862,-0.07949748409190789,-0.11567757325199189,2.4867340001136338,1.2940302757956679,-0.4048278976247086,0.7790469517282466,0.03802995820552732,-0.610715841195071,0.13662258449908513
0.5654938857457092,-0.49524002014356716,-1.2294602739011078,-0.7217183332677596,2.653399468004331,-0.14100013479672846,-0.0970983850758245,0.40822435856155076,-0.488193185585462,-0.6951740262773587,-2.576098767844084,0.380802956157346,-0.12598737834489374,0.8990679837080843,-0.17547948527017862
1.4622941381942773,-0.5161824562842523,-0.9159613397783786,-0.5445276946180939,2.038878425427544,0.0024554256427610863,-0.08762117920410278,0.45202013282846776,-1.1027142281622495,-1.1649211629090683,-1.6792985153955158,0.6409129347792378,-0.012782053367825072,0.7219516566017927,-0.2604861506381742
2.5257774249709817,-0.7169508615673185,-0.9275658570772841,-1.2897100817097753,2.439306880877765,0.200755286280983,-0.1335651622067115,0.32825970304297847,-0.7022857727120284,-0.20736585323541545,-0.6158152286188117,-0.35548625771160336,0.011074516443857116,-0.316969904813141,0.8792252015874445
-1.2380042124440513,-0.5439057112180705,0.787123567279131,-1.555056407350351,-1.5782411219105104,0.049729649876835515,-0.10915642009086413,0.30576771405394826,-1.5782411219105104,-1.3118385512892905,-1.238004212444051,0.7073875576525684,0.023580517196075484,0.6764736119087765,-0.203544233222643
0.3054043524936567,0.9169100326127153,0.1003942224828307,0.6953879786669381,0.07481325808919825,0.16347160916905504,0.0477541077273823,-0.14507317262306751,-3.0667793955005953,1.428900419827309,-2.8361883010961364,-0.09061315578967234,0.7498677051770878,0.07166907490178863,0.6514224623337812
-0.7470304851505252,1.220226929182307,-0.5484684066587322,-0.44296595388634596,-2.9208495813638344,0.29143996252312226,-0.258779589048356,-0.03242881471978723,-2.920849581363834,0.22879256863722874,-0.747030485150525,0.9147490028307883,-0.3720059259416947,-0.06570077554583831,-0.14328035795954772
2.147291537881342,-0.2648680814209723,-0.2601583857068386,-0.05416820929734323,1.8445283724980182,-0.11361009395294769,0.19319556232351492,0.33877462756832066,1.8445283724980182,-0.5791946764251538,2.147291537881342,0.5158729920074153,0.5890616636963841,0.6173328444721901,0.07603664653599639
-0.42077506607867843,0.7819257512121656,1.2661455745723313,-1.2929379188560879,2.198159531102301,0.16389290755222508,-0.06797245640300555,-0.08605015844285577,2.1981595311023012,0.755133406928409,-0.4207750660786781,0.8447736447454104,-0.00909733253111457,-0.4093724482052382,0.3445125924183658
-1.694997539026886,-0.02463890584827033,0.6457548338554071,1.420504710903839,-2.184155005899325,0.005889245911915148,-0.04894719012866611,-0.026254061655768532,0.957437647690468,1.0999720146788174,1.446595114562907,-0.012661780658258173,0.6076871283523165,0.3203413499060066,0.7265930448923075
0.1515446617481917,0.3492939509372115,-0.629550798857878,1.7077130143992691,2.2426951342818033,0.21791602567591775,0.03144657560005172,0.04799151888111354,2.242695134281804,1.4274561664786027,0.15154466174819192,0.657368229264777,0.335152353288849,-0.5630866638506764,0.3721200347089005
-0.005608747883898424,0.8212100428612672,-0.6279287500764978,0.10429630987510152,-2.704331236145647,0.39621921459100823,-0.0021550113043243063,0.058559553515133804,-2.7043312361456464,0.2975776026598711,-0.005608747883898424,0.9653157520473611,-0.03485956978187809,-0.1441095167755426,-0.21490173665789603
1.3579712910706832,0.20465741151016736,-0.6814414732462155,-0.2970120978544002,-0.23472496895550865,0.06982587092632453,0.26759144391606815,0.34832522882469885,-0.23472496895550843,-0.7737961595904481,1.3579712910706827,0.15093921760127296,-0.3597120619168963,0.5432012456103159,0.743476288706514
2.7661051318033483,-0.8400254620662725,1.057904010430971,-1.4362070778810985,-3.0833508414222974,-0.07808594760279967,0.035510956566984095,0.28569548689769814,-3.0833508414222974,-1.2183285295164,2.7661051318033483,-0.13663843309231496,-0.808482987387606,-0.08328856927392982,0.566346370991455
2.842495499766562,0.3926670915173638,-0.7991243574657075,0.3401478042606201,-0.5709680276284756,-0.31691847126547595,0.10142111825668704,0.2281674213234566,-0.5709680276284756,-0.06630946168772356,2.842495499766562,-0.010484320448497035,-0.28306450240893355,0.9469033179423142,0.15211401306438757
-2.6248646180837545,0.5378048448577664,0.48897220910547956,1.0491814715233703,-1.6800013299965042,-0.05161711070503983,-0.036148854093876095,-0.0885397267437793,1.461591323593289,1.0656341281031771,0.5167280355060385,0.4592130371248823,0.5125924606406101,-0.16390978680442983,0.7067573399821698
-0.6896736647554143,0.910815866436514,0.21420463389514444,-1.3587916936125342,2.03091387416883,0.26230596251514,-0.20644926029388647,0.044082422990195595,2.03091387416883,-0.23377119328087548,-0.6896736647554141,0.7734575773397487,-0.3431485171296417,-0.08375035484721714,0.5263063264966703
-1.99521183440988,-1.2208443085947047,0.9684100927022139,-0.40126064149036234,-2.827533098333987,-0.04345741554205251,-0.1227262173185589,0.25389667653839026,-2.827533098333987,-0.653694857382853,-1.99521183440988,-0.5494696298045832,0.7586763449888104,-0.2964079186537102,-0.1861066233002182
0.8392013338875466,0.07929413314586986,-1.149386140974948,-1.6925842265472235,0.22955641805007465,-0.02447394478146659,-0.04062618350962409,0.35297635923331433,-2.9120362355397185,-0.37891641921349173,-2.3023913197022465,-0.4171707731788284,0.8822219991623059,-0.1789386095736803,-0.12503545178580672
-1.4617453832251717,1.4466262576527704,-0.7537088532657102,-1.3134920628188558,-2.089295292951085,0.05065284487368886,-0.3530414385092915,0.06507815142362455,-2.0892952929510846,-0.6205746584317956,-1.4617453832251721,0.7154935672751876,-0.43549499285365156,0.5158227267613971,-0.17983320311794948
0.27777331900278135,-0.1196633742518598,-0.2889883579712873,0.10299873908218782,-1.8081673838724066,0.2759248852543478,0.075256878489621,0.2867200076949263,-1.8081673838724064,-0.30565299314095906,0.27777331900278124,-0.7561874244687532,-0.20076156175712512,-0.033866471532543414,0.6218749363835859
0.5430324189093265,0.5419510764056663,-1.261970950288016,1.885107122339394,-1.3303981270529863,0.21983500092845906,0.12544071802232704,0.09199201920337405,-1.3303981270529865,1.1650872484570445,0.5430324189093264,-0.6126221164580639,0.27876643804067297,0.5033305146667766,0.5418872654471923
0.06712186529607589,-0.6769652048349095,-0.8809120363114928,-1.0892171490282536,-1.6778335088060417,-0.18781574730194564,-0.013432183942583087,0.3739942046895889,1.4637591447837512,-0.49449826341513714,-3.074470788293717,0.1602210355907493,0.653690817089849,0.7154025082343554,-0.18766136154953794
-2.625263743881149,1.0255077236973995,0.22377042215036003,0.38399801803508615,-0.6936661942003961,-0.11941173589099416,-0.07460210867383239,-0.17146497752740494,2.447926459389398,1.5083164897069476,0.516328909708645,0.603313617622506,0.40002206291801085,-0.5593144189775303,0.4039336686807517
-0.9134607099242955,1.0568226017303166,0.8275575159536745,-0.5054145190522716,-0.86534552671261,0.08252334177406141,-0.09136988692247672,-0.17299634832108168,-0.8653455267126097,1.3789655986317193,-0.9134607099242952,-0.03566518940914764,0.6609987786985252,-0.06952811529727075,0.7463072088668828
3.092774376874753,-0.6733597899188151,0.3613810411101137,1.528321241154787,-2.484456748681211,-0.1001781472683724,0.00548069843758413,0.0630043268503113,-2.484456748681211,1.2163424923460857,3.092774376874753,0.2032774194514534,0.772060236737915,-0.27794845246833383,0.5341778162370754
-1.4840201031969062,0.2728492254071784,-0.27771244332976597,-0.7997883102502242,-3.030087640540274,0.037323766709804515,-0.29109553426023166,0.2918344577608626,-3.0300876405402737,-0.8046515281728117,-1.4840201031969067,0.6919462844747362,-0.6047632223995132,0.3228242581636747,0.22639850391651786
2.3401500058648583,0.1587142542813993,0.5933653774642575,-0.4588729623178316,-0.7509561122804422,-0.18777927408513406,0.20629508692787402,0.0512870789210304,-0.7509561122804422,0.2932066694278255,2.3401500058648583,-0.2666511912945227,-0.28103083893509734,0.8683388089152956,0.309687782581446
0.5108764540606172,1.1559696938836899,0.4360730480694539,-0.3304700536254874,-2.5544836112784326,0.16266746572654345,0.08445061537630326,-0.18678341352695677,-2.5544836112784326,1.2615726883276563,0.510876454060617,0.7910548965551869,0.030198590413011008,-0.6052741108903493,-0.08344726753481486
-1.735424881047908,1.2185769254717354,-0.13854022218486617,0.2961261527098904,0.922986591245063,-0.023679713660504996,-0.2147670718411183,-0.18472228746651903,0.9229865912450623,1.3761628559967596,-1.7354248810479085,-0.6561749846743992,-0.1052592986891989,0.7104708417758727,-0.23148661411255045
1.80246329902291,0.30208897379265043,-1.012364030590697,1.2264369324588327,1.5609257748195122,-0.055440517110627,0.2858831188390305,0.1766961322560469,1.5609257748195122,0.5161618756607864,1.80246329902291,0.28002527658755466,0.6459826673959287,0.42725912129005256,0.5672229554333609
-3.1234760953660228,-0.6312758158808258,0.7948807604482147,1.092469651038771,-1.6703055602585082,-0.10353091694519764,-0.002093251596974515,0.005133031832696658,-1.670305560258508,1.2560745956061599,-3.1234760953660228,0.3888386638217135,0.6034738795528238,-0.5390452847765748,0.44051555156991884
1.92064910411667,-0.6651063456477296,-1.227413867780905,-1.1337062079922462,0.3819333504938789,0.100349249315696,-0.24214451107687826,0.3110262742970114,-2.759659303095914,-0.11536623216891262,-1.2209435494731233,0.8094172653127646,-0.5529307472917009,0.1550066095874439,-0.12281787450225903
-0.22321482669872195,-1.3568753710083334,0.21670966147261028,-1.1785152565229673,0.08364727512894632,-0.16031481500925776,0.03911502322435782,0.3397396930802149,-3.0579453784608464,-0.822911687531103,2.918377826891071,0.08537290819181122,0.9119030986468584,0.006421744550971712,-0.4013763401373487
1.7145412443446926,0.5176312091161606,-0.20009635227365963,0.6494697306496182,-1.4494315544458598,-0.029908359519264915,0.28953591258917777,-0.011159128035513985,-1.4494315544458594,0.9670045874921191,1.7145412443446928,-0.6472978498391859,-0.2159548621487686,0.7028726667740806,0.20084572539580028
-2.0923931530618773,-1.378108672132655,1.249766641839042,-0.6019574450004546,2.673433809948412,-0.04817471717557869,-0.10470921174349793,0.22983956863398575,2.6734338099484116,-0.7302994752940674,-2.0923931530618773,-0.3833977934209581,0.827897368026052,0.013544147083703967,-0.4091560045939096
0.8738939850940524,0.8264014441212733,-1.47954009391128,1.4520954673995135,2.507882070916263,0.21747189584778942,0.24548412621095622,0.08962175028533254,2.507882070916263,0.7989568176095068,0.8738939850940523,0.7418747751982049,0.4802487004255929,-0.21338265826664626,0.4164743027069037
1.1321591393531643,-0.33817304506435586,0.1965089685203747,-1.5545098623863656,2.0828267104787046,0.04724522007128399,0.0751310226882752,0.3639683781390802,-1.0587659431110892,-1.4454187146594464,-2.009433514236628,0.6849700659839111,-0.013496073214974778,0.7255153155779973,-0.0652793349807705
-0.5653019260125682,-0.9876775294852059,-0.3279561585213904,0.35308200459302497,-1.8343218507304764,0.036326145811748325,-0.015431537970968027,0.40089383740275303,-1.8343218507304764,-0.9625516834135713,-0.5653019260125685,0.7542815765891138,0.0740524706916919,0.5032412199530117,-0.4151190303309419
2.0201579083958405,-0.4922943064971208,1.135463020176601,-1.039918510763877,-3.0179753460923506,-0.07791277029455396,0.18643738590722508,0.17091106651777108,-3.01797534609235,-0.39674979708439695,2.0201579083958405,0.5100595990886784,0.8351533050183025,0.05331897332359543,-0.19878442991899697
-1.753091130537674,1.3489968945183581,0.2696515398098043,0.5855749200977389,-0.4691159317183602,0.006597118623523248,-0.029309118124726113,-0.1881696104845197,2.672476721871433,0.9373692991638918,1.3885015230521192,0.5997120777951498,0.6358679881028293,-0.2049856577551381,0.440452273881493
1.9558979730833448,1.0070414946685862,0.5711794467029989,-0.16634272681495266,1.060562681011897,-0.042596540150406495,0.1346930745854753,-0.17387428544182762,1.0605626810118953,1.4118782145566326,1.955897973083343,-0.24909834133511874,0.6319073090719248,0.3611325679788139,0.6389260030947236
0.5672293751431154,-0.166380029457474,-0.3775733235764498,1.8033126759940077,1.9959930427655164,0.14479063910033227,0.08459647577646834,0.10205283665981019,1.995993042765515,1.259359322960084,0.5672293751431141,0.562767556092467,0.49648082490184475,-0.3525445944928631,0.5590275281310915
-1.586131218926274,0.190973857502291,-0.05770465334877706,0.6294381167849237,-2.2578825521142027,0.007613259345569042,-0.2860402767145336,0.053945305063934815,-2.257882552114202,0.7627073209384378,-1.5861312189262733,-0.4753160020549705,0.7094783016429836,-0.04672945659898852,0.5182003430857892
-1.2181388357657945,-0.40316664519151635,0.25527163166625666,-1.1563638081096852,0.7093915033425624,0.05915119138043351,-0.1281132618606523,0.35879341024024697,0.7093915033425627,-1.3042588216349449,-1.218138835765795,-0.09918730770792077,-0.6246888300607862,-0.2535288077384272,0.7318803776804458
2.877016844702248,-0.5613117305927596,0.2063458682438164,1.3993188434722297,-2.3060416397726513,-0.13142498422493454,0.038857725754080995,0.08582810187721877,-2.3060416397726513,1.0443529811232866,2.877016844702248,0.30508796457107235,0.7585770515473038,-0.4087170565842623,0.40550284634855055
2.5372706968800607,0.4963358065244696,0.7551526878741912,-0.9272459372969422,-0.09017177970151558,-0.21196699598118496,0.15464931894132228,-0.007921700279209909,-0.09017177970151558,0.3242425571017189,2.5372706968800607,-0.1671791870255066,0.005520331862846321,0.9433842903063197,0.28643799706892303
-0.900252034274609,-1.2613773247606281,1.1574897517614242,-1.3612213904843118,0.9810421162382812,0.027873356924959746,-0.020013298084072387,0.2928058670116577,0.9810421162382786,-1.4651089634835155,-0.9002520342746064,0.058691501604691027,-0.6835353817686582,-0.0016595441737443665,0.7275520156132457
-2.6278665692971686,-1.2138751884920445,1.132131208554334,0.41958926105389716,-1.2102031642163467,-0.1295434902505496,-0.07986745226094621,0.08396740937072461,-1.2102031642163469,0.33784528111618695,-2.6278665692971686,0.00872372779792607,-0.5774788109797101,0.7598433208461361,-0.29846314212693603
-2.5139179758789694,-0.5094645221955123,1.0158675322760229,-1.0483020436853199,2.1289157927351527,-0.15280193990639884,-0.11957357487777906,0.20506979599476383,2.1289157927351523,-0.5418990336048091,-2.513917975878969,-0.13666356564659715,0.8415354644342309,0.3722028772058735,-0.366887108146213
1.1807169801044415,-0.879094082588474,0.9163067143768528,-0.19023308113592674,-0.8502365730649268,0.08739760768816705,0.18338327774817817,0.1793268816819665,-0.850236573064927,-0.153020449347548,1.1807169801044415,-0.3028577342159494,-0.2867565922083404,0.47943862752581035,0.7721311106844537
2.142649201081297,0.052514496845545544,0.9486920317423997,0.012355696551997308,-2.713182278479362,-0.08644661778512228,0.15296580789814193,-0.053730397634799046,-2.713182278479362,1.0135622251399425,2.142649201081297,0.499761582532557,0.7005443191819682,-0.39030705701572693,0.3273170003683722
-1.3620769518777518,-0.8605155222433205,-0.15110821575862898,0.46552145372168563,2.19137195642865,0.03700658725701238,-0.11806475141726336,0.34911034436338306,2.1913719564286493,-0.5461022842802639,-1.362076951877752,-0.5876087755613558,0.6349640997996578,0.09102509149936333,-0.49320477650406697
-2.9004422318759957,-0.8769220236019535,-0.3503092170085349,0.6366919443693491,-2.9692469253726643,-0.07656245126293446,-0.021780727143656548,0.3653736513525931,-2.9692469253726648,-0.5905392962411395,-2.9004422318759957,-0.13951409921082084,0.9432407894948921,-0.1166160843090428,-0.27790883043701947
0.20361093107953776,0.536932623586321,0.6682603283150232,0.7447680614637411,-0.6188407965785006,0.08191394097776089,0.014435279243435654,-0.10676400248662471,2.522751857011293,1.191631640224708,-2.9379817225102554,-0.2501227448324817,0.7669351524894693,0.30505688789400975,0.506151538120592
-0.5753771194642696,0.1772730329437071,-1.1228809741344203,-1.4585287163236442,2.8673111781588836,0.012594180755134646,-0.00038537442035816577,0.3890563950125332,-0.2742814754309095,-0.737455996075436,2.5662155341255235,0.30618861121455243,-0.22358829457485385,0.8720720631556709,0.3094303242331358
2.2213568095889595,-1.1510075344466664,0.10921094452888402,1.8386042963597353,0.4044849130122574,-0.028555401446590294,0.053286005307225874,0.12657260733182052,0.40448491301225753,0.7968077064419532,2.2213568095889595,-0.2583067036582951,0.3346395227560991,0.7743919421082389,0.47075594170715035
-2.279365679628151,0.20573141076337986,-0.5900934241645177,-0.08107803011649217,3.0074975692386343,-0.18786290096942876,-0.23320024637872738,0.2979800862491836,3.0074975692386343,-0.46544004351763,-2.279365679628151,-0.3916665794377772,0.8884808436088525,-0.036931363305606174,-0.23629463704452225
0.24797573446778953,-0.3833746501852855,0.8763298857063511,-1.2852084794179024,0.30962056388806225,0.2016393075049437,0.04801416669009068,0.24205876100740667,0.3096205638880624,-0.7922532438968368,0.24797573446778948,0.18830762666195072,-0.360714375467086,0.17176740488696599,0.8971740832696464
-2.3411821454980983,-0.9211919512514458,0.11224146031569071,1.0628498567317932,0.8979152362208,-0.09424885382292603,-0.10948781031352589,0.2056938816729816,0.8979152362207998,0.25389936579603845,-2.341182145498098,-0.2727881633323819,0.3520741998369647,0.8444444765669018,-0.2975632735244019
-1.4416541294928509,-0.9087347858239995,-1.3073960031941465,-0.43639606097433337,2.8235931199986317,-0.026839444046514768,0.29907564514033996,0.3311134461086523,-0.3179995335911614,-0.4890658035973139,1.6999385240969422,0.0781977699863771,-0.2731829162827919,0.6944165537181847,0.6610914104286534
-1.8219009139956723,-0.1549398590420168,-1.1748555482481764,0.22335915215312463,-1.5085517970685614,-0.014086623095954095,-0.10169475709800506,0.45269698715168605,-1.5085517970685625,-1.1064362551370686,-1.8219009139956714,0.6596797005387482,-0.22559601559392692,0.7104548411081574,-0.09582822752840107
0.05893210516843039,0.6861581593966655,1.0086865666876612,-1.5459105762628589,-1.583325239284814,0.25363686395671114,0.014256677348824572,-0.0033883272981977616,-1.5833252392848145,0.1489341498214678,0.058932105168430504,-0.7107827708195854,0.03134961018661868,0.07355741004355353,0.698852174694237
-0.07492685140261068,-1.3201113172024606,0.1832263658409481,-1.170484823561726,-2.683640616017155,-0.16057214827323468,0.012954539191700126,0.3451647495036671,0.45795203757263825,-0.834222878666555,3.066665802187183,0.40204304659258794,0.19259651658271545,0.8932194521856943,-0.05854041957350521
-2.7403196507152647,-0.486146675362757,-1.4161049593760904,1.8536164629153957,-1.1024141994177952,-0.06198969220121457,-0.03139342574494483,0.30888813356393796,-1.1024141994177952,-0.04863517182345167,-2.7403196507152647,0.12464053033621934,-0.5089302698783504,0.8370949617978126,-0.15724739594592335
2.908152416960336,0.5231018931441831,-0.4204538360153218,0.20425415186688434,-0.5725126361062887,-0.33836194456972185,0.08330736155051204,0.09750127492035576,-0.5725126361062887,0.3069022089957456,2.908152416960336,-0.17812836098703075,-0.26007050330688475,0.9466108999057504,0.0675383187635227
-2.6015955692566086,-1.1055464861707796,-1.0388571528576338,-0.12223853262751527,-2.9575631125212616,0.2462945974670671,0.14044219368768165,0.36494751588101765,0.1840295410685318,-0.874950481933864,0.5399970843331843,0.1927394245206111,-0.3843777348170377,0.27810554161005324,0.8589310676289255
2.2822117449569266,-0.34226624647590054,0.7869498792003093,-1.5533250022619514,-0.06786264490724303,-0.09423203823682746,0.12324005586794534,0.2775565797804628,-0.06786264490724259,-1.1086413695375426,2.2822117449569266,0.466224510521264,-0.2453749149389132,0.7650813595400263,0.3702382613835499
1.8465689388055395,-0.6522233277755041,-0.26537881607040936,0.8770560568409904,-0.013709272385774351,-0.035953178247565665,0.16945608950567476,0.2807326791454754,-0.013709272385774462,-0.040546087004923015,1.846568938805539,0.012034170685931855,-0.01769365454118229,0.7973206745786126,0.6031764710384393
0.7309533114958375,-0.7783782083554813,0.8989311358513574,-0.1876068917043583,-2.464033065189533,0.16795011305579016,0.13983045325551524,0.16326853251939105,-2.4640330651895326,-0.06705396420848242,0.7309533114958375,0.8763919666635029,0.3472954752191752,-0.08918116028704338,-0.32151157725628093
0.7757001223359716,-1.3986568010667013,-0.30111130821109366,1.061373827963773,-3.114139066520646,0.004961783945339776,-0.006903009240450592,0.32308775722981486,-3.1141390665206456,-0.6383942813140218,0.7757001223359714,0.8772519475297531,0.36304895048047225,0.2855398791219297,-0.1307343013188073
-1.3163450635627714,0.6894777064311133,-0.9249380704129089,-1.331762754853853,-1.493732012480789,0.06765190131623268,-0.21397266868990691,0.3314218335752664,-1.4937320124808071,-1.5672231188356485,-1.3163450635627527,0.6975256835774987,0.11541392408573065,0.6973018809484107,-0.1179306308924234
2.8893548937307214,-0.7082699325763551,0.0894635254883307,0.51603852579777,-2.6199579685618386,-0.1764677121016415,0.04857320836238228,0.26061751119945264,-2.6199579685618386,-0.10276788129025438,2.889354893730721,0.10823093047801222,0.9589065675154658,-0.24924258587296022,-0.08162348835311614
2.889528434007741,-1.462840270871208,-0.20894678593779115,0.9822417269873578,1.9562509296814174,0.025664706060503653,-0.003519234219226241,0.3219917621350052,1.9562509296814177,-0.6895453298216412,2.889528434007741,0.2854179522036004,0.7507181136770862,0.5567760767495219,-0.21203609767308793
1.2359291651139097,0.11328582432795908,0.8499158948081407,0.3983837404037096,-0.6107722514156708,0.05874394068975268,0.13433240560049584,-0.07386257426991441,-0.6107722514156735,1.3615854595398096,1.2359291651139068,-0.538220126348373,0.35390608451895855,0.5836289910742031,0.49441559412270686
-2.503542849184929,0.5566102137559659,-1.3045052097475898,1.51954662937751,0.30900010111578036,-0.22354072204223302,-0.17465743443840084,0.12860853229205968,0.30900010111578036,0.7716516333858858,-2.5035428491849285,-0.39779622753342975,0.018754848621124094,0.8874233179101096,-0.23213416776248802
-0.5578647350509205,0.4030024077850811,1.3233414145055735,-0.06790737363026689,2.4025402732818013,0.04517676684996267,-0.020701603907121814,-0.1135575277585631,-0.7390523803079927,1.483156204929406,2.583727918538872,-0.678843069702201,-0.08261845439205304,0.7282190647314547,-0.045202560467371734
-1.8607793146970801,-0.06077374250431644,-0.4982757381031875,0.36006559615552436,0.20404552239547602,-0.0673919311080858,-0.2660638686721765,0.2860174639173527,0.2040455223954759,-0.19898388445197956,-1.8607793146970804,-0.018678039218418457,-0.14030348416665078,-0.7876940027718078,0.5995867086410279
2.143104997515011,-0.829265114491948,-0.7500308269180794,0.04321142988038518,-0.22372664986534518,0.05191413033036366,-0.06195628297894682,0.44705137189643573,-0.22372664986534296,-1.536084511529642,2.143104997515009,0.5676800692311038,-0.4010229218681781,0.5904051505983194,0.4102946664058088
-0.6305575247496389,0.7026543101313645,-0.3646976584639072,1.5623967463987343,1.6511797075744465,0.14640299643627153,-0.09811001903900114,-0.05035938606336211,-1.4904129460153466,1.2412392555236016,2.5110351288401547,-0.57739591376103,-0.3919451076031239,0.6907057239180938,-0.18952201546211644
-0.6268102060787055,-0.07881399083076701,-0.3729275990453014,0.27696314915862685,0.18955670260767832,0.2407805848798595,-0.16569217294917093,0.2708577892049045,0.18955670260767835,-0.1747784407174413,-0.6268102060787057,0.06289614048857828,-0.1117190938924886,-0.2978874261112061,0.945952430588517
0.604919242116329,-1.289442134307431,-0.6459478419672375,-0.07238746898148807,0.9154307875759291,-0.17555686189915387,-0.12967360951140375,0.378458054066435,-2.2261618660138636,-1.1338152083336368,-2.5366734114734646,-0.45194662300346156,0.6516943795094982,-0.4993477186171848,-0.3488417142248187
-0.029468583122440606,-1.2959723465838264,-1.3650041855145827,-0.56741415831544,3.0732058500184434,-0.37336771282986303,0.011359528863688382,0.16083713760157603,-0.06838680357134996,0.08679803682405574,3.1121240704673525,-0.04385855405985574,-0.033511985515877064,0.9983878944656082,0.013228236734052753
2.9776486934915036,0.7997232307061961,0.8712540623976008,0.16704371234883686,0.35805878134403235,-0.04127994760021128,0.008814034222696433,-0.14572526127499896,-2.7835338722457603,1.3035716481371598,-0.1639439600982895,0.7708236431509582,-0.17171307826590976,-0.5833156312664104,-0.18996948237071887
-2.8982932226866702,0.0578610102754431,0.9911665308587021,-0.27433576668540804,-1.2031103135446373,-0.18904894867030686,-0.04990367899093572,-0.03317211106804743,-1.2031103135446373,0.7746917744487369,-2.89829322268667,-0.24553515646850707,-0.5579174528149665,0.7317942719584576,-0.30482412357166927
-1.1111634378727189,0.7873396734795906,-1.0867492435765005,-0.3723523421063164,-0.7173447336980567,0.167688573393439,-0.3145276910282233,0.26867223328103135,-0.7173447336980567,-0.6717619122032263,-1.1111634378727189,-0.44435004638854325,-0.08740589664821717,-0.5645741975871432,0.6900501582671029
-2.5674460121966223,0.985259935567953,-0.15271532547070787,-0.8623539671208806,-1.1154235563940431,-0.2926451595016562,-0.19705497700958036,0.023274523446688997,-1.1154235563940431,-0.029809357023635297,-2.5674460121966223,0.16196572995734684,-0.5039506241460537,0.8158892661123973,-0.23264904079914087
-0.33846754367492426,0.38185594437101766,-0.38345493940521735,-1.5700876966574118,2.076898380624604,0.1948306896076703,-0.06435888898516966,0.32903552345737586,-1.0646942729652735,-1.5699059618981819,2.8031251099149532,0.5398099501411416,-0.4564968849110054,0.5403984815493229,0.4562732656362332
1.1448143647367548,0.8482157737686404,-0.5743473041552954,-0.6295089570521588,0.9760449219388394,0.1693451440383997,0.3467533362598164,0.14814652536820988,0.9760449219388393,-0.3556404874388137,1.1448143647367546,0.4725514754570177,0.11863608200486836,0.5405984008981138,0.6858381383652646
-2.6523987659967787,0.3994516071365317,0.9033865303955952,-1.3785316793375815,-2.8086196738402904,-0.22082885268236246,-0.12394717027256275,0.060575928222790766,-2.8086196738402904,-0.07569354180545429,-2.6523987659967787,-0.244729646224497,0.9546160157056354,-0.16970699315287888,0.0038986269556575384
-1.639997595385565,-0.05535712059929798,-0.31382241135307476,-0.17923083841465304,-1.7334130891721007,-0.006575152805944444,-0.26799353132423465,0.3165296192170569,-1.7334130891721014,-0.5484103703670258,-1.6399975953855646,0.6287249300214132,-0.41687458599365773,0.5964215118788643,-0.27422968856474145
-2.6805353174487117,-1.247357174089941,1.2461644700097518,-1.4627954271175403,-2.21736304544968,-0.012421112815670517,-0.012131586825438995,0.2816766689371285,-2.2173630454496824,-1.463988131197729,-2.6805353174487094,0.44223290044198,-0.5801225778910043,0.4595592349788377,0.5066489573002546
1.8277665425479732,1.4006961009238164,1.068568506800962,-0.5554382174554546,-2.0317205252879713,0.01719625480289824,-0.019774167704923663,-0.1699214745476924,1.1098721283018227,1.2277662633204693,-1.313826111041819,-0.6400411112059585,-0.12469525628524471,0.6646127995293842,-0.3648126858100105
-1.1640992730270852,0.5568854840539448,-1.466209749990149,-0.6371703084519189,-1.3589306742987988,0.07848630064308725,-0.1543644471676127,0.4127747323954687,-1.3589306742988096,-1.546494574388123,-1.1640992730270745,0.6743422960647869,0.20665812814152215,0.6726709986086101,-0.22376016947171054
-1.0393553799939075,-0.09846561464326586,0.3336736400626026,1.2571753404155899,0.31575754701620395,0.08516849701097585,-0.12446706701327759,0.00133183187431693,0.3157575470162039,1.4923833658349266,-1.0393553799939075,0.4331280109515403,0.5245666195305674,-0.45274861688341606,0.5764101644780295
-2.5236242502120954,-0.6354138207955883,-0.7250151254176278,-0.9981645353543335,1.8966391926072679,0.12921641255878047,0.08332286627954857,0.410540972531547,-1.2449534609825252,-0.7829991720222437,0.6179684033776979,-0.4191421303833624,-0.4592097915286079,0.01642103703005033,0.7830559312365922
0.05232145457171766,-1.468056407535467,-0.6077999031220542,1.0342966196992716,-1.0227147444379816,-0.09219198273703098,-0.005456456079562352,0.3426983077248266,-1.022714744437982,-1.04155969095825,0.052321454571717996,-0.4129921386143353,-0.4448649849603704,-0.22361421073752646,0.762580699569036
1.8241417902971273,0.018386435233298748,-1.0893133065788771,0.1839778851028313,1.2601833818206916,-0.034758329760663884,0.1805978467353357,0.4195011849274023,1.2601833818206924,-0.886948986242747,1.8241417902971264,0.5999274656685105,0.20865688381876366,0.7318731045487261,0.246801741504817
1.7944514876742188,-0.9206767097961637,1.3391422981078658,-0.7747926359340194,-1.7059823508016911,-0.026907026658882664,0.17104958276634102,0.16133089634367995,-1.7059823508016916,-0.3563270476223168,1.794451487674219,-0.37131881921175663,-0.6521324092807774,0.4226757977531906,0.5081248126774952
2.2122168928468877,0.6057630660168729,-0.5292983041449238,1.556109815331513,2.1928273837549956,-0.11149726751397457,0.1653787357658361,-0.017608783647300896,-0.9487652698347921,1.5090180763863312,-0.9293757607429001,-0.024475676221422115,0.6938398204098656,-0.0107719778380985,0.7196326906002567
1.1161484051361734,1.082200956054634,0.23748338075102926,-0.2192618438603504,-1.9562535766809594,0.11185678563105783,0.20428945713579427,-0.16389949588314115,-1.9562535766809583,1.100422492945313,1.1161484051361743,0.7544252258250858,0.12666480948640746,-0.6200332595109233,-0.1742336413463275
1.0424481862459514,0.3106609647997023,-0.43755073597683514,1.7754706550953767,-0.5989125532706021,0.0990029790980487,0.14905421790952786,0.030710770229492895,2.5426801003191897,1.4930117696715492,-2.099144467343843,0.52298250239106,-0.5085075841657977,-0.510887617956966,-0.4548661131112169
0.001240307382182948,0.010132978708099039,0.9528412605075176,-0.25810362656348973,-2.039802294501761,0.22960005641221243,0.00026989109472827814,-0.01788625825307036,-2.0398022945017606,0.7048706126521274,0.001240307382182948,0.7997964287043262,-0.18019090043520847,-0.29442118802587763,-0.4910937548712925
-0.34620939869426026,1.4812736830992375,-0.8144068091605179,1.4093699405174982,0.9877058864408306,0.15294841683050425,-0.05084555244920514,-0.16921398202924998,-2.1538867671489625,1.0653558391335753,2.795383254895533,0.3677788233839916,0.705718484788359,-0.47926324443065155,0.3701444310483609
-0.46065556644938566,-0.8584431151833699,0.43935561251138333,1.1350031626024493,0.34784332669130613,0.14853531361534236,-0.06775776875435036,0.10710448511346342,0.3478433266913061,0.7159156599304626,-0.4606555664493857,0.23657713807880548,0.29896190427238994,-0.2696278082424557,0.8842815629394507
-1.2291578294708103,-0.7406033151082829,-0.8210647054202193,0.5410337013983597,1.926461037654906,0.01731699758668974,-0.014952965835372617,0.43012447347301985,1.9264610376549067,-1.0206343191301426,-1.2291578294708112,0.4245503330352761,-0.6409246825561885,0.040424167519012,0.638230720578601
-1.7339465646914247,0.019396081379010832,-0.24431070560193335,0.06930648812881723,-2.9619218719920917,-0.037528616212008245,-0.30087840592985104,0.2393847718612862,-2.961921871992092,-0.15560813609410507,-1.733946564691425,-0.6478937207884635,0.7524898650690309,-0.11828542306045141,-0.001134998978825842
0.3046411636427333,-1.3130301169657042,0.4333191870227826,-1.5208614685606061,0.31437252169583996,-0.13709794717928028,-0.04688069891755524,0.3185548134284768,-2.827220131893953,-0.7410202550862657,-2.83695148994706,-0.1957178091570779,0.9013909077185926,-0.19849148712266465,-0.3313458920838437
-0.5303890757753815,0.49932840775288057,-0.7490241019858426,-0.8975772625535815,1.0669900659511007,0.24323624829004456,-0.13560613383491488,0.33642884949563123,1.0669900659511002,-1.1472729567865434,-0.5303890757753811,0.289740698596217,-0.5628931338161498,0.07678316627199754,0.7702635866097117
-3.105854730236921,-0.7580571663254109,0.6898021789896682,0.9209927283171562,-0.32305323097496164,-0.1459758192894435,-0.005648132522856572,0.05729052135957491,-0.32305323097496164,0.8527377409814134,-3.1058547302369206,-0.40550252173665696,-0.15369708022371706,0.8972898566832563,-0.08255801287129867
2.004095068714027,1.0225572226025772,-0.797285915926609,0.30232919923671653,-0.9827002845587098,-0.1477287299062838,0.345270082938682,-0.002271044271425285,-0.98270028455871,0.5276005059126847,2.004095068714027,-0.43903057418262337,-0.259967690904252,0.7834558242776469,0.35477588140151267
-1.4923265995966348,0.8045418491054024,0.06020007740715716,0.21004344358510774,-2.2705856574624823,0.03279143922614824,-0.2644172220689925,-0.10366520389962064,-2.2705856574624828,1.0747853700976675,-1.4923265995966353,-0.4253221167777372,0.6872853266683543,0.0947910356843307,0.581166616625534
1.7474952984221614,0.02664993088954981,0.5961181556712138,-0.27837068624326333,2.4240280979929314,-0.03691233569256561,0.27392472587190014,0.06063567556747874,2.424028097992932,0.3443974003175003,1.7474952984221614,0.5460591935847617,0.7459246655558325,0.1622523925368288,0.34509406186292757
0.41067179060317294,0.43321122125148515,0.9777891797992013,0.21915454066529816,-2.543080659464926,0.09065137454724449,0.03424717845756804,-0.1160385335022595,0.5985119941248667,1.5114377118738087,-2.7309208629866206,-0.6853121060447634,0.07642915315055256,0.7220485889317807,0.056140333796697806
0.8651736968334616,0.6771618474290877,-1.2432198873222124,1.1813349879275143,1.3697335517340403,0.22848216031832858,0.2541032008865115,0.11866070116369502,1.3697335517340399,0.6152769480343894,0.8651736968334611,0.4490192450147401,0.465659138826008,0.13554102490425746,0.7504478093792513
-2.713743976930843,-0.6651369039799916,0.6814118815832066,1.2247578306065414,1.6746988769447104,-0.09310651129469508,-0.04793064687743845,0.02210255878684944,1.6746988769447109,1.2410328082097566,-2.713743976930842,-0.5086819279800863,0.5079717204331273,0.6239230084250902,0.306475948394741
1.0266830060300869,0.9810539574886312,0.3723798102753346,1.0266103214049067,-0.7896688204058169,0.028061142560107263,0.02654581713722559,-0.12040331226536335,2.3519238331839762,0.761548564420921,-2.1149096475597062,-0.5453669417286547,0.6762917155788908,0.47954389098313277,0.1234587823107451
1.7229257041174328,0.6497953825188878,0.31463390364505295,0.7528117031216184,2.4176212710364156,-0.009813640269573055,0.14228086790656833,-0.1127924745451859,-0.7239713825533785,1.4243516643042344,-1.4186669494723612,0.1946477475701109,0.638319145521254,-0.28546792707381874,0.6878727974262941
-2.018227972185864,-0.19470427419616687,0.4440071517098254,-1.2903112961681704,1.4498361039809189,-0.07433620570545947,-0.17990782797747645,0.29676536310837237,1.4498361039809184,-1.0410084186545117,-2.018227972185864,-0.00868279757021669,-0.6851535895631469,-0.37401180798623623,0.6249834679589183
-2.0099336849240492,-0.6716573485051637,-0.39596759284751726,1.4095014487750113,2.804552589664071,-0.05143262818701003,-0.1350414426316877,0.229790009117252,2.804552589664071,0.34187650742233044,-2.009933684924049,-0.5449029673734491,0.8047615863801157,0.22942458744083294,0.05295190187493634
-2.7081083675974735,-0.9599071351873855,-0.05713218308761614,1.2999186904368265,-0.6636953008720621,-0.1035142217368815,-0.05346517273072088,0.2135284893291864,-0.6636953008720619,0.282879372161825,-2.7081083675974735,-0.06079801557421581,-0.34365201792873484,0.9042251052029393,-0.24613786989506367
0.2709953328513848,0.07827409943925634,-1.2414474610424675,-0.6609087263105748,-2.401028379632172,0.05355015025518156,0.011543878325536815,0.4534826117880219,0.7405642739576215,-1.3175105656760073,-2.870597320738408,0.5267604187024091,0.36061907999013215,0.7004815592067912,-0.31906570741268336
-1.8715866510427115,-1.2122330510539867,-1.0803936017269935,-0.9218890420254633,-0.9703117887866224,0.11642141445323542,0.33662347786162383,0.20834577177982647,2.171280864803171,0.07292304121665039,1.2700060025470814,0.7016093113120834,0.5380656768816426,0.25048246178671124,0.3943199690344791
-1.84003099397089,-0.17136911324569892,-0.6031944021517867,-0.12919852084331196,-0.1554828073653347,-0.038305414753708925,-0.1823093556122546,0.401756709513565,-0.15548280736533504,-0.9037620362407972,-1.8400309939708897,-0.3886875277819575,-0.2081445329904539,-0.7341359032586585,0.5163742196116392
1.2245139995263354,-1.4766126898303418,-1.4121206500925176,1.9556868996527081,0.03810399391524433,-0.03900143575155682,-0.14134824421705966,0.2546010986054762,0.038103993915244216,-0.9330464402701512,1.2245139995263354,0.2723752846007693,-0.35823627592817087,0.5202194669455869,0.725844460720487
0.3958259097006849,-0.9794504792295214,0.10488142399701017,1.72019257690967,0.739423636859105,0.09728351383035021,0.03563841394131638,0.12655563286929467,0.7394236368591054,0.845623521677159,0.39582590970068526,0.247865106503792,0.4399249410265822,0.021817278627053165,0.8628748122375177
1.1139532867589743,1.2649903748662616,-1.4024605896656228,0.021600297764787335,-1.3611958666099704,0.19309953334120125,0.3684456956493519,0.11058199577140439,-1.3611958666099704,-0.11586991703457361,1.1139532867589743,-0.5094649983277489,-0.3702815814607614,0.37922544420334486,0.6778827541534008
1.3467118109681726,0.2382386014058837,-1.038122560712562,0.5008671237118729,2.3158694651373124,0.07696497926004413,0.28504397284442756,0.3141486369056873,2.3158694651373124,-0.2990168355948051,1.3467118109681726,0.7453311238090466,0.5181227098062822,0.35407926064518436,0.2250738781944683
-1.3755039373210471,0.9919660641964754,0.6406343800461132,-0.9909973995425927,-2.1932468716303224,0.05865059906216907,-0.2358310779545589,-0.10978958522315069,-2.1932468716303224,0.6416030446999961,-1.375503937321047,-0.5609575514220416,0.6472011559952622,-0.05830056576099734,0.5128921262925874
-0.6079939784695081,-0.4340367209435274,-0.20172486045139948,0.5663797162160324,1.9111026632470298,0.19818517378089928,-0.1295731700381337,0.2704116998665187,1.9111026632470298,-0.06938186517889466,-0.607993978469508,0.772726612848766,-0.2634008257895043,-0.1456352563030149,0.558841622367407
2.0529770797956246,0.005721084523670372,-0.7700220048891719,0.49369144711549384,-2.754888839235373,-0.11224655407865419,0.23738999182155124,0.3158099784978555,-2.754888839235373,-0.2706094732500075,2.0529770797956246,0.4813583609840707,0.8452931115362674,-0.09432961606842705,-0.21183863536297534
0.9785297566864912,-0.002413055876255177,-0.7985121709532086,-1.4269719929491285,-1.8948212553331318,0.01901930493702632,0.010432302256271425,0.4028763305462882,1.246771398256661,-0.913695433811201,-2.1630628969033014,-0.06990097985755384,-0.6307736300471609,-0.5221290393390567,0.5697541109381791
-1.2582089608983793,-0.7920458726241083,0.6870604142946437,-1.3249182134778605,1.129695823985783,0.03397654183319721,-0.06800035897305812,0.3374028091108336,1.1296958239857826,-1.429903671807325,-1.2582089608983789,0.0009870485974571303,-0.6855818238254268,-0.09157180055331489,0.7222127068382914
-0.7751803799642398,0.5836822919718339,0.04216004839159182,1.5711578955884014,0.6947406576524315,0.08170587487136821,-0.0682957550296415,-0.048791128389310906,-2.446851995937362,0.9445924176379661,2.3664122736255533,0.45986123264559414,0.7166897111181951,-0.4423464374762975,0.2814482793321374
-0.8890218612040095,-0.5699275966252169,0.15044397186290848,1.1218155099484417,-1.9367953399610562,0.12930205467450767,-0.14453177749758545,0.1276849421099095,-1.9367953399610565,0.7023318851861333,-0.8890218612040097,-0.6146906665589725,0.5086727309500204,0.027111809778766423,0.6022228715381494
-0.8013542607813031,-0.7636495777105248,-1.4330872777676888,0.007634250772586393,-1.8930102830128386,-0.1523923912183885,0.1697240379817668,0.3990155965646969,1.2485823705769552,-0.952490048884166,2.3402383928084896,0.5451292512991447,0.33324924356236324,0.7684973976728023,0.03450783698346514
-2.3164719394635984,1.128187924307798,0.3802308567382775,0.6988532417718598,1.8400024283431393,-0.014374340248783937,-0.028557522334899825,-0.15939317776260892,-1.3015902252466531,0.9343206307718579,0.8251207141261949,-0.639185861637021,0.111359513436648,0.5347618038703352,0.5413596828097165
2.237729732710269,-1.2285140144349436,-0.9276036174922611,-0.19032981185549636,-2.097221578552463,0.1930608971391536,-0.22998434923110925,0.3423051908114986,1.0443710750373307,-0.7951452098070922,-0.9038629208795246,0.26715402342147204,-0.5027198044225347,-0.17525408261606673,0.8032356643834291
-1.855113908980586,1.2144086830620404,-0.7330720990036984,0.8372737792662897,0.5646173457348165,-0.06599082465424194,-0.26687730505227775,-0.13019632686898117,0.564617345734816,1.3186103633246318,-1.8551139089805861,-0.6028154375246181,-0.17668203437548302,0.7097740082178908,-0.31877557037711224
-0.5801123096034915,-1.0032031819177394,1.120101129158527,0.2558534993070485,-0.22822069412000534,0.1597702578090134,-0.09683813211621004,0.07600111385124256,-0.2282206941200053,0.3727514465478361,-0.5801123096034912,-0.05456523115839956,0.2084050320013048,-0.25900792674934253,0.9415438768672296
-2.1675026875381094,-0.6153427919110834,-0.294148233975017,-0.568578917393969,0.4139858267755758,-0.008585558975697426,-0.030303520514133486,0.43454990494585244,0.41398582677557716,-1.478069943280069,-2.1675026875381107,0.5114521005475126,0.44275376937909083,0.5744425432972591,-0.46087049482074716
-2.6220726613864236,-0.7313360687737621,-0.4056934296678163,-0.5782317115435192,-0.5173437655328366,0.04539399695526446,0.019098849619632097,0.44115168489392165,2.6242488880569557,-1.426331443604696,0.5195199922033711,0.7495884404468094,0.026054539666598778,0.6609365429822067,0.02451972801666878
-0.8298017204168096,-0.3559070695672557,-0.7734266788103223,-0.4578879651477532,0.6951687544645804,0.031073637414434443,-0.02084744124915678,0.4594312443141458,-2.4464238991252176,-1.5543709400644619,2.3117909331729884,-0.05157353930215226,-0.7096807651168339,-0.04355125223579215,0.7012821615410798
2.2973976586698015,-1.2139147386816973,0.5035365032367416,0.017614363483681394,-3.1137193508315293,-0.05788029621566308,0.0786218261608837,0.30943532956799263,-3.113719350831529,-0.6927638719612741,2.2973976586698015,0.38098956041241766,0.8599066167946334,0.12711180688386345,-0.3150399241370524
0.15902154658781464,-1.3453362385741006,-1.0857377680080245,1.1669776202181519,-1.7032578676743981,-0.15114998036169097,-0.026165289583498286,0.3444407069235965,-1.7032578676743986,-1.2640963863639731,0.15902154658781553,-0.5741837528683449,-0.43617726402210855,-0.40087024623859047,0.5651242854212011
-0.8356617254004388,0.05151881201558117,-0.6713532268488525,1.1932032147032132,-0.15424857714936957,0.19005733340034342,-0.19692096698375675,0.17160271708906066,-0.15424857714936968,0.5733687998699422,-0.8356617254004389,0.04685695670828271,0.28766699173285865,-0.3681479427521211,0.8829038564434899
-0.25361486231742525,0.13680568478884525,-1.163823517907415,-0.6792897089828538,-2.7067140191507657,0.0931567896117627,-0.0210355188911232,0.44718294717803386,0.4348786344390274,-1.4352851114883696,2.8879777912723683,0.6575237701345246,0.08000869362489814,0.7476538519857611,-0.04769505491528029
-2.7999083225028083,-1.2369832318278622,-0.7879900139068883,1.71021369584616,-0.3322289642749183,0.02689469290812324,0.0052970458226551526,0.28492258555362876,-0.3322289642749183,-0.31475954988859023,-2.799908322502808,0.18008754474329627,-0.13465121149338774,0.964271914872053,-0.1400614210290557
2.7277652644762114,0.659366429974737,-0.17614811149389364,1.3427487572980776,1.3331675651943429,-0.14083646529932223,0.06712412621283691,-0.06598380052416014,-1.8084250883954516,1.3156255778108723,-0.41382738911358274,-0.5310102696828464,0.49773151311926367,0.36974478721249926,0.5775640455123076
0.5465598276487094,1.2710638797367433,-1.2074782036902003,-1.0199475361635,-0.8162623378173106,0.3068080410281279,0.17935585576111218,0.19681197065410844,-0.8162623378173111,-0.9563618601169571,0.5465598276487098,-0.22530640888494316,-0.5017983703954055,0.044077574583605984,0.8339619805499007
2.453527818159195,1.4433485867730589,-1.0627430266829285,1.4790367940366467,-0.3994231818799565,-0.14226808648469857,0.12682193183851082,-0.14699245568139485,2.742169471709837,1.2819502994630163,-0.6880648354305985,0.7795611511107571,-0.15328654693500599,-0.6053798280348585,-0.04798864465786622
1.6899936057066922,-0.26383129377716763,-1.4493585354526575,-1.6177704049049337,0.7965566743517192,0.033934664172371155,-0.18314749577321648,0.28205076839417664,-2.345035979238074,0.18936758054496572,-1.451599047883101,0.6620006337573757,-0.6364684635837193,0.19108422233295833,-0.34662642101204766
1.5531352123401616,0.8361172980534297,-0.7511161196061009,1.2528259530412298,-1.3557973248717357,0.01679378851160987,0.271403602270233,-0.038223025764601834,-1.3557973248717352,1.3378271314885586,1.553135212340162,-0.6894726582653052,-0.0002649990074426623,0.7056637633527401,0.1632973862955181
-1.9795329842475302,-0.10602532860807523,-0.12767053903472858,0.9087069432799206,-2.370450510835858,-0.0895367993596977,-0.23442567179140533,0.11836380597284685,-2.370450510835858,0.675011075637117,-1.9795329842475304,-0.37579611834599463,0.7991890724931316,-0.1282247450404734,0.4512565995118041
2.955427864600069,1.4233407454270348,0.18490979835506605,-1.0241023045582212,-0.7162214155701854,-0.24207856275123374,0.047854601123292775,-0.15730910405642132,-0.7162214155701856,0.5841482392238797,2.955427864600069,-0.2997040799111537,-0.30914245216036673,0.9023941632906429,-0.017122582044320378
1.0637977902241982,-0.3469406349536732,1.27131896644645,-0.6832236564581757,-2.5930034232307655,0.11329694828308104,0.182377450722584,0.050958960923499656,-2.5930034232307655,0.24115467503460097,1.063797790224198,0.8401274994867487,0.45658608028078634,-0.2361708608523478,-0.1730267620463128
-0.7720782568177516,-1.166932591071773,0.2948923848983789,0.41550975771951726,1.5498594967924535,0.09414899833131986,-0.07998920487991468,0.29712303207569846,1.5498594967924537,-0.4565304484538768,-0.7720782568177518,0.5704878325816095,-0.4063840571645582,-0.11536116462512601,0.7043347447450999
0.68770512459905,-0.2956190868525066,-0.1598987765688642,0.5764186618760088,0.3638078264793627,0.20931808688348402,0.16209390665549656,0.22425385100701895,0.36380782647936283,0.12090079845463797,0.6877051245990501,0.14997140835054343,0.11681255319011594,0.32065973929545655,0.9279228069670077
0.7231245630403742,-0.47129695283905937,-0.6213620527588091,1.374716073092748,-1.1546836439380412,0.1420945265534556,0.11482289093003101,0.2501423554896904,-1.154683643938041,0.2820570674948797,0.7231245630403742,-0.5471043358594476,-0.08098791071988003,0.36521654318680635,0.7488221955736228
-0.6529779695055549,0.844078268021264,-0.9845277955756909,0.9134570013236398,-0.7137565296413726,0.2888530314474527,-0.21176877218067877,0.032590295219508764,-0.7137565296413729,0.773007473769213,-0.6529779695055552,-0.1932082854327614,0.43832168474195776,-0.15361152632911837,0.8642616259582181
1.1292815323643417,-0.4618860359224535,-1.0079676886197482,-0.4551033252638961,-0.6711027857359624,-0.021490781774884223,-0.07086010947700302,0.4577525216238857,2.470489867853831,-1.2166356037836956,-2.0123111212254514,0.25565348651745123,-0.7552737474255725,0.06047922261538317,0.600454098922676
1.6363882235993126,0.5038628748969218,-1.468345135869656,-1.6681767519171693,-1.6478659469436223,0.01106978297016034,0.014161545389346636,0.3396184748616074,1.493726706646171,-0.5089336406998897,-1.5052044299904805,0.35362431206909084,-0.5842363085120597,-0.3606229708971318,0.6352706939495872
-2.4979629088431876,-1.1520731883953248,-0.2389340104387765,0.19362423983940902,2.698015786993991,0.03345778288834602,0.016097650461101284,0.40398044130588967,2.69801578699399,-1.197382958994693,-2.4979629088431867,0.1372729058880657,-0.803680261008888,0.0014957386211868586,0.5790094560019796
-1.0997433005392323,0.706103252341582,0.4081157134478264,-0.5243440078232615,-2.8167982772095272,0.14294319282047532,-0.2571086161582187,-0.05869954538202295,-2.816798277209527,0.5898749579661469,-1.0997433005392327,0.7804830860561699,-0.5335045964003137,-0.16372624892953225,-0.2818026142736092
0.7211463428033555,0.7333523135521891,0.38483191078153345,-0.9316164632798137,0.8423505226577759,0.24818125562877225,0.20762649468576727,-0.0025684988896901226,0.8423505226577758,0.18656776105390893,0.7211463428033554,0.35088811816017784,0.22315541531415775,0.2849448917351641,0.8636466857598717
-2.0984142621543356,-0.39473906756113,-0.5879666312181959,1.9142547536969798,-2.5409184976304227,-0.05691485616399078,-0.11826376645876872,0.16204826965278957,-2.5409184976304227,0.9315490549176535,-2.0984142621543356,-0.3100538031537103,0.8061929955688901,-0.015420794246996803,0.5036682361935998
0.11040979276005158,-0.11169532336190824,0.27293590737172724,-1.1142090738617259,-2.0801821528382365,0.23500147907838473,0.024722085555714535,0.2994847958744311,-2.080182152838235,-0.952968489851907,0.11040979276005158,0.7524079284375186,0.27407891940372603,0.3701504499933318,-0.4709051916602554
-0.7407611226687361,-0.1912615719983517,-1.1670812818963916,0.007283576136188019,1.0732766126900146,0.05638287996349507,-0.04058753122336607,0.46660512670835486,1.073276612690015,-1.351059277758555,-0.7407611226687363,0.17738567782814196,-0.6453842234133659,0.055245421737185316,0.7409193403115198
1.3692571393636728,-0.016840202515467473,1.2869365280809988,-1.2337681433509005,-1.4434818519259878,0.05563137760920689,0.21355167642727702,0.0636568811945928,-1.4434818519259882,0.03632818221463108,1.3692571393636728,-0.5203457555265861,-0.4071815014546662,0.4839219591375745,0.5738144796387087
-2.3842033482576186,-0.8783004777833641,1.3242300692222226,-0.5694948820730692,-1.6904297522523744,-0.12385489041886444,-0.12845007374049017,0.1258723636557976,-1.6904297522523744,-0.12356529063421062,-2.3842033482576186,-0.31412404926753507,0.6786348265305302,-0.6324561064472084,0.2019409005359781
1.2014365712549946,-0.16156919755168708,-0.4913024842690046,-0.43832025149820897,1.383709198289392,0.07524780144185106,0.16337748826552462,0.4065248462775735,1.383709198289392,-1.0911919333189006,1.2014365712549946,0.6757438588939642,-0.021399863822455265,0.645174390620977,0.35589645781087176
-2.868561532545567,0.4908497932704625,-0.27365151946393174,0.2676912187074665,-0.4557963154506677,-0.3189714914177281,-0.09268001905688307,0.06000839437619384,-0.4557963154506679,0.4848894925139975,-2.8685615325455665,-0.20184507755131723,-0.24911010552573892,0.9294736989368633,-0.18243180363599773
3.0603475625798433,0.14441542104463023,-0.07057945882530148,1.5134711279761188,0.1795579490938537,-0.15066162379915982,0.01324461278589319,0.014088008314942668,-2.96203470449594,1.5542855633943455,-0.08124509100995048,0.7069097055817009,-0.09165673389911362,-0.6952490677433533,-0.09223039134329968
-2.7169835108692446,0.9476731730593491,-0.9359086782876728,1.712592123968833,-0.9039937196996064,-0.18622617957941184,-0.08962049764204649,-0.044373829887760605,2.2375989338901876,1.4172360348492838,0.4246091427205495,0.6077864440880175,0.4217771395567236,-0.5024108129605729,0.44752995201493223
-0.6756316763116392,-0.17259170065441487,-0.2511155866421291,0.16368710246648877,1.93514856929642,0.22177471291929166,-0.16812642865704125,0.28170912657252684,1.93514856929642,-0.2600201848300552,-0.6756316763116393,0.7460351778893807,-0.3400210121052028,-0.08570214367604642,0.5661027885886484
1.9097734314399375,-1.0436496459556484,-1.3423846094422258,0.13245062979189948,-1.5076796558247467,0.10824726886066846,-0.2729749865483756,0.3534038205006854,1.6339129977650455,-0.8880090279838184,-1.231819222149855,0.3675481379514211,-0.6203282434280285,-0.10143468573964215,0.6854285091990553
-3.0865141492377655,1.2980124402013224,-0.369312582020801,0.1105201021020259,1.4720859284723802,-0.2724111159980118,-0.015680798739422994,-0.16592252952145933,1.4720859284723804,1.0392199602825474,-3.0865141492377655,-0.38390929263798174,0.5723953767637096,0.6522465817486058,0.31551796190232134
-1.595533458531609,-0.34918695436159664,-0.6832199678440728,-0.5616805638156017,2.8520366484674073,0.01104461672155891,-0.03861354687901234,0.45390172530703254,-0.2895560051223718,-1.5475051675685219,1.5460591950581697,0.4090200502468779,-0.5670474625367365,0.42210087943023666,0.5770533955457765
2.3308330296956363,-1.115475773774338,0.7412462619355131,0.2601968720483925,-2.009028264980969,-0.1047605967369147,0.1228384824816,0.20082060469025242,-2.0090282649809694,-0.11403263979043232,2.3308330296956363,0.3041719828496295,0.7863021068276631,-0.4732502220392825,-0.25542636705609073
-1.1368087499502968,0.5657642334364112,-0.6086741579538665,-0.5245426360352536,-0.7759655152858924,0.15802175695234014,-0.3150713284301259,0.24573761944981276,-0.7759655152858924,-0.5674525605527088,-1.1368087499502968,-0.4455733134089789,-0.022879209692638538,-0.5676105726893933,0.6919242746954345
2.933143520495957,1.1926851178909006,-0.6799216536428918,-0.09119188840611536,-2.9849648552572554,-0.36115013904213267,0.07892933553964004,-0.04165091159163518,-2.984964855257255,0.42157157584189364,2.933143520495957,0.11770143764832013,0.9678766437766588,-0.09778773090056372,0.1994961996943006
1.708697724564158,0.03159534762383265,-0.5602130613467216,0.18785712323968373,-0.28894939637727335,-0.02723725436236309,0.2827253154306688,0.30252168573380633,-0.28894939637727324,-0.3407605904832052,1.708697724564158,0.03335902905708349,-0.21719361544804514,0.7194492637445811,0.6588678664848936
-2.5687919148174827,-0.5840029948743538,0.30482220737194843,-1.4036998906552898,-1.7036502082607925,-0.03069672108600304,-0.027536270995149256,0.3721880129029481,1.4379424453290006,-1.458711975432098,0.5728007387723106,0.6127196524071415,-0.34229610510979963,0.5795125970317051,0.4142138986831576
-1.7944255551836754,0.7162307592305379,-0.45403775559574844,-1.0302242175317189,-2.9304296395872633,-0.06265398471141431,-0.3282457018481426,0.21895867924050044,-2.9304296395872633,-0.7680312138969295,-1.7944255551836754,-0.6059971285211873,0.6960021552855322,-0.3087690372938283,-0.23023935734494222
2.503549956418855,-1.1197950037890096,0.1872643910227232,0.018118860354350952,-1.9443592744125626,-0.04139688244915684,0.03959410447858623,0.3628358857192364,-1.9443592744125626,-0.9144117524119353,2.503549956418855,0.0037132037334915535,-0.7818812019689804,0.3657323221501723,0.5048642061586648
1.7022753546964147,0.5228224123438339,-0.9474938323938038,1.752672658986018,-2.7897530298334563,-0.01894495955599891,0.2340026525596643,0.05468587025497726,-2.789753029833456,1.3280012389360483,1.7022753546964147,0.592184701474311,0.5120172750844195,-0.5035848375052958,0.365455743954958
-0.9973725327180132,0.8631605032756253,-0.10671030905643075,0.8384818646065966,-1.5391707786425053,0.12006897663283797,-0.16733875256624053,-0.12009283244069352,1.602421874947279,1.5466605947640022,2.144220120871771,-0.18106094162738479,0.6838117340547603,0.19735204925638522,0.678727203256457
0.3222792917774271,-0.07648864092003738,1.1579214011444106,-1.6475592254635931,-1.9950865975888485,0.2083924972786348,0.06557956394720703,0.16506381130132802,-1.9950865975888483,-0.56612646523922,0.3222792917774271,-0.7719520034066079,-0.2789506565183713,-0.1480538347388663,0.5516853248760659
2.1199606127274437,-0.4898655025948202,-0.5972382211240798,-1.5242249911815338,1.9109568360864766,0.0741032255312011,-0.1014831640782428,0.37418294819018344,-1.2306358175033163,-0.5302639386893595,-1.0216320408623496,-0.5905501528529197,0.08567375099805942,-0.5172167444098913,0.6135123182604802
-1.746861150512951,1.088619615067711,-1.2589889062633195,-0.1459042028164339,2.6950525630777684,-0.05776998030510948,-0.3921712213777612,0.16822358092070266,2.695052563077768,-0.3162734940120424,-1.7468611505129514,-0.5917179081443841,0.7605757314008901,0.06898597897298406,-0.25813835183942396
2.8451654661987806,0.514543397514355,-0.8206824255436498,-0.08236288783142776,-2.484568026714633,-0.32248098742287234,0.1021591444277553,0.2569049777960857,-2.4845680267146335,-0.38850191586072236,2.8451654661987806,0.07554975147502262,0.9277363932203936,-0.2861156909389382,-0.22745380002323906
2.0657472351264463,-0.04535238030476574,0.004187298027410691,-1.2165678192183067,-1.6838284948950204,-0.07881261855168384,0.1682448913925174,0.34530693287443665,-1.6838284948950202,-1.2577329014956617,2.065747235126446,0.02738973691995624,-0.7187616305867925,0.23774757274568523,0.6527691876622287
-2.2767679350466743,-0.9181468928191062,-0.0857354270727404,0.4248849459566941,0.27283845270013396,-0.061296592580438417,-0.0859735395676992,0.34817875285100913,0.2728384527001342,-0.5789973739351525,-2.2767679350466743,0.2021687041477064,0.23685974245079122,0.8458208852342243,-0.4331423640917327
-0.9363455278592845,1.3431692260540586,-0.3781720751425872,-0.021129402216163218,-0.6577934992325183,0.1864387147665319,-0.2370239859960671,-0.1660978634047818,-0.6577934992325183,0.943867748695308,-0.9363455278592845,-0.06258544634129226,0.5137687229443979,-0.24934835841260233,0.8185048303994816
1.0440730514853973,-0.7800310200278627,-0.26513398373857,0.4589840260821487,-0.39151754557547,0.07339513411451445,0.10557630304310558,0.36286706910057376,-0.3915175455754702,-0.5861809776842839,1.0440730514853978,-0.020099606837734724,-0.3385036016793771,0.4195526208256202,0.8420136078552479
-1.4669689333608842,-0.6566371619789237,-0.9163600689270375,-1.066518813654109,-2.820214176209098,-0.008647091830475032,0.1981446804456633,0.37629188811352066,0.32137847738069514,-0.5020766090297228,1.6746237202289092,0.28590860340978846,-0.049029702494667586,0.7368996834193329,0.6105990626802794
-1.192174469235429,0.1832570371466713,1.0931349531791126,0.2844073748476066,-0.1459908086033046,0.04323442278303553,-0.07851482615834533,-0.0971738547409873,-0.1459908086033126,1.5607993651733905,-1.192174469235437,0.35104619458001746,0.609771550165663,-0.35543079144904244,0.615316323828127
0.5942993492839599,0.36182191748754633,-0.4069267357868389,1.3338131839857403,0.9507338013731537,0.207558830648892,0.13215874160108632,0.0231120793457716,0.9507338013731534,1.2887083656864475,0.5942993492839597,0.19348497054092562,0.6178086425025441,-0.05473063145959306,0.7601845864025231
0.9117009105949245,-0.6842403303387462,-1.3460655349767443,-1.5316472070584104,1.7952906776532616,-0.14901183116340927,-0.20784933116750787,0.21990437515496747,-1.3463019759365318,0.4203604187841077,-2.2298917429948686,0.12195285185249274,-0.6192825980878238,0.6293113582022561,-0.45341347583444247
