GyaraManasa17/my_repository/metric_ws/40_poses/table_top2/hardware_validation_raw_data_20260331_054649.csv
pose_id,iteration,test_type,status,failure_type,target_x,target_y,target_z,target_qx,target_qy,target_qz,target_qw,cmd_j1,cmd_j2,cmd_j3,cmd_j4,cmd_j5,actual_x,actual_y,actual_z,actual_qx,actual_qy,actual_qz,actual_qw,actual_j1,actual_j2,actual_j3,actual_j4,actual_j5,cartesian_error_mm,orientation_error_deg,mean_joint_error_rad
0,1,Interior (FPS Spread),failed,safety_block_jump,-0.0684356234939051,0.0382269925117239,0.2000580703495061,-0.132865209808027,0.2820790629090217,0.9146673727033592,0.2572194308425614,2.697940740229879,-1.0422768351645164,-0.1958301888944127,1.6367492345628107,0.5072262030477086,,,,,,,,,,,,,,,
0,2,Interior (FPS Spread),failed,safety_block_jump,-0.0684356234939051,0.0382269925117239,0.2000580703495061,-0.132865209808027,0.2820790629090217,0.9146673727033592,0.2572194308425614,2.697940740229879,-1.0422768351645164,-0.1958301888944127,1.6367492345628107,0.5072262030477086,,,,,,,,,,,,,,,
0,3,Interior (FPS Spread),failed,safety_block_jump,-0.0684356234939051,0.0382269925117239,0.2000580703495061,-0.132865209808027,0.2820790629090217,0.9146673727033592,0.2572194308425614,2.697940740229879,-1.0422768351645164,-0.1958301888944127,1.6367492345628107,0.5072262030477086,,,,,,,,,,,,,,,
1,1,Interior (FPS Spread),failed,safety_block_jump,-0.0616723986462498,0.1914284496633609,0.413049297592379,0.3839364036236752,0.7740350225985968,0.0603190832777174,-0.4998241990498698,1.9381798030230333,0.1121532286953992,-1.0266104683705533,-0.0470940086468154,-2.6092973201625003,,,,,,,,,,,,,,,
1,2,Interior (FPS Spread),failed,safety_block_jump,-0.0616723986462498,0.1914284496633609,0.413049297592379,0.3839364036236752,0.7740350225985968,0.0603190832777174,-0.4998241990498698,1.9381798030230333,0.1121532286953992,-1.0266104683705533,-0.0470940086468154,-2.6092973201625003,,,,,,,,,,,,,,,
1,3,Interior (FPS Spread),failed,safety_block_jump,-0.0616723986462498,0.1914284496633609,0.413049297592379,0.3839364036236752,0.7740350225985968,0.0603190832777174,-0.4998241990498698,1.9381798030230333,0.1121532286953992,-1.0266104683705533,-0.0470940086468154,-2.6092973201625003,,,,,,,,,,,,,,,
2,1,Interior (FPS Spread),success,none,-0.1808124818052201,-0.2528691853655809,0.256359661478931,0.2159701374589357,-0.3367926441604006,0.8296616077090638,-0.3893446176063381,-2.222248873966311,0.22450563972221,-0.74890320932851,0.4281415431143556,-0.818911111677985,-0.18081248183352713,-0.252869185403393,0.2563596613140331,0.21597013717260544,-0.3367926443317579,0.8296616076519336,-0.3893446177386776,-2.2222488739649986,0.22450563980463784,-0.7489032089879466,0.42814154341709143,-0.8189111117208054,1.7152949703340103e-07,0.0,1.539719463039546e-10
2,2,Interior (FPS Spread),success,none,-0.1808124818052201,-0.2528691853655809,0.256359661478931,0.2159701374589357,-0.3367926441604006,0.8296616077090638,-0.3893446176063381,-2.222248873966311,0.22450563972221,-0.74890320932851,0.4281415431143556,-0.818911111677985,-0.180812481833875,-0.25286918540323156,0.25635966131399746,0.21597013717251248,-0.3367926443320545,0.8296616076520931,-0.3893446177381327,-2.2222488739661763,0.224505639805287,-0.7489032089885026,0.4281415434169471,-0.81891111172124,1.7158600194388565e-07,0.0,1.5381307894024588e-10
2,3,Interior (FPS Spread),success,none,-0.1808124818052201,-0.2528691853655809,0.256359661478931,0.2159701374589357,-0.3367926441604006,0.8296616077090638,-0.3893446176063381,-2.222248873966311,0.22450563972221,-0.74890320932851,0.4281415431143556,-0.818911111677985,-0.18081248183386045,-0.25286918540323833,0.25635966131399907,0.21597013717251662,-0.3367926443320422,0.8296616076520864,-0.3893446177381553,-2.222248873966127,0.22450563980526014,-0.74890320898848,0.4281415434169531,-0.8189111117212222,1.7158351247761278e-07,0.0,1.5381974027839363e-10
3,1,Interior (FPS Spread),success,none,0.1253392759254675,0.0537371691928082,0.2039183000946846,-0.3546544588018883,0.1733569866030676,0.2820001331648524,0.8744389601011892,0.442735505537835,-0.7118258727699494,-0.4169927232126138,1.6561226381663052,-0.6492617048396889,0.12533927591927965,0.05373716918977737,0.2039183000575378,-0.3546544588292325,0.1733569867031444,0.28200013319546413,0.8744389600603867,0.4427355055371363,-0.7118258727709763,-0.41699272310794544,1.6561226382917986,-0.649261704870974,3.7780407474724643e-08,0.0,5.263449676107257e-11
3,2,Interior (FPS Spread),success,none,0.1253392759254675,0.0537371691928082,0.2039183000946846,-0.3546544588018883,0.1733569866030676,0.2820001331648524,0.8744389601011892,0.442735505537835,-0.7118258727699494,-0.4169927232126138,1.6561226381663052,-0.6492617048396889,0.12533927591914484,0.053737169189822194,0.20391830005748274,-0.3546544588298597,0.17335698670326893,0.28200013319602146,0.8744389600599278,0.4427355055379197,-0.7118258727704649,-0.4169927231092167,1.6561226382934933,-0.6492617048721253,3.7853271619328414e-08,0.0,5.272436931491598e-11
3,3,Interior (FPS Spread),success,none,0.1253392759254675,0.0537371691928082,0.2039183000946846,-0.3546544588018883,0.1733569866030676,0.2820001331648524,0.8744389601011892,0.442735505537835,-0.7118258727699494,-0.4169927232126138,1.6561226381663052,-0.6492617048396889,0.12533927591914548,0.05373716918982201,0.203918300057483,-0.35465445882985697,0.17335698670326832,0.28200013319601896,0.8744389600599299,0.4427355055379163,-0.7118258727704672,-0.41699272310921115,1.6561226382934857,-0.6492617048721201,3.785293427314932e-08,0.0,5.272269287814879e-11
4,1,Boundary (Edge Case),success,none,-0.319111619286879,-0.1217190049590442,0.2420919484037149,0.1560387613562043,-0.578577481607456,0.7940743391630218,-0.1017150264907084,0.3522735840100113,-1.153434981224436,-1.1989534118180152,-0.6587216105187825,1.8589850024166568,-0.31911161935892796,-0.12171900498546498,0.2420919482218801,0.15603876107525205,-0.578577481694409,0.7940743391276414,-0.10171502670331355,0.3522735840098383,-1.1534349813908624,-1.1989534122124537,-0.6587216106850403,1.858985002361148,1.9736516011970579e-07,1.7075472925031877e-06,1.56560875375078e-10
4,2,Boundary (Edge Case),success,none,-0.319111619286879,-0.1217190049590442,0.2420919484037149,0.1560387613562043,-0.578577481607456,0.7940743391630218,-0.1017150264907084,0.3522735840100113,-1.153434981224436,-1.1989534118180152,-0.6587216105187825,1.8589850024166568,-0.3191116193589959,-0.12171900498554514,0.24209194822161448,0.15603876107476522,-0.578577481694202,0.7940743391278247,-0.10171502670380704,0.3522735840099852,-1.1534349813909264,-1.198953412213079,-0.6587216106856066,1.858985002361923,1.976454218140699e-07,0.0,1.5662762198331847e-10
4,3,Boundary (Edge Case),success,none,-0.319111619286879,-0.1217190049590442,0.2420919484037149,0.1560387613562043,-0.578577481607456,0.7940743391630218,-0.1017150264907084,0.3522735840100113,-1.153434981224436,-1.1989534118180152,-0.6587216105187825,1.8589850024166568,-0.31911161935899834,-0.12171900498554804,0.24209194822160487,0.15603876107474768,-0.5785774816941944,0.7940743391278313,-0.10171502670382482,0.35227358400999054,-1.1534349813909286,-1.1989534122131016,-0.658721610685627,1.858985002361951,1.976555500539534e-07,0.0,1.5662999786059119e-10
5,1,Interior (FPS Spread),success,none,0.1318219366274977,-0.0774990172418495,0.3851674362235157,-0.6468167409421481,0.0056000880828356,-0.3535522539562328,0.6757200206985952,-0.5741117112610756,-0.13650471298532,-1.4836035756339725,1.153568181501606,-1.387043105163309,0.13182193665424252,-0.07749901725918196,0.38516743619601196,-0.6468167409475185,0.005600088164176805,-0.35355225390236716,0.6757200207209642,-0.5741117112612776,-0.13650471296211342,-1.483603575538417,1.1535681815799743,-1.3870431051996586,4.209696600049249e-08,2.4148365394514667e-06,4.6736420289406055e-11
5,2,Interior (FPS Spread),success,none,0.1318219366274977,-0.0774990172418495,0.3851674362235157,-0.6468167409421481,0.0056000880828356,-0.3535522539562328,0.6757200206985952,-0.5741117112610756,-0.13650471298532,-1.4836035756339725,1.153568181501606,-1.387043105163309,0.13182193665434336,-0.07749901725911401,0.38516743619593646,-0.6468167409468593,0.005600088163830349,-0.35355225390193407,0.6757200207218246,-0.574111711260494,-0.13650471296329142,-1.4836035755359842,1.1535681815793553,-1.387043105197767,4.218253406452424e-08,2.4148365394514667e-06,4.6561171584968974e-11
5,3,Interior (FPS Spread),success,none,0.1318219366274977,-0.0774990172418495,0.3851674362235157,-0.6468167409421481,0.0056000880828356,-0.3535522539562328,0.6757200206985952,-0.5741117112610756,-0.13650471298532,-1.4836035756339725,1.153568181501606,-1.387043105163309,0.13182193665422787,-0.07749901725919164,0.385167436196023,-0.6468167409476138,0.005600088164226265,-0.35355225390242995,0.6757200207208397,-0.5741117112613905,-0.13650471296194333,-1.4836035755387686,1.153568181580063,-1.3870431051999317,4.208442973141185e-08,1.7075472925031877e-06,4.679501786064577e-11
6,1,Interior (FPS Spread),success,none,0.0733951341145144,0.1055763030431055,0.3628670691005737,-0.0200996068377347,-0.3385036016793771,0.4195526208256202,0.8420136078552479,1.0440730514853973,-0.7800310200278627,-0.26513398373857,0.4589840260821487,-0.39151754557547,0.07339513413671042,0.10557630307905425,0.3628670690481256,-0.02009960693188964,-0.33850360155059306,0.41955262087008094,0.8420136078826203,1.0440730514762595,-0.7800310200321173,-0.2651339836119186,0.45898402629482765,-0.3915175455897106,6.734819198894628e-08,1.7075472925031877e-06,7.339265861716627e-11
6,2,Interior (FPS Spread),success,none,0.0733951341145144,0.1055763030431055,0.3628670691005737,-0.0200996068377347,-0.3385036016793771,0.4195526208256202,0.8420136078552479,1.0440730514853973,-0.7800310200278627,-0.26513398373857,0.4589840260821487,-0.39151754557547,0.07339513413565793,0.10557630307911228,0.36286706904897603,-0.02009960693068737,-0.33850360155297304,0.41955262087217576,0.8420136078806483,1.0440730514839482,-0.7800310200304952,-0.26513398361608487,0.45898402629305335,-0.39151754559259716,6.637662840354508e-08,2.4148365394514667e-06,7.09196812387347e-11
6,3,Interior (FPS Spread),success,none,0.0733951341145144,0.1055763030431055,0.3628670691005737,-0.0200996068377347,-0.3385036016793771,0.4195526208256202,0.8420136078552479,1.0440730514853973,-0.7800310200278627,-0.26513398373857,0.4589840260821487,-0.39151754557547,0.07339513413546618,0.10557630307912276,0.3628670690491308,-0.020099606930468195,-0.33850360155340614,0.4195526208725573,0.8420136078802893,1.0440730514853485,-0.7800310200302006,-0.26513398361684265,0.45898402629273016,-0.3915175455931224,6.620115264725542e-08,1.7075472925031877e-06,7.046958572232142e-11
7,1,Interior (FPS Spread),failed,safety_block_jump,-0.0135151074871311,0.0138791346321777,0.4343871682225269,0.4236918401082613,-0.2175342565069162,0.8365382643187321,0.270864918736742,-0.498192238416272,-0.1081619818872334,-1.0418535647555165,-1.0183358280734809,2.900333512886544,,,,,,,,,,,,,,,
7,2,Interior (FPS Spread),failed,safety_block_jump,-0.0135151074871311,0.0138791346321777,0.4343871682225269,0.4236918401082613,-0.2175342565069162,0.8365382643187321,0.270864918736742,-0.498192238416272,-0.1081619818872334,-1.0418535647555165,-1.0183358280734809,2.900333512886544,,,,,,,,,,,,,,,
7,3,Interior (FPS Spread),failed,safety_block_jump,-0.0135151074871311,0.0138791346321777,0.4343871682225269,0.4236918401082613,-0.2175342565069162,0.8365382643187321,0.270864918736742,-0.498192238416272,-0.1081619818872334,-1.0418535647555165,-1.0183358280734809,2.900333512886544,,,,,,,,,,,,,,,
8,1,Interior (FPS Spread),success,none,-0.3237485825252409,-0.0246764261316102,0.2895136248161513,0.0914659689886435,0.7920245491620705,0.574685049850499,-0.184575685072322,0.0733648293262523,-1.1358389555445858,-1.1828107403486094,-0.4141465527905832,-1.2706041034913451,-0.32374858263283063,-0.024676426139403275,0.2895136246460686,0.09146596876773308,0.7920245492312002,0.5746850498819863,-0.18457568478711686,0.07336482932591329,-1.1358389557034254,-1.1828107407314938,-0.4141465529838284,-1.2706041034322562,2.0140604129204686e-07,0.0,1.5887943183301445e-10
8,2,Interior (FPS Spread),success,none,-0.3237485825252409,-0.0246764261316102,0.2895136248161513,0.0914659689886435,0.7920245491620705,0.574685049850499,-0.184575685072322,0.0733648293262523,-1.1358389555445858,-1.1828107403486094,-0.4141465527905832,-1.2706041034913451,-0.323748582634253,-0.024676426139615622,0.2895136246436798,0.09146596876463853,0.7920245492304726,0.5746850498850238,-0.18457568478231545,0.07336482932623267,-1.1358389557040132,-1.1828107407379256,-0.41414655298866093,-1.2706041034377669,2.0419140946864375e-07,0.0,1.600838184234732e-10
8,3,Interior (FPS Spread),success,none,-0.3237485825252409,-0.0246764261316102,0.2895136248161513,0.0914659689886435,0.7920245491620705,0.574685049850499,-0.184575685072322,0.0733648293262523,-1.1358389555445858,-1.1828107403486094,-0.4141465527905832,-1.2706041034913451,-0.32374858263434975,-0.024676426139630017,0.28951362464351726,0.0914659687644282,0.7920245492304231,0.5746850498852303,-0.18457568478198894,0.07336482932625424,-1.1358389557040534,-1.182810740738363,-0.41414655298898917,-1.2706041034381417,2.0438091683164558e-07,0.0,1.601664911810019e-10
9,1,Boundary (Edge Case),success,none,-0.1862291917551871,-0.2806970333094313,0.2074865533089604,-0.461850661806052,0.8590511198794109,0.2180226537445008,-0.0345146646723873,0.9559191466778952,-1.1352188680430646,-1.135044233461146,-1.0139001431261312,-0.4231478816180085,-0.18622919178187772,-0.2806970333471881,0.20748655315809364,-0.46185066185221146,0.859051119834782,0.21802265386448308,-0.034514664407596804,0.9559191466778318,-1.1352188682013655,-1.1350442338058744,-1.013900143218112,-0.4231478815958458,1.5779336300324142e-07,0.0,1.234472635225359e-10
9,2,Boundary (Edge Case),success,none,-0.1862291917551871,-0.2806970333094313,0.2074865533089604,-0.461850661806052,0.8590511198794109,0.2180226537445008,-0.0345146646723873,0.9559191466778952,-1.1352188680430646,-1.135044233461146,-1.0139001431261312,-0.4231478816180085,-0.1862291917818794,-0.28069703334718615,0.20748655315809855,-0.4618506618522065,0.859051119834786,0.2180226538644765,-0.034514664407606095,0.9559191466778245,-1.1352188682013646,-1.1350442338058635,-1.0139001432180992,-0.4231478815958427,1.5778848743126455e-07,0.0,1.2344442135159284e-10
9,3,Boundary (Edge Case),success,none,-0.1862291917551871,-0.2806970333094313,0.2074865533089604,-0.461850661806052,0.8590511198794109,0.2180226537445008,-0.0345146646723873,0.9559191466778952,-1.1352188680430646,-1.135044233461146,-1.0139001431261312,-0.4231478816180085,-0.18622919178200004,-0.2806970333470439,0.20748655315846035,-0.46185066185184576,0.8590511198350755,0.21802265386399255,-0.03451466440828308,0.9559191466772989,-1.1352188682012905,-1.1350442338050748,-1.0139001432171564,-0.4231478815956099,1.5742905405383838e-07,1.7075472925031877e-06,1.2323496667576704e-10
10,1,Interior (FPS Spread),success,none,0.0235702068968823,-0.1614599767033016,0.2109912688056577,-0.1464697722905558,-0.2095495313042235,-0.651873043495593,0.7139307633791429,-1.4992587046285797,-1.0706714162122228,1.1443786890624246,-0.5859887326679598,0.07356189324158,0.023570206898359272,-0.161459976723778,0.21099126875927035,-0.1464697722002938,-0.20954953121171496,-0.6518730435217196,0.7139307634009581,-1.4992587046285208,-1.0706714162080306,1.1443786891362748,-0.585988732478719,0.07356189324526612,5.072720669508326e-08,0.0,5.4205653854388913e-11
10,2,Interior (FPS Spread),success,none,0.0235702068968823,-0.1614599767033016,0.2109912688056577,-0.1464697722905558,-0.2095495313042235,-0.651873043495593,0.7139307633791429,-1.4992587046285797,-1.0706714162122228,1.1443786890624246,-0.5859887326679598,0.07356189324158,0.023570206898360906,-0.1614599767237782,0.21099126875927066,-0.1464697722002921,-0.20954953121171466,-0.6518730435217165,0.7139307634009615,-1.4992587046285109,-1.0706714162080302,1.144378689136269,-0.5859887324787111,0.07356189324526563,5.072706474015369e-08,0.0,5.420806581390991e-11
10,3,Interior (FPS Spread),success,none,0.0235702068968823,-0.1614599767033016,0.2109912688056577,-0.1464697722905558,-0.2095495313042235,-0.651873043495593,0.7139307633791429,-1.4992587046285797,-1.0706714162122228,1.1443786890624246,-0.5859887326679598,0.07356189324158,0.023570206898540426,-0.1614599767238041,0.2109912687592937,-0.14646977220007198,-0.20954953121164605,-0.6518730435213683,0.7139307634013445,-1.4992587046274162,-1.0706714162079785,1.1443786891356522,-0.5859887324777716,0.07356189324521191,5.0722013743368764e-08,0.0,5.44911310518259e-11
11,1,Boundary (Edge Case),success,none,-0.0042245087288644,-0.3467906643412792,0.2028781653670903,0.5684936501195653,-0.5503393502894629,0.4694364243028159,-0.3918813759729996,-1.6175469704977194,0.340306295773511,-0.4566592091550949,0.0137652966043508,-1.8270407239911457,-0.0042245087289612005,-0.34679066436289974,0.20287816522826177,0.5684936500053549,-0.550339350441251,0.4694364241250399,-0.3918813761384771,-1.6175469704950873,0.3403062958376132,-0.45665920891657763,0.013765296915419327,-1.82704072405194,1.405020226257347e-07,1.7075472925031877e-06,1.3542286632362012e-10
11,2,Boundary (Edge Case),success,none,-0.0042245087288644,-0.3467906643412792,0.2028781653670903,0.5684936501195653,-0.5503393502894629,0.4694364243028159,-0.3918813759729996,-1.6175469704977194,0.340306295773511,-0.4566592091550949,0.0137652966043508,-1.8270407239911457,-0.004224508729755697,-0.34679066436308315,0.20287816522806168,0.5684936500052626,-0.5503393504424607,0.4694364241248179,-0.3918813761371779,-1.6175469704973486,0.340306295839486,-0.45665920891763456,0.013765296914459987,-1.827040724054493,1.407308219922082e-07,2.4148365394514667e-06,1.3545253217672747e-10
11,3,Boundary (Edge Case),success,none,-0.0042245087288644,-0.3467906643412792,0.2028781653670903,0.5684936501195653,-0.5503393502894629,0.4694364243028159,-0.3918813759729996,-1.6175469704977194,0.340306295773511,-0.4566592091550949,0.0137652966043508,-1.8270407239911457,-0.004224508729141566,-0.34679066436294126,0.20287816522821647,0.568493650005334,-0.5503393504415255,0.4694364241249896,-0.3918813761381821,-1.6175469704956007,0.34030629583803795,-0.4566592089168172,0.013765296915201293,-1.8270407240525193,1.4055341375668745e-07,2.4148365394514667e-06,1.3542948602840444e-10
12,1,Interior (FPS Spread),failed,safety_block_jump,-0.3169184712654759,0.101421118256687,0.2281674213234566,-0.010484320448497,-0.2830645024089335,0.9469033179423142,0.1521140130643875,2.842495499766562,0.3926670915173638,-0.7991243574657075,0.3401478042606201,-0.5709680276284756,,,,,,,,,,,,,,,
12,2,Interior (FPS Spread),failed,safety_block_jump,-0.3169184712654759,0.101421118256687,0.2281674213234566,-0.010484320448497,-0.2830645024089335,0.9469033179423142,0.1521140130643875,2.842495499766562,0.3926670915173638,-0.7991243574657075,0.3401478042606201,-0.5709680276284756,,,,,,,,,,,,,,,
12,3,Interior (FPS Spread),failed,safety_block_jump,-0.3169184712654759,0.101421118256687,0.2281674213234566,-0.010484320448497,-0.2830645024089335,0.9469033179423142,0.1521140130643875,2.842495499766562,0.3926670915173638,-0.7991243574657075,0.3401478042606201,-0.5709680276284756,,,,,,,,,,,,,,,
13,1,Interior (FPS Spread),failed,safety_block_jump,-0.2160447998151886,0.1692430879481198,0.3415879067325484,0.2838166319660744,0.0964525532375854,0.9190239063073798,0.2560079764946962,-0.6384571308884923,-0.931733285234821,-1.0983412426015873,-0.6196387470883731,-2.7668934271948293,,,,,,,,,,,,,,,
13,2,Interior (FPS Spread),failed,safety_block_jump,-0.2160447998151886,0.1692430879481198,0.3415879067325484,0.2838166319660744,0.0964525532375854,0.9190239063073798,0.2560079764946962,-0.6384571308884923,-0.931733285234821,-1.0983412426015873,-0.6196387470883731,-2.7668934271948293,,,,,,,,,,,,,,,
13,3,Interior (FPS Spread),failed,safety_block_jump,-0.2160447998151886,0.1692430879481198,0.3415879067325484,0.2838166319660744,0.0964525532375854,0.9190239063073798,0.2560079764946962,-0.6384571308884923,-0.931733285234821,-1.0983412426015873,-0.6196387470883731,-2.7668934271948293,,,,,,,,,,,,,,,
14,1,Interior (FPS Spread),failed,safety_block_jump,0.2381959030174595,0.1927080273560236,0.2390628797987953,0.8635075246242092,0.2303152850098515,0.4480148537657603,0.0243375268555803,0.7056261467463671,0.4638477754004353,-0.0855634412986254,-1.245480248857353,2.7475263839349995,,,,,,,,,,,,,,,
14,2,Interior (FPS Spread),failed,safety_block_jump,0.2381959030174595,0.1927080273560236,0.2390628797987953,0.8635075246242092,0.2303152850098515,0.4480148537657603,0.0243375268555803,0.7056261467463671,0.4638477754004353,-0.0855634412986254,-1.245480248857353,2.7475263839349995,,,,,,,,,,,,,,,
14,3,Interior (FPS Spread),failed,safety_block_jump,0.2381959030174595,0.1927080273560236,0.2390628797987953,0.8635075246242092,0.2303152850098515,0.4480148537657603,0.0243375268555803,0.7056261467463671,0.4638477754004353,-0.0855634412986254,-1.245480248857353,2.7475263839349995,,,,,,,,,,,,,,,
15,1,Boundary (Edge Case),success,none,0.0150240309314603,0.3565528904187637,0.2315755308309702,0.0171348415154025,-0.1612614480840649,0.685486369282812,0.7097954494750869,1.5623152332257495,0.4967079557993725,-0.747055987166592,-0.0048289723154313,-0.2047732770458816,0.015024030931905439,0.3565528904680888,0.23157553067049255,0.01713484127047398,-0.16126144785209773,0.6854863693368226,0.7097954494815404,1.5623152332256747,0.4967079558960944,-0.7470559868713972,-0.004828972024065761,-0.20477327705834178,1.6788758921889258e-07,0.0,1.391634633918226e-10
15,2,Boundary (Edge Case),success,none,0.0150240309314603,0.3565528904187637,0.2315755308309702,0.0171348415154025,-0.1612614480840649,0.685486369282812,0.7097954494750869,1.5623152332257495,0.4967079557993725,-0.747055987166592,-0.0048289723154313,-0.2047732770458816,0.015024030932084887,0.3565528904680372,0.23157553067053718,0.017134841270427963,-0.16126144785205104,0.6854863693366555,0.7097954494817135,1.5623152332251702,0.4967079558956107,-0.7470559868710592,-0.004828972023838061,-0.20477327705827564,1.6783033644925044e-07,1.7075472925031877e-06,1.3926751765702683e-10
15,3,Boundary (Edge Case),success,none,0.0150240309314603,0.3565528904187637,0.2315755308309702,0.0171348415154025,-0.1612614480840649,0.685486369282812,0.7097954494750869,1.5623152332257495,0.4967079557993725,-0.747055987166592,-0.0048289723154313,-0.2047732770458816,0.015024030932084572,0.3565528904680374,0.2315755306705369,0.01713484127042793,-0.16126144785205107,0.6854863693366557,0.7097954494817131,1.562315233225171,0.49670795589561223,-0.7470559868710601,-0.004828972023838734,-0.2047732770582758,1.6783066578711025e-07,2.4148365394514667e-06,1.3926737194025485e-10
16,1,Interior (FPS Spread),failed,safety_block_jump,0.3323176494634722,0.0564051415515141,0.2042650722935708,0.9528246782965732,0.116954729365324,-0.1076840925416784,0.2585553324176293,-2.9672883412042745,-0.8719606002391097,-1.498493514735303,-1.040054649599715,-0.5063141197102272,,,,,,,,,,,,,,,
16,2,Interior (FPS Spread),failed,safety_block_jump,0.3323176494634722,0.0564051415515141,0.2042650722935708,0.9528246782965732,0.116954729365324,-0.1076840925416784,0.2585553324176293,-2.9672883412042745,-0.8719606002391097,-1.498493514735303,-1.040054649599715,-0.5063141197102272,,,,,,,,,,,,,,,
16,3,Interior (FPS Spread),failed,safety_block_jump,0.3323176494634722,0.0564051415515141,0.2042650722935708,0.9528246782965732,0.116954729365324,-0.1076840925416784,0.2585553324176293,-2.9672883412042745,-0.8719606002391097,-1.498493514735303,-1.040054649599715,-0.5063141197102272,,,,,,,,,,,,,,,
17,1,Interior (FPS Spread),success,none,0.2433296927465397,-0.1255457934283156,0.2128914521076841,-0.7015938233887115,0.3246403945998602,0.021872002665866,0.6339529451593715,-0.497231916667789,0.3337189957132742,-1.4400219247076338,1.5644689195338817,-1.7902570885902047,0.24332969276742306,-0.12554579343964656,0.2128914520095408,-0.7015938233249642,0.3246403947301664,0.02187200285712554,0.6339529451565934,-0.49723191666777977,0.33371899582724096,-1.4400219244191441,1.564468919609754,-1.7902570886317544,1.0097827599772953e-07,0.0,1.0397754879321042e-10
17,2,Interior (FPS Spread),success,none,0.2433296927465397,-0.1255457934283156,0.2128914521076841,-0.7015938233887115,0.3246403945998602,0.021872002665866,0.6339529451593715,-0.497231916667789,0.3337189957132742,-1.4400219247076338,1.5644689195338817,-1.7902570885902047,0.2433296927674216,-0.12554579343954664,0.21289145200962684,-0.7015938233246893,0.3246403947299798,0.021872002856919343,0.6339529451570002,-0.4972319166674487,0.33371899582635267,-1.4400219244179853,1.564468919609178,-1.7902570886305629,1.0088317997874316e-07,0.0,1.0374437975357865e-10
17,3,Interior (FPS Spread),success,none,0.2433296927465397,-0.1255457934283156,0.2128914521076841,-0.7015938233887115,0.3246403945998602,0.021872002665866,0.6339529451593715,-0.497231916667789,0.3337189957132742,-1.4400219247076338,1.5644689195338817,-1.7902570885902047,0.2433296927674224,-0.1255457934396021,0.21289145200957893,-0.7015938233248418,0.3246403947300836,0.021872002857034136,0.6339529451567745,-0.4972319166676325,0.3337189958268455,-1.4400219244186274,1.5644689196094979,-1.7902570886312241,1.0093609149415683e-07,0.0,1.0387395388278265e-10
18,1,Boundary (Edge Case),failed,safety_block_limits,0.0851070652971306,-0.3267922151974747,0.2010375505727244,0.7781130696069354,-0.616753705586579,-0.1144122057395184,-0.0326307329049456,-1.3507089596997273,0.463318594464567,-1.0885685727304049,0.8453236474804096,3.0488794706270688,,,,,,,,,,,,,,,
18,2,Boundary (Edge Case),failed,safety_block_limits,0.0851070652971306,-0.3267922151974747,0.2010375505727244,0.7781130696069354,-0.616753705586579,-0.1144122057395184,-0.0326307329049456,-1.3507089596997273,0.463318594464567,-1.0885685727304049,0.8453236474804096,3.0488794706270688,,,,,,,,,,,,,,,
18,3,Boundary (Edge Case),failed,safety_block_limits,0.0851070652971306,-0.3267922151974747,0.2010375505727244,0.7781130696069354,-0.616753705586579,-0.1144122057395184,-0.0326307329049456,-1.3507089596997273,0.463318594464567,-1.0885685727304049,0.8453236474804096,3.0488794706270688,,,,,,,,,,,,,,,
19,1,Interior (FPS Spread),success,none,-0.0729929849338447,-0.1047914469148944,0.344822258200461,-0.2236294208620535,0.6419901532167706,0.6295694005445609,-0.3761394624279298,-2.252249682588407,-0.3008369398887316,-1.3207846409459203,1.4188599198757614,1.4934594777984225,-0.07299298494653111,-0.10479144693062517,0.34482225817056955,-0.22362942093821692,0.6419901532061051,0.629569400565199,-0.37613946236630846,-2.252249682587991,-0.30083693988052873,-1.3207846408504187,1.4188599199683531,1.493459477843267,3.60818377763682e-08,0.0,4.831137712102418e-11
19,2,Interior (FPS Spread),success,none,-0.0729929849338447,-0.1047914469148944,0.344822258200461,-0.2236294208620535,0.6419901532167706,0.6295694005445609,-0.3761394624279298,-2.252249682588407,-0.3008369398887316,-1.3207846409459203,1.4188599198757614,1.4934594777984225,-0.07299298494588695,-0.10479144693126297,0.3448222581704617,-0.22362942093973615,0.6419901532038864,0.6295694005654721,-0.3761394623687347,-2.252249682581305,-0.30083693988260407,-1.3207846408456079,1.4188599199662189,1.493459477838834,3.62339920672489e-08,2.4148365394514667e-06,4.8882142777983974e-11
19,3,Interior (FPS Spread),success,none,-0.0729929849338447,-0.1047914469148944,0.344822258200461,-0.2236294208620535,0.6419901532167706,0.6295694005445609,-0.3761394624279298,-2.252249682588407,-0.3008369398887316,-1.3207846409459203,1.4188599198757614,1.4934594777984225,-0.072992984946362,-0.10479144693079274,0.34482225817054113,-0.223629420938616,0.6419901532055222,0.6295694005652711,-0.37613946236694557,-2.252249682586235,-0.30083693988107385,-1.3207846408491544,1.4188599199677923,1.4934594778421024,3.611975724265267e-08,0.0,4.846130163826956e-11
20,1,Boundary (Edge Case),failed,safety_block_jump,-0.3359176803032217,0.0737510457229518,0.2473479690319285,0.1179743345935812,0.2672461031590493,0.9535288503069528,0.0737855565527914,-0.2088863103674709,-1.066694200728458,-1.421155990920017,-0.4671149208374072,-2.5754539217744163,,,,,,,,,,,,,,,
20,2,Boundary (Edge Case),failed,safety_block_jump,-0.3359176803032217,0.0737510457229518,0.2473479690319285,0.1179743345935812,0.2672461031590493,0.9535288503069528,0.0737855565527914,-0.2088863103674709,-1.066694200728458,-1.421155990920017,-0.4671149208374072,-2.5754539217744163,,,,,,,,,,,,,,,
20,3,Boundary (Edge Case),failed,safety_block_jump,-0.3359176803032217,0.0737510457229518,0.2473479690319285,0.1179743345935812,0.2672461031590493,0.9535288503069528,0.0737855565527914,-0.2088863103674709,-1.066694200728458,-1.421155990920017,-0.4671149208374072,-2.5754539217744163,,,,,,,,,,,,,,,
21,1,Boundary (Edge Case),failed,safety_block_limits,-0.2963464401606662,0.1938675027571708,0.2125427105310411,0.0208244850270984,0.0426159433978149,0.9599032504836528,0.2762896521815246,-0.5612790321744168,-1.08735629249592,-1.457566162896582,-0.5802391654919776,-3.048122466441981,,,,,,,,,,,,,,,
21,2,Boundary (Edge Case),failed,safety_block_limits,-0.2963464401606662,0.1938675027571708,0.2125427105310411,0.0208244850270984,0.0426159433978149,0.9599032504836528,0.2762896521815246,-0.5612790321744168,-1.08735629249592,-1.457566162896582,-0.5802391654919776,-3.048122466441981,,,,,,,,,,,,,,,
21,3,Boundary (Edge Case),failed,safety_block_limits,-0.2963464401606662,0.1938675027571708,0.2125427105310411,0.0208244850270984,0.0426159433978149,0.9599032504836528,0.2762896521815246,-0.5612790321744168,-1.08735629249592,-1.457566162896582,-0.5802391654919776,-3.048122466441981,,,,,,,,,,,,,,,
22,1,Boundary (Edge Case),failed,safety_block_jump,-0.311402600993076,0.1276289325172202,0.2331946584159321,0.1491288695585511,0.4435486390604414,0.8738150061605251,0.1321836603385618,2.7657119306868765,0.4160516108614756,-0.7740313721278124,0.2141217583816359,0.9668236546286963,,,,,,,,,,,,,,,
22,2,Boundary (Edge Case),failed,safety_block_jump,-0.311402600993076,0.1276289325172202,0.2331946584159321,0.1491288695585511,0.4435486390604414,0.8738150061605251,0.1321836603385618,2.7657119306868765,0.4160516108614756,-0.7740313721278124,0.2141217583816359,0.9668236546286963,,,,,,,,,,,,,,,
22,3,Boundary (Edge Case),failed,safety_block_jump,-0.311402600993076,0.1276289325172202,0.2331946584159321,0.1491288695585511,0.4435486390604414,0.8738150061605251,0.1321836603385618,2.7657119306868765,0.4160516108614756,-0.7740313721278124,0.2141217583816359,0.9668236546286963,,,,,,,,,,,,,,,
23,1,Interior (FPS Spread),success,none,0.0102619918038375,0.1915650673572949,0.2564557581489335,-0.0558115598722687,0.0451254153638033,0.7088396065555117,0.7017087564303981,1.579868755997782,-0.5267022162225131,-0.3710679120969966,1.040709061516474,-0.0145019568971287,0.01026199180396056,0.191565067369322,0.2564557580712556,-0.05581156001479416,0.04512541550467179,0.7088396065459378,0.7017087564196743,1.5798687559965703,-0.5267022162039692,-0.3710679119208266,1.0407090617235741,-0.014501956897950563,7.860359735092283e-08,0.0,8.076951746316396e-11
23,2,Interior (FPS Spread),success,none,0.0102619918038375,0.1915650673572949,0.2564557581489335,-0.0558115598722687,0.0451254153638033,0.7088396065555117,0.7017087564303981,1.579868755997782,-0.5267022162225131,-0.3710679120969966,1.040709061516474,-0.0145019568971287,0.010261991812190913,0.1915650673684281,0.2564557580708931,-0.05581156001231174,0.04512541550464665,0.7088396065309596,0.701708756435004,1.5798687559536524,-0.5267022162168236,-0.37106791190260274,1.040709061714322,-0.014501956897553165,7.927189273789404e-08,0.0,8.849708188485294e-11
23,3,Interior (FPS Spread),success,none,0.0102619918038375,0.1915650673572949,0.2564557581489335,-0.0558115598722687,0.0451254153638033,0.7088396065555117,0.7017087564303981,1.579868755997782,-0.5267022162225131,-0.3710679120969966,1.040709061516474,-0.0145019568971287,0.010261991804862518,0.19156506736922418,0.2564557580712162,-0.05581156001452117,0.045125415504670266,0.7088396065442963,0.7017087564213544,1.579868755991867,-0.5267022162053747,-0.3710679119188351,1.040709061722563,-0.014501956897903947,7.863423189658408e-08,0.0,8.161582104593279e-11
24,1,Interior (FPS Spread),failed,safety_block_limits,0.204749677504823,0.1628430663833889,0.3864298700001285,0.1973307503807058,-0.3851031470163926,0.3333604721281389,0.8376317429125776,-2.44010057523056,-0.8986207807001486,-1.2397085487773378,-0.1138318503718458,-3.024113383055526,,,,,,,,,,,,,,,
24,2,Interior (FPS Spread),failed,safety_block_limits,0.204749677504823,0.1628430663833889,0.3864298700001285,0.1973307503807058,-0.3851031470163926,0.3333604721281389,0.8376317429125776,-2.44010057523056,-0.8986207807001486,-1.2397085487773378,-0.1138318503718458,-3.024113383055526,,,,,,,,,,,,,,,
24,3,Interior (FPS Spread),failed,safety_block_limits,0.204749677504823,0.1628430663833889,0.3864298700001285,0.1973307503807058,-0.3851031470163926,0.3333604721281389,0.8376317429125776,-2.44010057523056,-0.8986207807001486,-1.2397085487773378,-0.1138318503718458,-3.024113383055526,,,,,,,,,,,,,,,
25,1,Boundary (Edge Case),success,none,-0.1703229923645661,-0.3022047455543986,0.2659321544840101,-0.4273640704486328,0.8488083874740571,0.1529322410573212,-0.2711014612436687,1.0279469270860415,-1.117775455287756,-1.361302784197634,-0.3267289187973383,-0.5473215477573534,-0.17032299242345297,-0.3022047456508694,0.2659321542626625,-0.42736407059340586,0.8488083874809432,0.1529322412738999,-0.27110146087171333,1.0279469270843797,-1.1177754554684949,-1.361302784689283,-0.3267289190327504,-0.5473215477259499,2.485337956040041e-07,0.0,1.881730771202683e-10
25,2,Boundary (Edge Case),success,none,-0.1703229923645661,-0.3022047455543986,0.2659321544840101,-0.4273640704486328,0.8488083874740571,0.1529322410573212,-0.2711014612436687,1.0279469270860415,-1.117775455287756,-1.361302784197634,-0.3267289187973383,-0.5473215477573534,-0.170322992423212,-0.30220474565152944,0.26593215426174444,-0.42736407059461023,0.848808387480568,0.15293224127511063,-0.2711014608703064,1.0279469270859305,-1.1177754554686716,-1.3613027846917891,-0.3267289190342989,-0.5473215477267754,2.4955112485554235e-07,1.7075472925031877e-06,1.885441025528678e-10
25,3,Boundary (Edge Case),success,none,-0.1703229923645661,-0.3022047455543986,0.2659321544840101,-0.4273640704486328,0.8488083874740571,0.1529322410573212,-0.2711014612436687,1.0279469270860415,-1.117775455287756,-1.361302784197634,-0.3267289187973383,-0.5473215477573534,-0.17032299242333132,-0.30220474565120203,0.2659321542621999,-0.42736407059401293,0.848808387480754,0.1529322412745098,-0.2711014608710044,1.0279469270851618,-1.1177754554685837,-1.3613027846905459,-0.32672891903353074,-0.5473215477263658,2.490462120993911e-07,0.0,1.883599165530825e-10
26,1,Interior (FPS Spread),success,none,-0.0191688433385744,-0.3261443963987388,0.2467695271578512,-0.2407686545925332,0.1831280191008647,-0.7167395325381781,0.6283144324960621,-1.6660745844912563,0.2626427919843916,-0.6913450059870864,0.31343425726767,-0.6050970002116847,-0.01916884334235789,-0.3261443964412333,0.24676952699626423,-0.2407686543571471,0.1831280193449301,-0.7167395324782367,0.6283144325835036,-1.6660745844904128,0.2626427920628185,-0.6913450056690397,0.3134342575809171,-0.6050970002456988,1.671240284306137e-07,0.0,1.4891566868513452e-10
26,2,Interior (FPS Spread),success,none,-0.0191688433385744,-0.3261443963987388,0.2467695271578512,-0.2407686545925332,0.1831280191008647,-0.7167395325381781,0.6283144324960621,-1.6660745844912563,0.2626427919843916,-0.6913450059870864,0.31343425726767,-0.6050970002116847,-0.01916884334259955,-0.3261443964412798,0.2467695269962282,-0.2407686543571807,0.1831280193450942,-0.7167395324784432,0.6283144325832074,-1.6660745844911335,0.2626427920633647,-0.691345005669469,0.31343425758074983,-0.6050970002459604,1.6717633752870094e-07,0.0,1.4881376131370416e-10
26,3,Interior (FPS Spread),success,none,-0.0191688433385744,-0.3261443963987388,0.2467695271578512,-0.2407686545925332,0.1831280191008647,-0.7167395325381781,0.6283144324960621,-1.6660745844912563,0.2626427919843916,-0.6913450059870864,0.31343425726767,-0.6050970002116847,-0.019168843341114614,-0.3261443964409943,0.2467695269964502,-0.24076865435697467,0.18312801934408504,-0.7167395324771748,0.6283144325850276,-1.6660745844867046,0.2626427920600088,-0.6913450056668338,0.31343425758177734,-0.6050970002443523,1.668600072049007e-07,0.0,1.4943929427246871e-10
27,1,Interior (FPS Spread),success,none,0.0732105227929467,0.261950657012075,0.3717382109102144,-0.125700314028087,-0.5187270871977618,0.3846941937298766,0.7530816804112859,-1.800349375884784,-0.797097481057716,-1.4534822648298944,-0.136991895953634,2.2021397111636083,0.07321052282693317,0.261950657158714,0.3717382107685041,-0.12570031429067083,-0.5187270869945984,0.38469419392627596,0.7530816804070709,-1.800349375883774,-0.7970974811934409,-1.453482265232419,-0.13699189618605476,2.2021397111264305,2.0673630356569868e-07,0.0,1.6177159611885372e-10
27,2,Interior (FPS Spread),success,none,0.0732105227929467,0.261950657012075,0.3717382109102144,-0.125700314028087,-0.5187270871977618,0.3846941937298766,0.7530816804112859,-1.800349375884784,-0.797097481057716,-1.4534822648298944,-0.136991895953634,2.2021397111636083,0.07321052282722987,0.261950657158856,0.37173821076830116,-0.12570031429088752,-0.5187270869939689,0.3846941939265566,0.7530816804073249,-1.800349375884728,-0.7970974811933332,-1.4534822652333477,-0.13699189618649832,2.202139711127596,2.0702507175001425e-07,0.0,1.616005607107951e-10
27,3,Interior (FPS Spread),success,none,0.0732105227929467,0.261950657012075,0.3717382109102144,-0.125700314028087,-0.5187270871977618,0.3846941937298766,0.7530816804112859,-1.800349375884784,-0.797097481057716,-1.4534822648298944,-0.136991895953634,2.2021397111636083,0.07321052282722385,0.26195065715885335,0.3717382107683051,-0.12570031429088313,-0.5187270869939814,0.38469419392655124,0.7530816804073198,-1.8003493758847084,-0.797097481193336,-1.453482265233329,-0.13699189618648916,2.202139711127573,2.0701948355183894e-07,0.0,1.6160408011778315e-10
28,1,Boundary (Edge Case),failed,safety_block_jump,-0.193578793107111,-0.2752082864457703,0.2156009722000779,-0.4496549012734749,0.8828189012958405,-0.1353200850249717,0.0113899896567505,-2.212370478475808,0.3253758335671166,-0.5389832067254078,0.1118477609808366,-2.8884320635175382,,,,,,,,,,,,,,,
28,2,Boundary (Edge Case),failed,safety_block_jump,-0.193578793107111,-0.2752082864457703,0.2156009722000779,-0.4496549012734749,0.8828189012958405,-0.1353200850249717,0.0113899896567505,-2.212370478475808,0.3253758335671166,-0.5389832067254078,0.1118477609808366,-2.8884320635175382,,,,,,,,,,,,,,,
28,3,Boundary (Edge Case),failed,safety_block_jump,-0.193578793107111,-0.2752082864457703,0.2156009722000779,-0.4496549012734749,0.8828189012958405,-0.1353200850249717,0.0113899896567505,-2.212370478475808,0.3253758335671166,-0.5389832067254078,0.1118477609808366,-2.8884320635175382,,,,,,,,,,,,,,,
29,1,Interior (FPS Spread),success,none,0.2222303593077898,-0.196877026105154,0.345099801950916,0.2364684182690416,-0.3903201493514805,-0.2185765869298595,0.8625295031578161,-0.7526094006895687,0.3168027746871842,-1.023738703144141,0.1004880418785463,0.7811692763929763,0.222230359390172,-0.1968770261822015,0.3450998018087929,0.23646841843652275,-0.39032014907882356,-0.21857658707893368,0.862529503197508,-0.7526094006893099,0.31680277479156305,-1.0237387027969178,0.10048804213656785,0.7811692764274056,1.8144451334377264e-07,0.0,1.488623335710315e-10
29,2,Interior (FPS Spread),success,none,0.2222303593077898,-0.196877026105154,0.345099801950916,0.2364684182690416,-0.3903201493514805,-0.2185765869298595,0.8625295031578161,-0.7526094006895687,0.3168027746871842,-1.023738703144141,0.1004880418785463,0.7811692763929763,0.22223035939014854,-0.1968770261822675,0.3450998018087923,0.2364684184365404,-0.3903201490789453,-0.21857658707894514,0.8625295031974451,-0.7526094006895332,0.3168027747919532,-1.02373870279731,0.10048804213639008,0.7811692764276374,1.8146238258705913e-07,0.0,1.4882808874183695e-10
29,3,Interior (FPS Spread),success,none,0.2222303593077898,-0.196877026105154,0.345099801950916,0.2364684182690416,-0.3903201493514805,-0.2185765869298595,0.8625295031578161,-0.7526094006895687,0.3168027746871842,-1.023738703144141,0.1004880418785463,0.7811692763929763,0.22223035939015312,-0.19687702618225458,0.34509980180879246,0.236468418436537,-0.39032014907892176,-0.21857658707894279,0.8625295031974574,-0.7526094006894896,0.31680277479187724,-1.023738702797234,0.1004880421364247,0.7811692764275922,1.814588465482138e-07,0.0,1.4883468069104566e-10
30,1,Interior (FPS Spread),success,none,0.0080182805702585,-0.2457584306870386,0.3910982823201651,-0.2203356824214446,-0.3583387080739764,-0.613969052404105,0.6678978664719293,-1.5869966706728778,0.3894109730121138,-1.3666588569724396,0.1303553627307598,0.2217913933629596,0.008018280568204436,-0.24575843082749554,0.3910982822090748,-0.22033568219295707,-0.3583387078755924,-0.6139690525229397,0.6678978665445031,-1.5869966706719767,0.389410973129804,-1.366658856623129,0.13035536292989308,0.22179139337070924,1.790905636702305e-07,1.7075472925031877e-06,1.3495695116994e-10
30,2,Interior (FPS Spread),success,none,0.0080182805702585,-0.2457584306870386,0.3910982823201651,-0.2203356824214446,-0.3583387080739764,-0.613969052404105,0.6678978664719293,-1.5869966706728778,0.3894109730121138,-1.3666588569724396,0.1303553627307598,0.2217913933629596,0.008018280568005132,-0.24575843082750354,0.39109828220908016,-0.22033568219321112,-0.35833870787566857,-0.6139690525231116,0.6678978665442205,-1.586996670672787,0.3894109731305138,-1.366658856623981,0.13035536292960218,0.2217913933708226,1.7909588979856442e-07,0.0,1.3473095972216243e-10
30,3,Interior (FPS Spread),success,none,0.0080182805702585,-0.2457584306870386,0.3910982823201651,-0.2203356824214446,-0.3583387080739764,-0.613969052404105,0.6678978664719293,-1.5869966706728778,0.3894109730121138,-1.3666588569724396,0.1303553627307598,0.2217913933629596,0.008018280568045441,-0.24575843082750198,0.391098282209079,-0.22033568219315963,-0.35833870787565303,-0.6139690525230769,0.6678978665442776,-1.586996670672623,0.38941097313037026,-1.3666588566238085,0.13035536292966104,0.22179139337079967,1.790948911726405e-07,0.0,1.3477671756412235e-10
31,1,Interior (FPS Spread),success,none,0.2877108894052065,-0.006930852862937,0.3473677380405405,-0.4738224562231986,-0.2463478327423222,-0.15295108252723,0.8315112696984475,-0.0251328248399396,0.1796326515479063,-0.8573768417263923,0.0898315816557329,-1.02827601712773,0.2877108894977141,-0.006930852865264056,0.3473677379195636,-0.4738224562822496,-0.246347832480056,-0.15295108238765126,0.8315112697681734,-0.025132824839945184,0.17963265162564965,-0.857376841441177,0.08983158191290201,-1.0282760171713126,1.5231048144670613e-07,0.0,1.3274315951994352e-10
31,2,Interior (FPS Spread),success,none,0.2877108894052065,-0.006930852862937,0.3473677380405405,-0.4738224562231986,-0.2463478327423222,-0.15295108252723,0.8315112696984475,-0.0251328248399396,0.1796326515479063,-0.8573768417263923,0.0898315816557329,-1.02827601712773,0.28771088949773743,-0.006930852865266422,0.3473677379195687,-0.47382245628234804,-0.2463478324800961,-0.1529510823877201,0.8315112697680926,-0.02513282483995164,0.17963265162594486,-0.8573768414414665,0.08983158191274943,-1.0282760171715706,1.5232062320420568e-07,0.0,1.3276666918637936e-10
31,3,Interior (FPS Spread),success,none,0.2877108894052065,-0.006930852862937,0.3473677380405405,-0.4738224562231986,-0.2463478327423222,-0.15295108252723,0.8315112696984475,-0.0251328248399396,0.1796326515479063,-0.8573768417263923,0.0898315816557329,-1.02827601712773,0.28771088949767726,-0.006930852865260431,0.34736773791955516,-0.4738224562820945,-0.24634783247999223,-0.15295108238754265,0.8315112697683005,-0.025132824839935397,0.17963265162518266,-0.8573768414407189,0.08983158191314365,-1.0282760171709056,1.522947448632514e-07,2.4148365394514667e-06,1.3270802720621866e-10
32,1,Boundary (Edge Case),failed,safety_block_jump,0.3662845718001154,-0.0715527107066203,0.2421790676752026,0.3391206333288212,-0.1353935503580489,-0.0546216680511216,0.9293450682881008,2.942309397745544,-1.1977056696638102,-1.2484985632874266,-0.4790979729100937,-2.4201074821669906,,,,,,,,,,,,,,,
32,2,Boundary (Edge Case),failed,safety_block_jump,0.3662845718001154,-0.0715527107066203,0.2421790676752026,0.3391206333288212,-0.1353935503580489,-0.0546216680511216,0.9293450682881008,2.942309397745544,-1.1977056696638102,-1.2484985632874266,-0.4790979729100937,-2.4201074821669906,,,,,,,,,,,,,,,
32,3,Boundary (Edge Case),failed,safety_block_jump,0.3662845718001154,-0.0715527107066203,0.2421790676752026,0.3391206333288212,-0.1353935503580489,-0.0546216680511216,0.9293450682881008,2.942309397745544,-1.1977056696638102,-1.2484985632874266,-0.4790979729100937,-2.4201074821669906,,,,,,,,,,,,,,,
33,1,Interior (FPS Spread),failed,safety_block_jump,-0.1392543331927445,0.2885136278300248,0.2096486954886596,0.4811680773258039,0.8466676348359325,-0.0614849602316714,-0.2187482506198092,2.0536580920782166,0.222476819164203,-0.0682804610727916,-0.4706991055971952,-2.804157208910502,,,,,,,,,,,,,,,
33,2,Interior (FPS Spread),failed,safety_block_jump,-0.1392543331927445,0.2885136278300248,0.2096486954886596,0.4811680773258039,0.8466676348359325,-0.0614849602316714,-0.2187482506198092,2.0536580920782166,0.222476819164203,-0.0682804610727916,-0.4706991055971952,-2.804157208910502,,,,,,,,,,,,,,,
33,3,Interior (FPS Spread),failed,safety_block_jump,-0.1392543331927445,0.2885136278300248,0.2096486954886596,0.4811680773258039,0.8466676348359325,-0.0614849602316714,-0.2187482506198092,2.0536580920782166,0.222476819164203,-0.0682804610727916,-0.4706991055971952,-2.804157208910502,,,,,,,,,,,,,,,
34,1,Interior (FPS Spread),success,none,0.1515561147293427,-0.3163332697299164,0.2424131107840765,0.6621237336630372,-0.240774037592621,0.5105626520068375,-0.4928953261263606,-1.1553113245944928,0.4641829909388795,-0.5386043300944313,-0.3797952852505593,-1.5627392533499322,0.15155611474817404,-0.31633326977230825,0.24241311067120003,0.6621237336166871,-0.24077403777663145,0.510562651876141,-0.4928953262341184,-1.1553113245941502,0.46418299102098165,-0.5386043299012052,-0.37979528502100496,-1.5627392534125275,1.2203602498244236e-07,1.7075472925031877e-06,1.1356409146401348e-10
34,2,Interior (FPS Spread),success,none,0.1515561147293427,-0.3163332697299164,0.2424131107840765,0.6621237336630372,-0.240774037592621,0.5105626520068375,-0.4928953261263606,-1.1553113245944928,0.4641829909388795,-0.5386043300944313,-0.3797952852505593,-1.5627392533499322,0.1515561147480957,-0.3163332697723772,0.24241311067116805,0.6621237336167626,-0.24077403777678885,0.5105626518761924,-0.4928953262338869,-1.155311324594438,0.4641829910213472,-0.5386043299014142,-0.3797952850212744,-1.5627392534129179,1.2207750000826342e-07,1.7075472925031877e-06,1.1356203755141792e-10
34,3,Interior (FPS Spread),success,none,0.1515561147293427,-0.3163332697299164,0.2424131107840765,0.6621237336630372,-0.240774037592621,0.5105626520068375,-0.4928953261263606,-1.1553113245944928,0.4641829909388795,-0.5386043300944313,-0.3797952852505593,-1.5627392533499322,0.15155611474841282,-0.3163332697720985,0.2424131106712967,0.662123733616458,-0.2407740377761536,0.5105626518759838,-0.49289532623482263,-1.1553113245932736,0.4641829910198707,-0.5386043299005686,-0.3797952850201854,-1.5627392534113418,1.2191099130958512e-07,0.0,1.1357131901590378e-10
35,1,Interior (FPS Spread),failed,safety_block_jump,-0.201888993004783,-0.0271739188462785,0.406370969250129,0.3676667529593708,0.2620906374948056,0.878000076686673,-0.1588883943026546,-3.015222827592752,0.2034529871583243,-1.2962067166039817,0.2760264545471784,0.5254382820717773,,,,,,,,,,,,,,,
35,2,Interior (FPS Spread),failed,safety_block_jump,-0.201888993004783,-0.0271739188462785,0.406370969250129,0.3676667529593708,0.2620906374948056,0.878000076686673,-0.1588883943026546,-3.015222827592752,0.2034529871583243,-1.2962067166039817,0.2760264545471784,0.5254382820717773,,,,,,,,,,,,,,,
35,3,Interior (FPS Spread),failed,safety_block_jump,-0.201888993004783,-0.0271739188462785,0.406370969250129,0.3676667529593708,0.2620906374948056,0.878000076686673,-0.1588883943026546,-3.015222827592752,0.2034529871583243,-1.2962067166039817,0.2760264545471784,0.5254382820717773,,,,,,,,,,,,,,,
36,1,Boundary (Edge Case),success,none,-0.2013383764299582,-0.2758361068615883,0.2242907960939874,0.118304912204555,0.1582745552906055,0.8727822984068658,-0.4463229464003191,-2.2291212806629552,0.4302735715622117,-0.4544358041609884,-0.3310528174163722,0.1830591044316598,-0.20133837645095942,-0.2758361068898363,0.22429079598628357,0.11830491199110316,0.15827455519639463,0.8727822984525132,-0.44632294640104375,-2.229121280661035,0.43027357163818736,-0.45443580398763955,-0.3310528171903612,0.18305910444279952,1.1330980208151976e-07,0.0,9.767909259217334e-11
36,2,Boundary (Edge Case),success,none,-0.2013383764299582,-0.2758361068615883,0.2242907960939874,0.118304912204555,0.1582745552906055,0.8727822984068658,-0.4463229464003191,-2.2291212806629552,0.4302735715622117,-0.4544358041609884,-0.3310528174163722,0.1830591044316598,-0.20133837645152491,-0.27583610688953675,0.22429079598617133,0.11830491199134095,0.1582745551964125,0.8727822984528766,-0.4463229464002638,-2.2291212806628433,0.43027357163934843,-0.45443580398825206,-0.33105281719119817,0.18305910444294773,1.1344840607664421e-07,0.0,9.728939320829965e-11
36,3,Boundary (Edge Case),success,none,-0.2013383764299582,-0.2758361068615883,0.2242907960939874,0.118304912204555,0.1582745552906055,0.8727822984068658,-0.4463229464003191,-2.2291212806629552,0.4302735715622117,-0.4544358041609884,-0.3310528174163722,0.1830591044316598,-0.20133837645150637,-0.27583610688954663,0.22429079598617502,0.1183049119913332,0.15827455519641195,0.8727822984528646,-0.4463229464002894,-2.229121280662784,0.43027357163931046,-0.45443580398823197,-0.33105281719117086,0.1830591044429429,1.1344380936303369e-07,0.0,9.730221628423407e-11
37,1,Interior (FPS Spread),success,none,0.1365652215312844,0.309316902125422,0.2069171954902709,0.7327474217386584,0.54088887231806,0.1548057413993434,0.3828258431292821,1.1879553387353026,0.4282084774699874,-1.0359792044871825,0.7961483452990425,2.3061189775916504,0.13656522154324907,0.30931690215453966,0.20691719530260705,0.7327474216325405,0.5408888724307105,0.15480574109134002,0.3828258432977842,1.1879553387346387,0.42820847760524494,-1.0359792040580116,0.7961483455009367,2.306118977631407,1.9028587533750211e-07,0.0,1.6134863445316228e-10
37,2,Interior (FPS Spread),success,none,0.1365652215312844,0.309316902125422,0.2069171954902709,0.7327474217386584,0.54088887231806,0.1548057413993434,0.3828258431292821,1.1879553387353026,0.4282084774699874,-1.0359792044871825,0.7961483452990425,2.3061189775916504,0.13656522154311687,0.30931690215466323,0.2069171953025446,0.73274742163258,0.5408888724309836,0.15480574109113937,0.3828258432974037,1.187955338735145,0.42820847760585395,-1.0359792040585805,0.7961483455009774,2.306118977632391,1.903581434683936e-07,0.0,1.6146035619613032e-10
37,3,Interior (FPS Spread),success,none,0.1365652215312844,0.309316902125422,0.2069171954902709,0.7327474217386584,0.54088887231806,0.1548057413993434,0.3828258431292821,1.1879553387353026,0.4282084774699874,-1.0359792044871825,0.7961483452990425,2.3061189775916504,0.13656522159465928,0.3093169021065142,0.2069171953267947,0.7327474216172749,0.5408888723245581,0.15480574116909485,0.38282584344554227,1.1879553385378254,0.42820847736862816,-1.0359792038366744,0.7961483454850069,2.3061189772493442,1.763472474866e-07,0.0,2.955230060663894e-10
38,1,Interior (FPS Spread),failed,safety_block_jump,-0.1982739275620647,-0.0756348617833437,0.2138056223463441,-0.1239030304020636,-0.5728320472764327,0.7585115915433639,-0.2849063884236877,-2.796305500260116,0.0295429404316325,-1.1052785755816052,1.616009407262638,-1.1971501365091812,,,,,,,,,,,,,,,
38,2,Interior (FPS Spread),failed,safety_block_jump,-0.1982739275620647,-0.0756348617833437,0.2138056223463441,-0.1239030304020636,-0.5728320472764327,0.7585115915433639,-0.2849063884236877,-2.796305500260116,0.0295429404316325,-1.1052785755816052,1.616009407262638,-1.1971501365091812,,,,,,,,,,,,,,,
38,3,Interior (FPS Spread),failed,safety_block_jump,-0.1982739275620647,-0.0756348617833437,0.2138056223463441,-0.1239030304020636,-0.5728320472764327,0.7585115915433639,-0.2849063884236877,-2.796305500260116,0.0295429404316325,-1.1052785755816052,1.616009407262638,-1.1971501365091812,,,,,,,,,,,,,,,
39,1,Interior (FPS Spread),failed,safety_block_jump,-0.1087380470518297,0.0747994033753002,0.3445789619486744,0.1353579836819066,-0.3536813323562096,0.8668401102316422,0.3243084252527206,2.5869451071749774,-0.7568936625014436,-0.2023668286689732,0.4766747925251982,-0.634915084991897,,,,,,,,,,,,,,,
39,2,Interior (FPS Spread),failed,safety_block_jump,-0.1087380470518297,0.0747994033753002,0.3445789619486744,0.1353579836819066,-0.3536813323562096,0.8668401102316422,0.3243084252527206,2.5869451071749774,-0.7568936625014436,-0.2023668286689732,0.4766747925251982,-0.634915084991897,,,,,,,,,,,,,,,
39,3,Interior (FPS Spread),failed,safety_block_jump,-0.1087380470518297,0.0747994033753002,0.3445789619486744,0.1353579836819066,-0.3536813323562096,0.8668401102316422,0.3243084252527206,2.5869451071749774,-0.7568936625014436,-0.2023668286689732,0.4766747925251982,-0.634915084991897,,,,,,,,,,,,,,,
