GyaraManasa17/my_repository/metric_ws/40_poses/without physics/hardware_validation_raw_data_20260331_071108.csv
execution_order,pose_id,iteration,test_type,status,failure_type,target_x,target_y,target_z,target_qx,target_qy,target_qz,target_qw,cmd_j1,cmd_j2,cmd_j3,cmd_j4,cmd_j5,actual_x,actual_y,actual_z,actual_qx,actual_qy,actual_qz,actual_qw,cartesian_error_mm,orientation_error_deg,mean_joint_error_rad,joint_tracking_error_rad,execution_time_sec
0,0,1,Interior (6-DOF Spread),success,none,-0.0343333949814645,0.3166080020185921,0.2095680628329682,0.5063110412319201,0.6895908154263628,0.3070754231967526,0.4169152447138249,1.7161079350052877,0.4899694589666317,-1.3085043645488534,1.0857542485386806,2.0724067823899044,-0.03430263005464278,0.31639547505367543,0.2098201786108441,0.5064120838502942,0.6895373648982044,0.3072100005949737,0.416781764565197,0.3311745113879046,0.02536452414781389,0.0011549000167464297,0.003688118180847459,6.298429489135742
0,0,2,Interior (6-DOF Spread),success,none,-0.0343333949814645,0.3166080020185921,0.2095680628329682,0.5063110412319201,0.6895908154263628,0.3070754231967526,0.4169152447138249,1.7161079350052877,0.4899694589666317,-1.3085043645488534,1.0857542485386806,2.0724067823899044,-0.03430822211155411,0.3164359893278486,0.20977225900101432,0.5063929401955329,0.6895471665392743,0.3071845728763828,0.416807549625167,0.2681755287140692,0.020538615089052182,0.0009347985894780364,0.0029864248287605416,3.9051623344421387
0,0,3,Interior (6-DOF Spread),success,none,-0.0343333949814645,0.3166080020185921,0.2095680628329682,0.5063110412319201,0.6895908154263628,0.3070754231967526,0.4169152447138249,1.7161079350052877,0.4899694589666317,-1.3085043645488534,1.0857542485386806,2.0724067823899044,-0.03431078990162387,0.3164535356953813,0.20975146679903395,0.5063845941950285,0.689551616037352,0.30717344931937135,0.41681852599836816,0.24084818747401132,0.01844541875090056,0.0008395286279167969,0.002682063465648271,3.5042121410369873
1,1,1,Interior (6-DOF Spread),failed,safety_block_jump,-0.2571474734323948,-0.0347600623223824,0.2147015462160432,0.1858410471933707,0.5539448640764049,0.7863253695567995,-0.2007501081763278,-3.0131548340461443,-0.0040101173174711,0.4634188354511477,-1.000033815958254,1.1918084626030043,,,,,,,,,,,,
1,1,2,Interior (6-DOF Spread),failed,safety_block_jump,-0.2571474734323948,-0.0347600623223824,0.2147015462160432,0.1858410471933707,0.5539448640764049,0.7863253695567995,-0.2007501081763278,-3.0131548340461443,-0.0040101173174711,0.4634188354511477,-1.000033815958254,1.1918084626030043,,,,,,,,,,,,
1,1,3,Interior (6-DOF Spread),failed,safety_block_jump,-0.2571474734323948,-0.0347600623223824,0.2147015462160432,0.1858410471933707,0.5539448640764049,0.7863253695567995,-0.2007501081763278,-3.0131548340461443,-0.0040101173174711,0.4634188354511477,-1.000033815958254,1.1918084626030043,,,,,,,,,,,,
2,2,1,Interior (6-DOF Spread),success,none,0.0937573808331841,0.2276467925936134,0.3931134043514077,0.11106148557353,-0.4647414826057189,0.4293854242452307,0.7663607885411297,1.2260010732758255,0.3285611370644827,-1.1570547645488534,-0.1117396528119463,-0.3986730618830281,0.09374735502213086,0.22761875095810213,0.393089529840122,0.11061203672736067,-0.46422467840286996,0.42969666782062044,0.7665645432425325,0.038168606190833995,0.0893137683124754,0.0011930139520149653,0.0035352248932697234,4.453927040100098
2,2,2,Interior (6-DOF Spread),success,none,0.0937573808331841,0.2276467925936134,0.3931134043514077,0.11106148557353,-0.4647414826057189,0.4293854242452307,0.7663607885411297,1.2260010732758255,0.3285611370644827,-1.1570547645488534,-0.1117396528119463,-0.3986730618830281,0.09375046644083578,0.227627540029372,0.39309705406682094,0.11075217754284354,-0.4643854044491512,0.4296000221992161,0.7665011234372392,0.026187818876022576,0.06151862370267779,0.0008216020595437134,0.0024350666304419747,4.405307769775391
2,2,3,Interior (6-DOF Spread),success,none,0.0937573808331841,0.2276467925936134,0.3931134043514077,0.11106148557353,-0.4647414826057189,0.4293854242452307,0.7663607885411297,1.2260010732758255,0.3285611370644827,-1.1570547645488534,-0.1117396528119463,-0.3986730618830281,0.09374831153773489,0.2276215398763689,0.3930919168298048,0.1106565618405056,-0.46427531115554704,0.42966633085603295,0.7665444572246104,0.034375360838960145,0.08053445364410304,0.0010755650269113181,0.0031877628351680456,5.588697671890259
3,3,1,Interior (6-DOF Spread),success,none,-0.1152752011806759,0.0983162412857094,0.3946398225900488,0.1368608068761277,0.8511660106083649,-0.1586814631495697,-0.4812543352313491,2.4838653193420512,-0.420410056351155,-0.3320627645488532,-0.1355410450889735,-2.451114834985958,-0.11532901909566562,0.09835768783941026,0.3944539911816536,0.1371705169200882,0.8513753653244517,-0.15898518501129366,-0.48069527515200017,0.19785726454612362,0.08456087443823,0.0006808016376502413,0.001989900320759992,4.605625867843628
3,3,2,Interior (6-DOF Spread),success,none,-0.1152752011806759,0.0983162412857094,0.3946398225900488,0.1368608068761277,0.8511660106083649,-0.1586814631495697,-0.4812543352313491,2.4838653193420512,-0.420410056351155,-0.3320627645488532,-0.1355410450889735,-2.451114834985958,-0.11532870030684904,0.09835756774182589,0.39445487910863547,0.13716905853205918,0.8513742440310681,-0.1589840150766262,-0.4806980642067026,0.19691146181399974,0.08415697924282528,0.0006772307105148645,0.0019804101101466077,4.554722547531128
3,3,3,Interior (6-DOF Spread),success,none,-0.1152752011806759,0.0983162412857094,0.3946398225900488,0.1368608068761277,0.8511660106083649,-0.1586814631495697,-0.4812543352313491,2.4838653193420512,-0.420410056351155,-0.3320627645488532,-0.1355410450889735,-2.451114834985958,-0.11532331733857562,0.09835340956159597,0.39447352868203023,0.13713800697106762,0.8513532862882592,-0.15895353826743647,-0.4807541176552183,0.17706018532551537,0.0756785578675075,0.0006090028802634318,0.0017808930431987206,4.254621744155884
4,4,1,Boundary (Absolute Extreme),success,none,0.0811539152775026,-0.3349446371146168,0.2128777819343042,-0.3428197745391722,0.3518784438805486,-0.5252848745103189,0.6947891504102472,1.7743992049449415,-1.0916491967260975,-1.1943603645488534,-0.9847485181656676,2.1195893518865243,0.08113312065432372,-0.33484428425139634,0.21362675167203196,-0.3438913175887308,0.35065410004678316,-0.5260575005082454,0.6942938642725317,0.7559489278659507,0.2140588307561803,0.0007475276786347961,0.0025744723452524342,4.054885625839233
4,4,2,Boundary (Absolute Extreme),success,none,0.0811539152775026,-0.3349446371146168,0.2128777819343042,-0.3428197745391722,0.3518784438805486,-0.5252848745103189,0.6947891504102472,1.7743992049449415,-1.0916491967260975,-1.1943603645488534,-0.9847485181656676,2.1195893518865243,0.08112678929192706,-0.33481325332562994,0.21385461544127699,-0.34421777192444847,0.3502817839820107,-0.5262917890162647,0.6941424566440293,0.9860026467747071,0.2791853984375127,0.0009745408944120459,0.0033577535368254003,4.456843852996826
4,4,3,Boundary (Absolute Extreme),success,none,0.0811539152775026,-0.3349446371146168,0.2128777819343042,-0.3428197745391722,0.3518784438805486,-0.5252848745103189,0.6947891504102472,1.7743992049449415,-1.0916491967260975,-1.1943603645488534,-0.9847485181656676,2.1195893518865243,0.08112681741250287,-0.3348133895269463,0.21385361845094417,-0.3442163460835724,0.35028341469113544,-0.5262907628902062,0.6941431188001774,0.9849960054563105,0.2789004449262169,0.0009735462187650645,0.0033543264104270885,4.755187273025513
5,5,1,Interior (6-DOF Spread),success,none,0.1333188675958711,0.0136854830975568,0.2156722651102561,-0.0112873188929104,0.2102620942010621,0.0547626257047874,0.9760448263273112,0.1123310212708497,-0.7770630055966966,-0.3842163645488532,1.585583486356257,0.0010919814883272,0.13338637727620742,0.013693017400012879,0.21569970163963154,-0.011273560163090677,0.2100118160828413,0.054765557285424094,0.9760987028380137,0.07326039719233542,0.0293809968098982,0.00043356965325208477,0.00137891347451467,4.617348909378052
5,5,2,Interior (6-DOF Spread),success,none,0.1333188675958711,0.0136854830975568,0.2156722651102561,-0.0112873188929104,0.2102620942010621,0.0547626257047874,0.9760448263273112,0.1123310212708497,-0.7770630055966966,-0.3842163645488532,1.585583486356257,0.0010919814883272,0.13341139520343404,0.013695920756946584,0.21570985763326544,-0.011267990406346068,0.20991904091639502,0.05476696400755099,0.9761186445849394,0.10041663547970109,0.04027483383378055,0.0005939919525472983,0.0018904187975066794,4.062645435333252
5,5,3,Interior (6-DOF Spread),success,none,0.1333188675958711,0.0136854830975568,0.2156722651102561,-0.0112873188929104,0.2102620942010621,0.0547626257047874,0.9760448263273112,0.1123310212708497,-0.7770630055966966,-0.3842163645488532,1.585583486356257,0.0010919814883272,0.13338642384875615,0.013693103840938334,0.21569971334259008,-0.011273208775106685,0.21001165969489966,0.05476579343558084,0.9760987272942618,0.07331663175442994,0.02940158733069173,0.000433628315225381,0.0013800508761741385,4.553687810897827
6,6,1,Interior (6-DOF Spread),failed,safety_block_jump,0.0675482769938825,0.024595176648785,0.3830216183176762,-0.1123821961593399,0.8669510686058189,0.0296336670380292,-0.4846523830618306,-2.724766445923644,-1.1547493339003088,-0.7569011645488531,0.9259137059076344,2.847058787034397,,,,,,,,,,,,
6,6,2,Interior (6-DOF Spread),failed,safety_block_jump,0.0675482769938825,0.024595176648785,0.3830216183176762,-0.1123821961593399,0.8669510686058189,0.0296336670380292,-0.4846523830618306,-2.724766445923644,-1.1547493339003088,-0.7569011645488531,0.9259137059076344,2.847058787034397,,,,,,,,,,,,
6,6,3,Interior (6-DOF Spread),failed,safety_block_jump,0.0675482769938825,0.024595176648785,0.3830216183176762,-0.1123821961593399,0.8669510686058189,0.0296336670380292,-0.4846523830618306,-2.724766445923644,-1.1547493339003088,-0.7569011645488531,0.9259137059076344,2.847058787034397,,,,,,,,,,,,
7,7,1,Interior (6-DOF Spread),failed,safety_block_jump,-0.0852520758453521,-0.2570700972159053,0.3335914807649471,-0.5144302312676021,0.8107634641318403,-0.0040859836857053,-0.2792981330482173,-1.93246536898071,0.0848482884133621,-0.7413107645488531,0.1817380648057127,2.8204649751363022,,,,,,,,,,,,
7,7,2,Interior (6-DOF Spread),failed,safety_block_jump,-0.0852520758453521,-0.2570700972159053,0.3335914807649471,-0.5144302312676021,0.8107634641318403,-0.0040859836857053,-0.2792981330482173,-1.93246536898071,0.0848482884133621,-0.7413107645488531,0.1817380648057127,2.8204649751363022,,,,,,,,,,,,
7,7,3,Interior (6-DOF Spread),failed,safety_block_jump,-0.0852520758453521,-0.2570700972159053,0.3335914807649471,-0.5144302312676021,0.8107634641318403,-0.0040859836857053,-0.2792981330482173,-1.93246536898071,0.0848482884133621,-0.7413107645488531,0.1817380648057127,2.8204649751363022,,,,,,,,,,,,
8,8,1,Interior (6-DOF Spread),failed,safety_block_jump,-0.0243441698280613,0.0610119761624645,0.2601460511319333,0.4844567127536103,0.8495642881263396,0.1846646367183817,0.097165764310378,2.1080400263100687,-1.1360021916963765,-0.2930867645488531,1.415261596667437,2.721381579193402,,,,,,,,,,,,
8,8,2,Interior (6-DOF Spread),failed,safety_block_jump,-0.0243441698280613,0.0610119761624645,0.2601460511319333,0.4844567127536103,0.8495642881263396,0.1846646367183817,0.097165764310378,2.1080400263100687,-1.1360021916963765,-0.2930867645488531,1.415261596667437,2.721381579193402,,,,,,,,,,,,
8,8,3,Interior (6-DOF Spread),failed,safety_block_jump,-0.0243441698280613,0.0610119761624645,0.2601460511319333,0.4844567127536103,0.8495642881263396,0.1846646367183817,0.097165764310378,2.1080400263100687,-1.1360021916963765,-0.2930867645488531,1.415261596667437,2.721381579193402,,,,,,,,,,,,
9,9,1,Boundary (Absolute Extreme),success,none,0.073638689991938,-0.32901730053417,0.2947516214543471,0.1348779356527059,-0.3687384844197235,-0.529278785542519,0.7521328604419208,1.755991435490314,-1.0395229964517492,-1.357688364548853,-0.3198380641881588,-2.43267073963728,0.0735399341373463,-0.32848868864557645,0.2956649637742856,0.1334371410006501,-0.37021529186917157,-0.5284083802726541,0.7522763792153964,1.0598950141260304,0.2571311655398874,0.000897958676639754,0.0032153459248571202,3.405987501144409
9,9,2,Boundary (Absolute Extreme),success,none,0.073638689991938,-0.32901730053417,0.2947516214543471,0.1348779356527059,-0.3687384844197235,-0.529278785542519,0.7521328604419208,1.755991435490314,-1.0395229964517492,-1.357688364548853,-0.3198380641881588,-2.43267073963728,0.07354447145765547,-0.3285143773255091,0.29562084786037446,0.13350710972916738,-0.37014427937039757,-0.5284506068531774,0.752269247156656,1.0086443530538438,0.2446980908533485,0.0008541574788789253,0.003059883974357018,3.6046392917633057
9,9,3,Boundary (Absolute Extreme),success,none,0.073638689991938,-0.32901730053417,0.2947516214543471,0.1348779356527059,-0.3687384844197235,-0.529278785542519,0.7521328604419208,1.755991435490314,-1.0395229964517492,-1.357688364548853,-0.3198380641881588,-2.43267073963728,0.07353945998766505,-0.32848762691289,0.29566687522904683,0.13343442509439715,-0.3702187536173415,-0.5284066377496238,0.7522763812933965,1.0621159121913222,0.25766955549006354,0.0008994364319041548,0.0032220886538702072,6.173255443572998
10,10,1,Interior (6-DOF Spread),failed,safety_block_jump,0.0666823180272897,-0.0277640059400754,0.3716723039570091,0.457962644056651,0.2560251033452202,0.8505980627164371,0.0347030086412487,2.671777965858042,-1.0259579911171963,-1.1225331645488534,1.2831529514600823,0.8049113927307276,,,,,,,,,,,,
10,10,2,Interior (6-DOF Spread),failed,safety_block_jump,0.0666823180272897,-0.0277640059400754,0.3716723039570091,0.457962644056651,0.2560251033452202,0.8505980627164371,0.0347030086412487,2.671777965858042,-1.0259579911171963,-1.1225331645488534,1.2831529514600823,0.8049113927307276,,,,,,,,,,,,
10,10,3,Interior (6-DOF Spread),failed,safety_block_jump,0.0666823180272897,-0.0277640059400754,0.3716723039570091,0.457962644056651,0.2560251033452202,0.8505980627164371,0.0347030086412487,2.671777965858042,-1.0259579911171963,-1.1225331645488534,1.2831529514600823,0.8049113927307276,,,,,,,,,,,,
11,11,1,Boundary (Absolute Extreme),failed,safety_block_jump,-0.2690608472176378,-0.1793287855510223,0.2635269268732583,-0.0371202482377684,0.610875509750247,0.7238041708118195,-0.3186859285778977,-2.573669338316908,0.3372488371102076,-0.645726764548853,-0.0337846340697554,1.3011862373451677,,,,,,,,,,,,
11,11,2,Boundary (Absolute Extreme),failed,safety_block_jump,-0.2690608472176378,-0.1793287855510223,0.2635269268732583,-0.0371202482377684,0.610875509750247,0.7238041708118195,-0.3186859285778977,-2.573669338316908,0.3372488371102076,-0.645726764548853,-0.0337846340697554,1.3011862373451677,,,,,,,,,,,,
11,11,3,Boundary (Absolute Extreme),failed,safety_block_jump,-0.2690608472176378,-0.1793287855510223,0.2635269268732583,-0.0371202482377684,0.610875509750247,0.7238041708118195,-0.3186859285778977,-2.573669338316908,0.3372488371102076,-0.645726764548853,-0.0337846340697554,1.3011862373451677,,,,,,,,,,,,
12,12,1,Interior (6-DOF Spread),success,none,-0.1259801115101582,-0.1045576052788906,0.423949504826241,0.2244509837754491,0.4964500663753212,0.7185734840471617,-0.4322166534303088,-2.493135346952912,0.029521356543221,-1.2704563645488534,0.3902731989759986,0.9069973158234136,-0.12601902077993662,-0.10458665918235466,0.4238325303616447,0.223950099008907,0.4963965320420752,0.7188610599061075,-0.43205973276986787,0.1266534087530984,0.0688575570346299,0.0008228884768708332,0.002688897981967519,3.454533576965332
12,12,2,Interior (6-DOF Spread),success,none,-0.1259801115101582,-0.1045576052788906,0.423949504826241,0.2244509837754491,0.4964500663753212,0.7185734840471617,-0.4322166534303088,-2.493135346952912,0.029521356543221,-1.2704563645488534,0.3902731989759986,0.9069973158234136,-0.12601685246404434,-0.10458544658273713,0.4238385044816305,0.22397549058817445,0.4963989451232643,0.7188463650480797,-0.4320682473330572,0.12019198141300351,0.06534689252913073,0.0007802326601441402,0.0025517030551084493,3.4088430404663086
12,12,3,Interior (6-DOF Spread),success,none,-0.1259801115101582,-0.1045576052788906,0.423949504826241,0.2244509837754491,0.4964500663753212,0.7185734840471617,-0.4322166534303088,-2.493135346952912,0.029521356543221,-1.2704563645488534,0.3902731989759986,0.9069973158234136,-0.1260207848747225,-0.10458842645705678,0.42382656653656353,0.22392446463696264,0.4963934500926003,0.7188756319846191,-0.43205231463438465,0.13310931852185726,0.07235877944827858,0.0008639536237806528,0.002825507336354677,3.455334186553955
13,13,1,Interior (6-DOF Spread),success,none,0.0580576205903859,-0.147560710430238,0.3888785832377475,0.7726664694945996,-0.3798563708723743,0.4980819749205548,-0.1030049061242225,1.8733409657635656,-0.8538805638957363,-0.3767923645488533,-1.1474277589581945,0.8392259887282689,0.057927468439966524,-0.14714266879965787,0.3892174724779375,0.7725816219879298,-0.37900456148163547,0.49907728660369294,-0.101956077498637,0.553664432913496,0.19255016561520596,0.0007551271808393101,0.0027880356141576335,3.6055798530578613
13,13,2,Interior (6-DOF Spread),success,none,0.0580576205903859,-0.147560710430238,0.3888785832377475,0.7726664694945996,-0.3798563708723743,0.4980819749205548,-0.1030049061242225,1.8733409657635656,-0.8538805638957363,-0.3767923645488533,-1.1474277589581945,0.8392259887282689,0.05794677283317247,-0.14720557324446001,0.389166689172979,0.7725941659665971,-0.37913314512519,0.49892807953804763,-0.10211309627239601,0.47054720902069025,0.1636494834032758,0.0006414432942256742,0.0023695716389855806,4.7355146408081055
13,13,3,Interior (6-DOF Spread),success,none,0.0580576205903859,-0.147560710430238,0.3888785832377475,0.7726664694945996,-0.3798563708723743,0.4980819749205548,-0.1030049061242225,1.8733409657635656,-0.8538805638957363,-0.3767923645488533,-1.1474277589581945,0.8392259887282689,0.05795767571588534,-0.14724050420822127,0.3891384252140891,0.7726013395226425,-0.3792042356395021,0.49884499561710755,-0.10220072499081108,0.4243098575643372,0.14757107836700611,0.0005784221067471118,0.00213676349764318,3.5058300495147705
14,14,1,Interior (6-DOF Spread),failed,safety_block_jump,0.2567573922020265,0.1694333706532571,0.2550835509700481,0.9517315825377296,0.2933392327519101,-0.0698542467281491,-0.0572666878978741,0.6055058445760833,0.3006690474439979,-1.1897203645488532,0.9885834268572388,-2.990282924597324,,,,,,,,,,,,
14,14,2,Interior (6-DOF Spread),failed,safety_block_jump,0.2567573922020265,0.1694333706532571,0.2550835509700481,0.9517315825377296,0.2933392327519101,-0.0698542467281491,-0.0572666878978741,0.6055058445760833,0.3006690474439979,-1.1897203645488532,0.9885834268572388,-2.990282924597324,,,,,,,,,,,,
14,14,3,Interior (6-DOF Spread),failed,safety_block_jump,0.2567573922020265,0.1694333706532571,0.2550835509700481,0.9517315825377296,0.2933392327519101,-0.0698542467281491,-0.0572666878978741,0.6055058445760833,0.3006690474439979,-1.1897203645488532,0.9885834268572388,-2.990282924597324,,,,,,,,,,,,
15,15,1,Boundary (Absolute Extreme),success,none,0.1267210335141567,-0.299139497134084,0.2226139690754784,-0.3500050103506861,0.059126522095793,-0.5713403529105004,0.7399802350403534,-1.2045914851289732,0.1689818046456441,-0.0974643645488531,-0.3892769884459082,-0.6641822484140021,0.1266593244675845,-0.298981557830622,0.22275500769909706,-0.34989654469446435,0.05930644509668024,-0.5713010720484377,0.7400474570304089,0.22055548816375592,0.025674357654878636,0.0007501259140775818,0.002322293206089474,4.16339111328125
15,15,2,Boundary (Absolute Extreme),success,none,0.1267210335141567,-0.299139497134084,0.2226139690754784,-0.3500050103506861,0.059126522095793,-0.5713403529105004,0.7399802350403534,-1.2045914851289732,0.1689818046456441,-0.0974643645488531,-0.3892769884459082,-0.6641822484140021,0.12666308171900123,-0.29898838560039537,0.22274858415913057,-0.3499009733408066,0.05929730804988062,-0.5713017226684368,0.7400455930476652,0.2105096836778612,0.0245117495404886,0.0007150978741935682,0.002216762150034774,3.8601572513580322
15,15,3,Boundary (Absolute Extreme),success,none,0.1267210335141567,-0.299139497134084,0.2226139690754784,-0.3500050103506861,0.059126522095793,-0.5713403529105004,0.7399802350403534,-1.2045914851289732,0.1689818046456441,-0.0974643645488531,-0.3892769884459082,-0.6641822484140021,0.12665709455150942,-0.298972773835423,0.22276246150597068,-0.3498902340623217,0.059314935873758794,-0.5712977338924343,0.7400523371623624,0.23223878051334776,0.027041773675392247,0.000788908044244041,0.0024455694267621945,3.5594050884246826
16,16,1,Interior (6-DOF Spread),failed,safety_block_limits,0.2227929539486053,-0.1680565029597238,0.3397203352114004,0.8685492835350384,-0.3291132341485714,0.3250644006523064,0.177875677391812,-0.6730671421265986,0.1118258832921914,-0.5002163645488532,-0.3617634524192528,3.011339915372625,,,,,,,,,,,,
16,16,2,Interior (6-DOF Spread),failed,safety_block_limits,0.2227929539486053,-0.1680565029597238,0.3397203352114004,0.8685492835350384,-0.3291132341485714,0.3250644006523064,0.177875677391812,-0.6730671421265986,0.1118258832921914,-0.5002163645488532,-0.3617634524192528,3.011339915372625,,,,,,,,,,,,
16,16,3,Interior (6-DOF Spread),failed,safety_block_limits,0.2227929539486053,-0.1680565029597238,0.3397203352114004,0.8685492835350384,-0.3291132341485714,0.3250644006523064,0.177875677391812,-0.6730671421265986,0.1118258832921914,-0.5002163645488532,-0.3617634524192528,3.011339915372625,,,,,,,,,,,,
17,17,1,Interior (6-DOF Spread),failed,safety_block_jump,-0.1923220673267205,0.0348954480256846,0.2193155512597235,-0.1443048278889527,0.5872896071521292,0.7690106996471295,0.2070979908334934,2.972438200283628,-0.1987974972900363,-0.7930931645488533,1.475747703646671,1.262582316847933,,,,,,,,,,,,
17,17,2,Interior (6-DOF Spread),failed,safety_block_jump,-0.1923220673267205,0.0348954480256846,0.2193155512597235,-0.1443048278889527,0.5872896071521292,0.7690106996471295,0.2070979908334934,2.972438200283628,-0.1987974972900363,-0.7930931645488533,1.475747703646671,1.262582316847933,,,,,,,,,,,,
17,17,3,Interior (6-DOF Spread),failed,safety_block_jump,-0.1923220673267205,0.0348954480256846,0.2193155512597235,-0.1443048278889527,0.5872896071521292,0.7690106996471295,0.2070979908334934,2.972438200283628,-0.1987974972900363,-0.7930931645488533,1.475747703646671,1.262582316847933,,,,,,,,,,,,
18,18,1,Boundary (Absolute Extreme),success,none,0.1289634159036801,0.3412266216488459,0.2273370912345974,-0.3013647410543216,-0.2655437515685047,0.5176925471945066,0.7554205685784902,-1.9010187628290545,-1.171210239250103,-1.2509683645488534,-0.6301296093776632,2.318614008672262,0.12886804137880026,0.34094803505330107,0.22832558820630341,-0.30012102617669745,-0.2672122249504297,0.5168983559425037,0.7558710777028208,1.0314228300194281,0.26041119147657926,0.0009093324936565895,0.0030531006222249387,5.384515285491943
18,18,2,Boundary (Absolute Extreme),success,none,0.1289634159036801,0.3412266216488459,0.2273370912345974,-0.3013647410543216,-0.2655437515685047,0.5176925471945066,0.7554205685784902,-1.9010187628290545,-1.171210239250103,-1.2509683645488534,-0.6301296093776632,2.318614008672262,0.12886788278876746,0.3409479153390538,0.22832614382049848,-0.3001207792341662,-0.26721355834362054,0.5168978450348921,0.7558710537568575,1.0320023259859863,0.2605587879153332,0.0009095217572493653,0.003054845152050986,4.655303239822388
18,18,3,Boundary (Absolute Extreme),success,none,0.1289634159036801,0.3412266216488459,0.2273370912345974,-0.3013647410543216,-0.2655437515685047,0.5176925471945066,0.7554205685784902,-1.9010187628290545,-1.171210239250103,-1.2509683645488534,-0.6301296093776632,2.318614008672262,0.12885741347861673,0.3409173723924736,0.22843369066628655,-0.2999853562114756,-0.26739513172587404,0.5168112289542001,0.75591982591729,1.1442910164233158,0.2889047090760047,0.0010084676877574195,0.0033871785902358886,3.6540439128875732
19,19,1,Interior (6-DOF Spread),success,none,0.3177643124555829,0.0134834193280686,0.2629417582598181,0.9476982134429364,0.0177180990007816,0.01643839800335,0.3182513853480428,0.0440688762099386,0.2334536839323382,-0.9484403645488532,0.6951057092395792,2.493189515809753,0.3175241773437115,0.01347312338454049,0.263041856551173,0.9476982578571769,0.017723773123726954,0.016423030219600204,0.3182517305516765,0.26036617740941165,0.001877642171690196,0.0008215764386882984,0.0028983449066223798,3.953810930252075
19,19,2,Interior (6-DOF Spread),success,none,0.3177643124555829,0.0134834193280686,0.2629417582598181,0.9476982134429364,0.0177180990007816,0.01643839800335,0.3182513853480428,0.0440688762099386,0.2334536839323382,-0.9484403645488532,0.6951057092395792,2.493189515809753,0.31758854137408876,0.013475668275514545,0.26301507742002755,0.94769824224988,0.017721929089345716,0.016427009186625045,0.31825167436326673,0.19060758421200422,0.0013772869420277485,0.0006013409884706777,0.0021219238687502314,4.159436941146851
19,19,3,Interior (6-DOF Spread),success,none,0.3177643124555829,0.0134834193280686,0.2629417582598181,0.9476982134429364,0.0177180990007816,0.01643839800335,0.3182513853480428,0.0440688762099386,0.2334536839323382,-0.9484403645488532,0.6951057092395792,2.493189515809753,0.3175692343089833,0.013474816883818028,0.26302311184788635,0.9476982454038877,0.017722349625842578,0.016425758716452035,0.3182517060955387,0.21153697459166113,0.0015285114143240976,0.0006673690179635428,0.002354913913705366,5.211588144302368
20,20,1,Boundary (Absolute Extreme),success,none,0.3295911516995289,-0.0655929522882792,0.2161493940873767,0.4550076607954852,-0.0751629619626724,-0.0754709498100547,0.884094278627108,-0.2036690210335923,0.1543498887791601,-0.3459827645488531,0.1273660769435127,0.9571824124698174,0.3293996740746353,-0.06555347137140334,0.216279144542024,0.4550114144235942,-0.07512681636763693,-0.07548998662404438,0.8840937937380882,0.2346435682336937,0.004701367668281408,0.000606146633697524,0.0018401189878047286,4.472898244857788
20,20,2,Boundary (Absolute Extreme),success,none,0.3295911516995289,-0.0655929522882792,0.2161493940873767,0.4550076607954852,-0.0751629619626724,-0.0754709498100547,0.884094278627108,-0.2036690210335923,0.1543498887791601,-0.3459827645488531,0.1273660769435127,0.9571824124698174,0.3293395174222111,-0.06554098158607863,0.21631984026619377,0.45501331545995627,-0.07511546551576156,-0.07549579017023586,0.8840932842528895,0.30833855302540514,0.006177239427109538,0.0007961675232538434,0.0024181155944354334,4.309692144393921
20,20,3,Boundary (Absolute Extreme),success,none,0.3295911516995289,-0.0655929522882792,0.2161493940873767,0.4550076607954852,-0.0751629619626724,-0.0754709498100547,0.884094278627108,-0.2036690210335923,0.1543498887791601,-0.3459827645488531,0.1273660769435127,0.9571824124698174,0.3294097092581071,-0.06555547849425175,0.21627236022596738,0.45501173883271634,-0.07512870961298687,-0.07548886361925944,0.8840935617827947,0.22236527612876494,0.004454756247929379,0.0005741602242221866,0.0017438362154687382,4.655064344406128
21,21,1,Boundary (Absolute Extreme),failed,safety_block_limits,-0.2926409282037918,0.1241499163324288,0.238177029915619,0.1819750440712255,0.961938941118193,0.008287717303237,-0.2036906248151511,2.7546129284038665,0.2799404999664792,-0.2743411645488529,-0.4115498509436772,-3.0782140768410224,,,,,,,,,,,,
21,21,2,Boundary (Absolute Extreme),failed,safety_block_limits,-0.2926409282037918,0.1241499163324288,0.238177029915619,0.1819750440712255,0.961938941118193,0.008287717303237,-0.2036906248151511,2.7546129284038665,0.2799404999664792,-0.2743411645488529,-0.4115498509436772,-3.0782140768410224,,,,,,,,,,,,
21,21,3,Boundary (Absolute Extreme),failed,safety_block_limits,-0.2926409282037918,0.1241499163324288,0.238177029915619,0.1819750440712255,0.961938941118193,0.008287717303237,-0.2036906248151511,2.7546129284038665,0.2799404999664792,-0.2743411645488529,-0.4115498509436772,-3.0782140768410224,,,,,,,,,,,,
22,22,1,Boundary (Absolute Extreme),success,none,0.1237858955287996,-0.1957662576921753,0.2008465451832694,-0.6435393527716454,0.4210566436719227,-0.2771736463714978,0.5759715045131272,-1.0519603967343518,-0.5763314098033725,0.2358732354511474,0.4691016633063374,-1.7562442660357496,0.12374353317944364,-0.195692224102504,0.20090226252881474,-0.6435710457083683,0.42101126213351187,-0.27723289434988624,0.5759407509223233,0.1018821065604365,0.009937164448297342,0.00019405699663035402,0.0006561823876008404,3.6111044883728027
22,22,2,Boundary (Absolute Extreme),success,none,0.1237858955287996,-0.1957662576921753,0.2008465451832694,-0.6435393527716454,0.4210566436719227,-0.2771736463714978,0.5759715045131272,-1.0519603967343518,-0.5763314098033725,0.2358732354511474,0.4691016633063374,-1.7562442660357496,0.12373900881741108,-0.1956841468319987,0.20090830363902915,-0.6435742163732422,0.4210060520559622,-0.2772394656191685,0.5759378532923649,0.1129365482100449,0.011014842170676845,0.00021480423849969953,0.0007273961775471074,3.9569220542907715
22,22,3,Boundary (Absolute Extreme),success,none,0.1237858955287996,-0.1957662576921753,0.2008465451832694,-0.6435393527716454,0.4210566436719227,-0.2771736463714978,0.5759715045131272,-1.0519603967343518,-0.5763314098033725,0.2358732354511474,0.4691016633063374,-1.7562442660357496,0.12374812589912287,-0.19570011321999842,0.2008963004051706,-0.6435674381971757,0.4210158890578638,-0.27722666836284815,0.575944396623126,0.09097921868158444,0.008873189617532673,0.00017303925254533726,0.0005859664779358747,4.155157566070557
23,23,1,Interior (6-DOF Spread),failed,safety_block_jump,-0.2518905088982668,-0.0705191514195022,0.3255085910163857,0.4500524262445236,0.0670991922710367,0.8823616115635341,-0.1199520673727432,-2.880465495894036,0.2700334735985477,-0.4304307645488532,-0.7842927556857485,0.0178203470371283,,,,,,,,,,,,
23,23,2,Interior (6-DOF Spread),failed,safety_block_jump,-0.2518905088982668,-0.0705191514195022,0.3255085910163857,0.4500524262445236,0.0670991922710367,0.8823616115635341,-0.1199520673727432,-2.880465495894036,0.2700334735985477,-0.4304307645488532,-0.7842927556857485,0.0178203470371283,,,,,,,,,,,,
23,23,3,Interior (6-DOF Spread),failed,safety_block_jump,-0.2518905088982668,-0.0705191514195022,0.3255085910163857,0.4500524262445236,0.0670991922710367,0.8823616115635341,-0.1199520673727432,-2.880465495894036,0.2700334735985477,-0.4304307645488532,-0.7842927556857485,0.0178203470371283,,,,,,,,,,,,
24,24,1,Interior (6-DOF Spread),failed,safety_block_jump,0.2827060147246495,-0.0440988324317762,0.3166847351178929,0.8721703824228568,0.0279990565611603,0.4640560299303727,-0.1522723807567015,-0.1614845493667371,0.2846653894650313,-0.3702963645488533,-0.872292398691639,-2.711905764567271,,,,,,,,,,,,
24,24,2,Interior (6-DOF Spread),failed,safety_block_jump,0.2827060147246495,-0.0440988324317762,0.3166847351178929,0.8721703824228568,0.0279990565611603,0.4640560299303727,-0.1522723807567015,-0.1614845493667371,0.2846653894650313,-0.3702963645488533,-0.872292398691639,-2.711905764567271,,,,,,,,,,,,
24,24,3,Interior (6-DOF Spread),failed,safety_block_jump,0.2827060147246495,-0.0440988324317762,0.3166847351178929,0.8721703824228568,0.0279990565611603,0.4640560299303727,-0.1522723807567015,-0.1614845493667371,0.2846653894650313,-0.3702963645488533,-0.872292398691639,-2.711905764567271,,,,,,,,,,,,
25,25,1,Boundary (Absolute Extreme),success,none,0.1559209332500994,-0.044931996334352,0.4345816467380977,0.787672042555759,0.1190015156218984,0.4531878682913303,-0.4000401838431853,-0.3026107818522163,-0.0697013229263723,-1.1553843645488533,0.2824026688397458,-2.0466315346649417,0.15599300588704104,-0.04495441713682538,0.4344650167102102,0.7878502707944718,0.11870746837794452,0.452779985215973,-0.40023839489509266,0.13892343497159174,0.06521511431089615,0.0006770820027758695,0.0021456581311333463,4.6870598793029785
25,25,2,Boundary (Absolute Extreme),success,none,0.1559209332500994,-0.044931996334352,0.4345816467380977,0.787672042555759,0.1190015156218984,0.4531878682913303,-0.4000401838431853,-0.3026107818522163,-0.0697013229263723,-1.1553843645488533,0.2824026688397458,-2.0466315346649417,0.15600177129610476,-0.04495723390556071,0.43445074220236796,0.7878720183566874,0.11867136547043491,0.45273024205584395,-0.4002625608722343,0.1559093395441574,0.07318290775075263,0.0007596574016932311,0.0024078331552624763,3.8073205947875977
25,25,3,Boundary (Absolute Extreme),success,none,0.1559209332500994,-0.044931996334352,0.4345816467380977,0.787672042555759,0.1190015156218984,0.4531878682913303,-0.4000401838431853,-0.3026107818522163,-0.0697013229263723,-1.1553843645488533,0.2824026688397458,-2.0466315346649417,0.15601006137235168,-0.04495982206043718,0.43443727348743955,0.7878925345135341,0.1186374615353215,0.45268324062948717,-0.4002853862327234,0.17193524570018473,0.08069763370479004,0.0008376622078260426,0.002655079560246595,3.968466281890869
26,26,1,Interior (6-DOF Spread),success,none,0.2274854534353155,-0.2163277265905812,0.20721387237228,-0.0300722814355143,0.0673827979488134,-0.380020101621836,0.9220303350721072,-0.7873487108240789,0.0331793355098417,-0.3341043645488533,0.4025014372100679,-0.1074279283538968,0.22736245784376408,-0.21620431118542688,0.2073254416402766,-0.030095615772402575,0.06732631190480472,-0.3800244114082949,0.9220319237262645,0.20689847590494356,0.007023127692178747,0.0004742725672412837,0.001506074218390042,3.860328197479248
26,26,2,Interior (6-DOF Spread),success,none,0.2274854534353155,-0.2163277265905812,0.20721387237228,-0.0300722814355143,0.0673827979488134,-0.380020101621836,0.9220303350721072,-0.7873487108240789,0.0331793355098417,-0.3341043645488533,0.4025014372100679,-0.1074279283538968,0.2273618703644923,-0.21620366046759595,0.2073259977887817,-0.030095996049453348,0.06732614072071193,-0.38002434815248637,0.9220319498849939,0.20793577684554798,0.00705744933642179,0.0004765175830567153,0.0015136505043196959,3.767407178878784
26,26,3,Interior (6-DOF Spread),success,none,0.2274854534353155,-0.2163277265905812,0.20721387237228,-0.0300722814355143,0.0673827979488134,-0.380020101621836,0.9220303350721072,-0.7873487108240789,0.0331793355098417,-0.3341043645488533,0.4025014372100679,-0.1074279283538968,0.2273546724112433,-0.21619643437958708,0.20733252053819906,-0.03009737697252057,0.06732284150247349,-0.3800245953881257,0.9220320438094861,0.22004251453084225,0.007468412093018935,0.0005042655638610227,0.0016017915330081502,4.004361152648926
27,27,1,Interior (6-DOF Spread),failed,safety_block_jump,0.0370369529355314,-0.1231727422578807,0.2410745391492764,0.7661903683109286,-0.6297353941178983,-0.062728214894784,0.1115832602089253,-1.3702614102206223,-1.1478906233378945,0.2087756354511474,0.8946880261313506,2.888665234681416,,,,,,,,,,,,
27,27,2,Interior (6-DOF Spread),failed,safety_block_jump,0.0370369529355314,-0.1231727422578807,0.2410745391492764,0.7661903683109286,-0.6297353941178983,-0.062728214894784,0.1115832602089253,-1.3702614102206223,-1.1478906233378945,0.2087756354511474,0.8946880261313506,2.888665234681416,,,,,,,,,,,,
27,27,3,Interior (6-DOF Spread),failed,safety_block_jump,0.0370369529355314,-0.1231727422578807,0.2410745391492764,0.7661903683109286,-0.6297353941178983,-0.062728214894784,0.1115832602089253,-1.3702614102206223,-1.1478906233378945,0.2087756354511474,0.8946880261313506,2.888665234681416,,,,,,,,,,,,
28,28,1,Boundary (Absolute Extreme),success,none,-0.2947983774182762,0.0747375331758717,0.3190187413818793,0.0910699717541841,0.960827900765466,-0.0656670817323857,-0.2533847661799577,-0.2389505791549622,-0.9851105593232627,-1.3083187645488532,-0.3532473579348119,0.1971141111242813,-0.29434524455537614,0.07462708437301684,0.3196889170748445,0.09085029497453162,0.9604175108669281,-0.06542076080305241,-0.2550775426790147,0.8164948186813127,0.20314872433165546,0.0007171563241423484,0.00257554304981467,3.604306697845459
28,28,2,Boundary (Absolute Extreme),success,none,-0.2947983774182762,0.0747375331758717,0.3190187413818793,0.0910699717541841,0.960827900765466,-0.0656670817323857,-0.2533847661799577,-0.2389505791549622,-0.9851105593232627,-1.3083187645488532,-0.3532473579348119,0.1971141111242813,-0.29429376123515094,0.07461460629136793,0.31976475627890844,0.09082550845202299,0.960370818942665,-0.06539275473357875,-0.2552692789314462,0.9090031560974308,0.2261646945381778,0.0007983463725675877,0.0028673548300114553,5.34943699836731
28,28,3,Boundary (Absolute Extreme),success,none,-0.2947983774182762,0.0747375331758717,0.3190187413818793,0.0910699717541841,0.960827900765466,-0.0656670817323857,-0.2533847661799577,-0.2389505791549622,-0.9851105593232627,-1.3083187645488532,-0.3532473579348119,0.1971141111242813,-0.2942369001657382,0.07460075466634365,0.31984847404443445,0.09079801759042803,0.9603192258419221,-0.06536191447485065,-0.2554809672288763,1.0111485336473351,0.2515773337880248,0.0008880512961188469,0.0031895406218638974,3.453908681869507
29,29,1,Interior (6-DOF Spread),failed,safety_block_jump,-0.124403840947408,-0.0819646315954246,0.2614998794990162,-0.2647474137083967,0.9613485201638784,-0.061945965935796,0.0433650437301444,-2.600514002104907,-0.7679180581801444,-0.1884083645488532,1.0069257842083423,-2.998861573596709,,,,,,,,,,,,
29,29,2,Interior (6-DOF Spread),failed,safety_block_jump,-0.124403840947408,-0.0819646315954246,0.2614998794990162,-0.2647474137083967,0.9613485201638784,-0.061945965935796,0.0433650437301444,-2.600514002104907,-0.7679180581801444,-0.1884083645488532,1.0069257842083423,-2.998861573596709,,,,,,,,,,,,
29,29,3,Interior (6-DOF Spread),failed,safety_block_jump,-0.124403840947408,-0.0819646315954246,0.2614998794990162,-0.2647474137083967,0.9613485201638784,-0.061945965935796,0.0433650437301444,-2.600514002104907,-0.7679180581801444,-0.1884083645488532,1.0069257842083423,-2.998861573596709,,,,,,,,,,,,
30,30,1,Interior (6-DOF Spread),failed,safety_block_jump,0.0224483202333057,0.195699742227606,0.2661771878333047,0.7185373914162739,0.6825417085634901,-0.0865035063884894,-0.1017741449997231,1.517457422974097,-0.6069669836488231,-0.1540723645488531,0.7464206375432616,-2.874042230655653,,,,,,,,,,,,
30,30,2,Interior (6-DOF Spread),failed,safety_block_jump,0.0224483202333057,0.195699742227606,0.2661771878333047,0.7185373914162739,0.6825417085634901,-0.0865035063884894,-0.1017741449997231,1.517457422974097,-0.6069669836488231,-0.1540723645488531,0.7464206375432616,-2.874042230655653,,,,,,,,,,,,
30,30,3,Interior (6-DOF Spread),failed,safety_block_jump,0.0224483202333057,0.195699742227606,0.2661771878333047,0.7185373914162739,0.6825417085634901,-0.0865035063884894,-0.1017741449997231,1.517457422974097,-0.6069669836488231,-0.1540723645488531,0.7464206375432616,-2.874042230655653,,,,,,,,,,,,
31,31,1,Interior (6-DOF Spread),success,none,-0.0671067674165097,0.2716518805861629,0.3326221873166243,0.6078431034262894,0.6672936736061087,0.4253848980584646,0.0655255926043461,1.854166205914996,0.1826992257704727,-0.9168883645488533,0.2900453177360389,2.342205293420572,-0.06706791762014991,0.2715163871243463,0.33260713945960246,0.6077909599440895,0.6674052023270591,0.4252509274504397,0.0657426316750423,0.14175409296807104,0.03245423951050776,0.0007175699365556786,0.0022267908189569467,4.218525409698486
31,31,2,Interior (6-DOF Spread),success,none,-0.0671067674165097,0.2716518805861629,0.3326221873166243,0.6078431034262894,0.6672936736061087,0.4253848980584646,0.0655255926043461,1.854166205914996,0.1826992257704727,-0.9168883645488533,0.2900453177360389,2.342205293420572,-0.06706076372008793,0.2714939043353557,0.33260456421978213,0.6077829378822351,0.6674226335052654,0.4252292150141382,0.06578026605749757,0.16547933238286316,0.037892628127055634,0.0008367074358298421,0.002599507827263996,3.6565053462982178
31,31,3,Interior (6-DOF Spread),success,none,-0.0671067674165097,0.2716518805861629,0.3326221873166243,0.6078431034262894,0.6672936736061087,0.4253848980584646,0.0655255926043461,1.854166205914996,0.1826992257704727,-0.9168883645488533,0.2900453177360389,2.342205293420572,-0.06707654909213273,0.2715481111500659,0.33261065459067374,0.6078035815233248,0.6673784098341027,0.4252826179053338,0.0656929165307004,0.10869336117673667,0.0248958528319328,0.0005497252662749641,0.0017079029539662878,3.6534106731414795
32,32,1,Boundary (Absolute Extreme),success,none,0.328814932266524,-0.0249688685537551,0.2088783614982661,0.551636356001515,0.0334575256542281,-0.0691087946124421,0.8305431350758862,-0.0786495868209127,0.1717252888706095,-0.572600364548853,0.5330815526381636,1.167359312954756,0.32858496165097295,-0.024951142958381876,0.20903976100042154,0.5516364169608703,0.03337507079669829,-0.06905536263672517,0.8305508563736472,0.28151461781632897,0.0112937531666476,0.0006596918175496153,0.002192106365284617,4.306422710418701
32,32,2,Boundary (Absolute Extreme),success,none,0.328814932266524,-0.0249688685537551,0.2088783614982661,0.551636356001515,0.0334575256542281,-0.0691087946124421,0.8305431350758862,-0.0786495868209127,0.1717252888706095,-0.572600364548853,0.5330815526381636,1.167359312954756,0.32856002079643226,-0.02494877843018977,0.20905725484304052,0.5516367504437725,0.03336648201629709,-0.06904900542793409,0.8305515085093184,0.31206778022373016,0.012518287631268452,0.0007308658242792865,0.0024300891549270463,3.604348659515381
32,32,3,Boundary (Absolute Extreme),success,none,0.328814932266524,-0.0249688685537551,0.2088783614982661,0.551636356001515,0.0334575256542281,-0.0691087946124421,0.8305431350758862,-0.0786495868209127,0.1717252888706095,-0.572600364548853,0.5330815526381636,1.167359312954756,0.32855924829468813,-0.02494871754812246,0.2090577960441769,0.5516367516282248,0.03336620622060013,-0.06904882431036535,0.8305515338597967,0.31301295939301105,0.01255620865428551,0.0007330797982057601,0.00243745050019766,3.5112109184265137
33,33,1,Interior (6-DOF Spread),failed,safety_block_jump,0.014517509854246,0.000764641741859,0.3164509374887018,0.1957988014852144,-0.1796630546012106,0.9581937479497844,-0.1060601599954524,-2.846717918560552,-0.8383341532875974,-1.3686387645488531,1.863120821990219,-0.4222643466313371,,,,,,,,,,,,
33,33,2,Interior (6-DOF Spread),failed,safety_block_jump,0.014517509854246,0.000764641741859,0.3164509374887018,0.1957988014852144,-0.1796630546012106,0.9581937479497844,-0.1060601599954524,-2.846717918560552,-0.8383341532875974,-1.3686387645488531,1.863120821990219,-0.4222643466313371,,,,,,,,,,,,
33,33,3,Interior (6-DOF Spread),failed,safety_block_jump,0.014517509854246,0.000764641741859,0.3164509374887018,0.1957988014852144,-0.1796630546012106,0.9581937479497844,-0.1060601599954524,-2.846717918560552,-0.8383341532875974,-1.3686387645488531,1.863120821990219,-0.4222643466313371,,,,,,,,,,,,
34,34,1,Interior (6-DOF Spread),success,none,-0.011941779710973,-0.2817035959550079,0.272763824465695,0.5882333471630353,-0.575303741571585,0.4591911839131443,-0.3348889231305684,-1.6555818367673518,-0.0600991281389924,-0.4389683645488531,0.3435438600100917,-1.93725375992278,-0.011923877654985895,-0.28149008945021103,0.2727846022198653,0.5881854599133097,-0.5753595775512613,0.4591235168876135,-0.3349698755221906,0.21526083310135716,0.014738702650507335,0.0006737568040668315,0.0020634367319909874,4.554419755935669
34,34,2,Interior (6-DOF Spread),success,none,-0.011941779710973,-0.2817035959550079,0.272763824465695,0.5882333471630353,-0.575303741571585,0.4591911839131443,-0.3348889231305684,-1.6555818367673518,-0.0600991281389924,-0.4389683645488531,0.3435438600100917,-1.93725375992278,-0.011925425321732125,-0.28151116706627544,0.2727825688724806,0.5881901522350885,-0.5753534912910327,0.45913050217751383,-0.3349625155791422,0.1940301421222687,0.013284200620834075,0.0006068470183562214,0.0018599305444943976,3.9049782752990723
34,34,3,Interior (6-DOF Spread),success,none,-0.011941779710973,-0.2817035959550079,0.272763824465695,0.5882333471630353,-0.575303741571585,0.4591911839131443,-0.3348889231305684,-1.6555818367673518,-0.0600991281389924,-0.4389683645488531,0.3435438600100917,-1.93725375992278,-0.011925374321906743,-0.28151056698433674,0.27278262691177796,0.5881900175389543,-0.5753536464027288,0.45913031295839013,-0.3349627450349355,0.19463517741527644,0.0133256212931143,0.0006087392011351556,0.0018657299104194148,3.5029444694519043
35,35,1,Interior (6-DOF Spread),success,none,-0.2087689242406136,0.0194453701275966,0.3918832401104264,0.1119407497550342,0.8843379040898912,0.1704754955067547,-0.4199450504124384,-0.0878534715482266,-1.0322070385185074,-0.7368563645488532,-0.476403185863651,-0.3386225188873313,-0.2082730054189237,0.019401543652051337,0.39218780987840945,0.1121202879288595,0.8837504294569557,0.1704289742279434,-0.4211510230463736,0.5836257201616954,0.1551814658337713,0.0005419508495971614,0.0018918106318704445,4.35588526725769
35,35,2,Interior (6-DOF Spread),success,none,-0.2087689242406136,0.0194453701275966,0.3918832401104264,0.1119407497550342,0.8843379040898912,0.1704754955067547,-0.4199450504124384,-0.0878534715482266,-1.0322070385185074,-0.7368563645488532,-0.476403185863651,-0.3386225188873313,-0.20801498216569303,0.019378962762201996,0.39234563543378764,0.1122141598020195,0.8834443641010403,0.17040533606140387,-0.4217772626871147,0.8869318043573221,0.23582186762415172,0.0008231736099844928,0.0028749169749391346,4.054100275039673
35,35,3,Interior (6-DOF Spread),success,none,-0.2087689242406136,0.0194453701275966,0.3918832401104264,0.1119407497550342,0.8843379040898912,0.1704754955067547,-0.4199450504124384,-0.0878534715482266,-1.0322070385185074,-0.7368563645488532,-0.476403185863651,-0.3386225188873313,-0.2082151625212807,0.019396594686794243,0.3922232214315481,0.1121416750679112,0.8836817697204215,0.1704240185004235,-0.4212913819376256,0.6516274887814713,0.17326236850355684,0.0006047997623329166,0.002112250795130045,4.360832452774048
36,36,1,Boundary (Absolute Extreme),success,none,-0.1245575151040451,-0.3026993922796576,0.2778607105786991,-0.5055088961299001,0.8299024364604176,0.1013360802166263,-0.2131987353079791,1.1470010626997142,-1.1068907757536848,-1.1030451645488533,-0.6775140325346809,-0.4076806433323825,-0.12440389218323994,-0.30235944666592346,0.27863011457753845,-0.5050467922224782,0.8299098536648114,0.10026321904346504,-0.21476652291006276,0.8550704857049845,0.22404291864062426,0.000782209600011341,0.0026666760314173533,4.761993408203125
36,36,2,Boundary (Absolute Extreme),success,none,-0.1245575151040451,-0.3026993922796576,0.2778607105786991,-0.5055088961299001,0.8299024364604176,0.1013360802166263,-0.2131987353079791,1.1470010626997142,-1.1068907757536848,-1.1030451645488533,-0.6775140325346809,-0.4076806433323825,-0.12440602801785892,-0.3023635993432161,0.2786205365983762,-0.5050522690135422,0.8299099626233062,0.100276645361755,-0.21474695317477274,0.8444174403833294,0.22125214351919414,0.0007723156807355136,0.002633459564376631,4.355381488800049
36,36,3,Boundary (Absolute Extreme),success,none,-0.1245575151040451,-0.3026993922796576,0.2778607105786991,-0.5055088961299001,0.8299024364604176,0.1013360802166263,-0.2131987353079791,1.1470010626997142,-1.1068907757536848,-1.1030451645488533,-0.6775140325346809,-0.4076806433323825,-0.124413050985036,-0.3023791667615205,0.2785854515618508,-0.5050734087084247,0.8299096830535383,0.1003256042090334,-0.2146754362513814,0.8053966456392665,0.21102931503174388,0.0007366312774765959,0.002511782078412619,4.24957537651062
37,37,1,Interior (6-DOF Spread),failed,safety_block_jump,-0.2558477278562434,0.1459645006261199,0.288074550286127,0.2217966015789443,0.9448601973897872,-0.0194727357671416,-0.2401380592040893,2.6426323308882145,0.1525208992958497,-0.4361843645488532,-0.1776847947171047,-2.980846410698,,,,,,,,,,,,
37,37,2,Interior (6-DOF Spread),failed,safety_block_jump,-0.2558477278562434,0.1459645006261199,0.288074550286127,0.2217966015789443,0.9448601973897872,-0.0194727357671416,-0.2401380592040893,2.6426323308882145,0.1525208992958497,-0.4361843645488532,-0.1776847947171047,-2.980846410698,,,,,,,,,,,,
37,37,3,Interior (6-DOF Spread),failed,safety_block_jump,-0.2558477278562434,0.1459645006261199,0.288074550286127,0.2217966015789443,0.9448601973897872,-0.0194727357671416,-0.2401380592040893,2.6426323308882145,0.1525208992958497,-0.4361843645488532,-0.1776847947171047,-2.980846410698,,,,,,,,,,,,
38,38,1,Interior (6-DOF Spread),failed,safety_block_jump,0.1269322271604716,0.1390544228473168,0.3064122022994214,0.8434612534014622,0.304510842917689,0.4425390283080385,-0.0023385850786113,0.880088405607613,-0.5732830939978553,0.5163148354511473,-0.7880048994353767,2.729960228192788,,,,,,,,,,,,
38,38,2,Interior (6-DOF Spread),failed,safety_block_jump,0.1269322271604716,0.1390544228473168,0.3064122022994214,0.8434612534014622,0.304510842917689,0.4425390283080385,-0.0023385850786113,0.880088405607613,-0.5732830939978553,0.5163148354511473,-0.7880048994353767,2.729960228192788,,,,,,,,,,,,
38,38,3,Interior (6-DOF Spread),failed,safety_block_jump,0.1269322271604716,0.1390544228473168,0.3064122022994214,0.8434612534014622,0.304510842917689,0.4425390283080385,-0.0023385850786113,0.880088405607613,-0.5732830939978553,0.5163148354511473,-0.7880048994353767,2.729960228192788,,,,,,,,,,,,
39,39,1,Interior (6-DOF Spread),success,none,0.1606840182636757,0.2517531925438398,0.2171178677643421,0.5202825638097505,0.439816565946737,0.2585417895428269,0.6848529660988298,1.0373214363658914,0.3852598110471072,-1.3398707645488532,1.294507744106004,1.4946347722813056,0.1606096468837086,0.25162724668901904,0.21729401670546014,0.5203881461556071,0.4396853213817449,0.25868959277844583,0.6848012047961686,0.2289583148997946,0.026355509787014807,0.0009797367105187748,0.0030141621866245595,5.705573081970215
39,39,2,Interior (6-DOF Spread),success,none,0.1606840182636757,0.2517531925438398,0.2171178677643421,0.5202825638097505,0.439816565946737,0.2585417895428269,0.6848529660988298,1.0373214363658914,0.3852598110471072,-1.3398707645488532,1.294507744106004,1.4946347722813056,0.16060918622789813,0.2516264862298114,0.21729507662543573,0.5203885662690109,0.43968446950252427,0.2586906177175876,0.6848010453260568,0.23034171147100305,0.026512927023921894,0.0009855614941948088,0.003032478286612379,4.207268714904785
39,39,3,Interior (6-DOF Spread),success,none,0.1606840182636757,0.2517531925438398,0.2171178677643421,0.5202825638097505,0.439816565946737,0.2585417895428269,0.6848529660988298,1.0373214363658914,0.3852598110471072,-1.3398707645488532,1.294507744106004,1.4946347722813056,0.16061419590664872,0.25163496866546253,0.21728323637329408,0.5203814772597998,0.43969330539001344,0.2586806639095459,0.6848045191435504,0.214939116463435,0.024739633688061303,0.0009196431819194495,0.00282965395885934,4.3046417236328125
