GyaraManasa17/my_repository/metric_ws/40_poses/d1/hardware_validation_raw_data_20260331_043807.csv
pose_id,iteration,test_type,status,failure_type,target_x,target_y,target_z,target_qx,target_qy,target_qz,target_qw,cmd_j1,cmd_j2,cmd_j3,cmd_j4,cmd_j5,actual_x,actual_y,actual_z,actual_qx,actual_qy,actual_qz,actual_qw,actual_j1,actual_j2,actual_j3,actual_j4,actual_j5,cartesian_error_mm,orientation_error_deg,mean_joint_error_rad
0,1,Interior (FPS Spread),success,none,0.0703740127290666,-0.3418925132169593,0.2823994981078296,0.6576101994530082,-0.6509648148040574,-0.0325189776359505,0.3778043826585479,-1.4016890749997597,0.7511325768412194,-1.3915037391587617,0.1746076692612181,2.493682782314428,0.07037424385031814,-0.34189241990640923,0.28239955963909896,0.6576102350104165,-0.6509645524249897,-0.03251933969291736,0.3778047416875735,-1.4016883728639093,0.75113169971818,-1.39150289130234,0.17460793280631678,2.493681533209612,0.0002567294076950358,6.584582221654473e-05,7.879530452448158e-07
0,2,Interior (FPS Spread),success,none,0.0703740127290666,-0.3418925132169593,0.2823994981078296,0.6576101994530082,-0.6509648148040574,-0.0325189776359505,0.3778043826585479,-1.4016890749997597,0.7511325768412194,-1.3915037391587617,0.1746076692612181,2.493682782314428,0.07037402930083095,-0.34189250665865856,0.28239950230381655,0.6576102021700769,-0.6509647959725929,-0.03251900389067086,0.3778044081163552,-1.4016890247196572,0.7511325142035445,-1.3915036779725545,0.17460768838786844,2.493682692897233,1.8309587342691654e-05,4.829673078902933e-06,5.652956597823611e-08
0,3,Interior (FPS Spread),success,none,0.0703740127290666,-0.3418925132169593,0.2823994981078296,0.6576101994530082,-0.6509648148040574,-0.0325189776359505,0.3778043826585479,-1.4016890749997597,0.7511325768412194,-1.3915037391587617,0.1746076692612181,2.493682782314428,0.07037404392493313,-0.34189250074658956,0.2823995062104118,0.6576102044085188,-0.6509647793721393,-0.03251902677931737,0.377804430852914,-1.4016889802884804,0.7511324586955996,-1.3915036243547418,0.17460770504191878,2.4936826138517,3.455928310068547e-05,8.706816964856284e-06,1.0638086954672943e-07
1,1,Interior (FPS Spread),failed,safety_block_orientation,-0.1855062949179293,-0.3159598358610502,0.0315362689699018,-0.4942645303244692,0.8414301073793071,-0.2092628069654345,-0.0625062083294668,-2.129467097336361,1.3356084840810842,-0.5889017959554412,-1.064058363789416,-2.830989944490232,,,,,,,,,,,,,,,
1,2,Interior (FPS Spread),failed,safety_block_orientation,-0.1855062949179293,-0.3159598358610502,0.0315362689699018,-0.4942645303244692,0.8414301073793071,-0.2092628069654345,-0.0625062083294668,-2.129467097336361,1.3356084840810842,-0.5889017959554412,-1.064058363789416,-2.830989944490232,,,,,,,,,,,,,,,
1,3,Interior (FPS Spread),failed,safety_block_orientation,-0.1855062949179293,-0.3159598358610502,0.0315362689699018,-0.4942645303244692,0.8414301073793071,-0.2092628069654345,-0.0625062083294668,-2.129467097336361,1.3356084840810842,-0.5889017959554412,-1.064058363789416,-2.830989944490232,,,,,,,,,,,,,,,
2,1,Interior (FPS Spread),success,none,0.3113708514450665,-0.2322408521522777,0.0303383258744527,-0.7879796040372585,0.217927924832531,-0.2514559087510568,0.5180400458976621,-0.6597866276010533,1.1947732878852806,-0.4825430322399457,-0.8835607059061689,-1.9196422066456456,0.327124972311835,-0.21119861659108236,0.08187227650821265,-0.7999595672055585,0.1515827281969688,-0.2847866044634381,0.5059485717608508,-0.5904488432046788,1.0590525016035945,-0.48254318629196463,-0.8835608668102551,-1.9196409031788109,57.850808720539,8.730907850965599,0.04101203782020009
2,2,Interior (FPS Spread),success,none,0.3113708514450665,-0.2322408521522777,0.0303383258744527,-0.7879796040372585,0.217927924832531,-0.2514559087510568,0.5180400458976621,-0.6597866276010533,1.1947732878852806,-0.4825430322399457,-0.8835607059061689,-1.9196422066456456,0.3270446325951981,-0.2113197069824074,0.08186026448298084,-0.7999298432884611,0.15174510111617226,-0.28487167248327844,0.5058990020946085,-0.5908319067643841,1.0590842573738426,-0.4825432480863183,-0.8835609905238232,-1.9196410516995488,57.77431859175796,8.719345077712811,0.04092908135164618
2,3,Interior (FPS Spread),success,none,0.3113708514450665,-0.2322408521522777,0.0303383258744527,-0.7879796040372585,0.217927924832531,-0.2514559087510568,0.5180400458976621,-0.6597866276010533,1.1947732878852806,-0.4825430322399457,-0.8835607059061689,-1.9196422066456456,0.32707929719811435,-0.21126983390708584,0.08184348829763391,-0.7999406567160571,0.1516939197267527,-0.28481442308322263,0.5059294860495757,-0.590671823136185,1.0591277311577285,-0.4825427439544381,-0.8835599699443183,-1.919639813960286,57.786855170141365,8.721209409529642,0.040952755625027634
3,1,Interior (FPS Spread),failed,safety_block_orientation,-0.2457985526143665,-0.0629189039374422,0.0596320917969034,-0.2239632421597494,0.7417393032536173,0.6252348526772694,0.0935128395877547,-2.90221018784481,-0.0815874778202139,0.6108020128564333,-0.0971092090111895,1.7936207096093386,,,,,,,,,,,,,,,
3,2,Interior (FPS Spread),failed,safety_block_orientation,-0.2457985526143665,-0.0629189039374422,0.0596320917969034,-0.2239632421597494,0.7417393032536173,0.6252348526772694,0.0935128395877547,-2.90221018784481,-0.0815874778202139,0.6108020128564333,-0.0971092090111895,1.7936207096093386,,,,,,,,,,,,,,,
3,3,Interior (FPS Spread),failed,safety_block_orientation,-0.2457985526143665,-0.0629189039374422,0.0596320917969034,-0.2239632421597494,0.7417393032536173,0.6252348526772694,0.0935128395877547,-2.90221018784481,-0.0815874778202139,0.6108020128564333,-0.0971092090111895,1.7936207096093386,,,,,,,,,,,,,,,
4,1,Boundary (Edge Case),success,none,0.0258082120107057,-0.400868627340903,0.0436357942771688,-0.0746795508020729,0.124043806040167,-0.683702700657985,0.7152529035159854,-1.536364211712498,1.0988283626835158,-0.7646847430260516,-0.258744033897182,-0.2809155045851623,0.025808251279732602,-0.40086862377495064,0.04363581936576396,-0.07467955190690898,0.12404379476887743,-0.6837026669331044,0.7152529375926256,-1.5363641135626982,1.098828228713768,-0.7646846747248994,-0.25874397238368646,-0.28091548663683885,4.673553356043857e-05,5.915117333884393e-06,7.597650374391307e-08
4,2,Boundary (Edge Case),success,none,0.0258082120107057,-0.400868627340903,0.0436357942771688,-0.0746795508020729,0.124043806040167,-0.683702700657985,0.7152529035159854,-1.536364211712498,1.0988283626835158,-0.7646847430260516,-0.258744033897182,-0.2809155045851623,0.025808319097419034,-0.4008686176512266,0.04363586297718626,-0.07467955421985426,0.12404377490605493,-0.6837026087622403,0.7152529964007747,-1.5363639440607755,1.0988279971710384,-0.7646845572659494,-0.2587438666222523,-0.28091545566466125,0.00012759759558931188,1.5649929441225527e-05,2.0702394657456935e-07
4,3,Boundary (Edge Case),success,none,0.0258082120107057,-0.400868627340903,0.0436357942771688,-0.0746795508020729,0.124043806040167,-0.683702700657985,0.7152529035159854,-1.536364211712498,1.0988283626835158,-0.7646847430260516,-0.258744033897182,-0.2809155045851623,0.025808234251807737,-0.40086862531271683,0.043635808412760865,-0.07467955133687171,0.12404379976312341,-0.6837026815375964,0.7152529228257299,-1.5363641561219077,1.0988282868679184,-0.764684704222155,-0.25874399895568506,-0.28091549443884,2.643095007715817e-05,4.182619578303746e-06,4.305958071215699e-08
5,1,Interior (FPS Spread),success,none,-0.0089333615719451,-0.0263156528336968,0.4412095565696542,-0.4309655856354565,-0.4846908006794607,-0.5721694504988969,0.5019617631357807,-2.242770109010875,-0.6456721050248411,-0.4241564437475074,-0.2994463491692614,0.6554070940500205,-0.008933388299848001,-0.026315730560508982,0.4412095251517145,-0.43096526077954334,-0.48469087472034317,-0.5721694647624259,0.5019619542928807,-2.2427692920802755,-0.6456722344013607,-0.42415617982952636,-0.2994459850332767,0.655406855447354,8.79938921741561e-05,4.403353617221511e-05,3.625927502914905e-07
5,2,Interior (FPS Spread),success,none,-0.0089333615719451,-0.0263156528336968,0.4412095565696542,-0.4309655856354565,-0.4846908006794607,-0.5721694504988969,0.5019617631357807,-2.242770109010875,-0.6456721050248411,-0.4241564437475074,-0.2994463491692614,0.6554070940500205,-0.008933388315034478,-0.026315730517290303,0.4412095251957989,-0.4309652612058055,-0.48469087457000887,-0.572169464825678,0.5019619539999717,-2.2427692932338346,-0.6456722339123226,-0.4241561802959781,-0.2994459855926415,0.655406855663818,8.794459804213798e-05,4.3867684222547034e-05,3.620157747685759e-07
5,3,Interior (FPS Spread),success,none,-0.0089333615719451,-0.0263156528336968,0.4412095565696542,-0.4309655856354565,-0.4846908006794607,-0.5721694504988969,0.5019617631357807,-2.242770109010875,-0.6456721050248411,-0.4241564437475074,-0.2994463491692614,0.6554070940500205,-0.008933364845046417,-0.02631566232564339,0.4412095527360495,-0.43096554601434756,-0.48469080969374245,-0.5721694522696138,0.501961786430471,-2.242770009459615,-0.6456721207581602,-0.42415641155441675,-0.29944630476456346,0.6554070649672381,1.0747407472701545e-05,5.915117333884393e-06,4.419303003544428e-08
6,1,Interior (FPS Spread),success,none,-0.0089761634591021,0.1663430832912849,0.4323381459748311,-0.2321449844952735,-0.7124178476895462,-0.0811702552423043,0.6572525436474043,-1.4453566232060244,-0.7142919135122692,-1.417018387402078,0.3327043720653335,0.9955905352613964,-0.008976172390016654,0.16634306357191847,0.43233815248176344,-0.23214494891905446,-0.7124178468452883,-0.08117027792694316,0.6572525543266879,-1.4453565556417656,-0.7142919269763128,-1.4170183074484286,0.33270438909892014,0.9955904887072313,2.2604309654611915e-05,4.829673078902933e-06,4.491394074435107e-08
6,2,Interior (FPS Spread),success,none,-0.0089761634591021,0.1663430832912849,0.4323381459748311,-0.2321449844952735,-0.7124178476895462,-0.0811702552423043,0.6572525436474043,-1.4453566232060244,-0.7142919135122692,-1.417018387402078,0.3327043720653335,0.9955905352613964,-0.008976172875337668,0.16634306248628564,0.432338152840723,-0.23214494696896507,-0.7124178467956075,-0.08117027917969129,0.6572525549146064,-1.4453565519597253,-0.7142919277048838,-1.4170183030583985,0.33270439003107666,0.995590486163664,2.3846466359354304e-05,4.829673078902933e-06,4.736921378478698e-08
6,3,Interior (FPS Spread),success,none,-0.0089761634591021,0.1663430832912849,0.4323381459748311,-0.2321449844952735,-0.7124178476895462,-0.0811702552423043,0.6572525436474043,-1.4453566232060244,-0.7142919135122692,-1.417018387402078,0.3327043720653335,0.9955905352613964,-0.008976171938526702,0.1663430645737079,0.43233815215107163,-0.2321449507273815,-0.7124178468890193,-0.08117027677624383,0.6572525537826867,-1.4453565590610427,-0.7142919263011446,-1.4170183114944424,0.3327043882264819,0.9955904910551933,2.1456800246996316e-05,4.829673078902933e-06,4.2641768893680876e-08
7,1,Interior (FPS Spread),success,none,0.2755619652393065,-0.2031791648413179,0.2957825045130071,-0.6662990691985489,-0.0771438363237119,-0.4616309069372299,0.5805095043689793,-0.6567416846490688,0.7470654134555357,-1.1294912926044824,-0.3996221960686619,-1.429106702837922,0.2755619943716964,-0.20317909202474224,0.2957825494475096,-0.6662989188504591,-0.07714392527476234,-0.46163075704372186,0.5805097843130219,-0.6567414579084073,0.7470648106789387,-1.1294907987710563,-0.3996218163711118,-1.4291062097680127,9.038838059644709e-05,4.161653934608438e-05,4.3922362880088883e-07
7,2,Interior (FPS Spread),success,none,0.2755619652393065,-0.2031791648413179,0.2957825045130071,-0.6662990691985489,-0.0771438363237119,-0.4616309069372299,0.5805095043689793,-0.6567416846490688,0.7470654134555357,-1.1294912926044824,-0.3996221960686619,-1.429106702837922,0.27556196906887365,-0.20317915553606344,0.2957825101555519,-0.666299049861953,-0.0771438475246287,-0.4616308874970857,0.5805095405338386,-0.6567416554779969,0.7470653360142047,-1.1294912287130103,-0.39962214703554094,-1.4291066394116332,1.1536535753680485e-05,5.915117333884393e-06,5.659265697177673e-08
7,3,Interior (FPS Spread),success,none,0.2755619652393065,-0.2031791648413179,0.2957825045130071,-0.6662990691985489,-0.0771438363237119,-0.4616309069372299,0.5805095043689793,-0.6567416846490688,0.7470654134555357,-1.1294912926044824,-0.3996221960686619,-1.429106702837922,0.2755619710151872,-0.20317915064555955,0.295782513183611,-0.6662990397700668,-0.07714385351517189,-0.46163087745366654,0.5805095593077471,-0.6567416402685008,0.7470652955538757,-1.1294911956073876,-0.39962212156936405,-1.429106606314918,1.760851285948457e-05,8.365239156607494e-06,8.606032493307936e-08
8,1,Interior (FPS Spread),failed,safety_block_orientation,0.0984234212598496,-0.1903939348185463,0.3936310340458254,0.6884967369769971,-0.4855081466392963,0.4205168679915689,0.3367783342993792,1.9969044983780009,-1.191336281794985,-0.6371054124982075,-0.1792581618272442,-0.1313347828312765,,,,,,,,,,,,,,,
8,2,Interior (FPS Spread),failed,safety_block_orientation,0.0984234212598496,-0.1903939348185463,0.3936310340458254,0.6884967369769971,-0.4855081466392963,0.4205168679915689,0.3367783342993792,1.9969044983780009,-1.191336281794985,-0.6371054124982075,-0.1792581618272442,-0.1313347828312765,,,,,,,,,,,,,,,
8,3,Interior (FPS Spread),failed,safety_block_orientation,0.0984234212598496,-0.1903939348185463,0.3936310340458254,0.6884967369769971,-0.4855081466392963,0.4205168679915689,0.3367783342993792,1.9969044983780009,-1.191336281794985,-0.6371054124982075,-0.1792581618272442,-0.1313347828312765,,,,,,,,,,,,,,,
9,1,Boundary (Edge Case),success,none,0.1662486782782892,-0.3817003164576161,0.0624353833156495,0.1951958381789099,-0.0924155737788205,-0.5518499125426147,0.8054934019018857,-1.1867524081783436,1.2321957515275783,-1.181134340210532,0.0155451697040276,0.430562990362032,0.16624869666974557,-0.3817003072504686,0.06243539942355552,0.19519583276511254,-0.09241556463241937,-0.5518498931851931,0.8054934175251194,-1.186752358379976,1.232195658054087,-1.1811342774924214,0.015545198770552209,0.43056297233871554,2.6124353930523052e-05,2.9575586669421963e-06,5.061596216153486e-08
9,2,Boundary (Edge Case),success,none,0.1662486782782892,-0.3817003164576161,0.0624353833156495,0.1951958381789099,-0.0924155737788205,-0.5518499125426147,0.8054934019018857,-1.1867524081783436,1.2321957515275783,-1.181134340210532,0.0155451697040276,0.430562990362032,0.1662488219089352,-0.3817002446496882,0.06243551109421094,0.1951957937458466,-0.09241550534373745,-0.5518497608182596,0.8054935244685831,-1.186752019358922,1.232195020385114,-1.1811338543810959,0.015545394292314354,0.4305628493223157,0.0002052157443697919,2.426880686682527e-05,3.942838650367736e-07
9,3,Boundary (Edge Case),success,none,0.1662486782782892,-0.3817003164576161,0.0624353833156495,0.1951958381789099,-0.0924155737788205,-0.5518499125426147,0.8054934019018857,-1.1867524081783436,1.2321957515275783,-1.181134340210532,0.0155451697040276,0.430562990362032,0.1662488220660389,-0.3817002445711596,0.06243551123429323,0.1951957936969108,-0.09241550526936555,-0.5518497606522144,0.8054935246027336,-1.1867520189336438,1.2321950195851952,-1.181133853850324,0.015545394537592256,0.4305628491680212,0.00020544040255458907,2.426880686682527e-05,3.9471497330668957e-07
10,1,Interior (FPS Spread),success,none,-0.0482413014865758,-0.1289557948314589,0.1994163980260375,-0.1724022893573693,0.5273205502544044,-0.649718933816961,0.5196881708712267,-2.00781777700138,-0.9249614811749548,0.0471483884335093,1.2078293846543142,-1.1523418711033613,-0.048241292585075,-0.12895580004652987,0.19941639902371008,-0.1724023019630477,0.5273205284600162,-0.649718928315429,0.519688195681932,-2.00781770483144,-0.9249614838863729,0.047148397633174306,1.2078293665708293,-1.1523418297449706,1.0364797753604537e-05,4.182619578303746e-06,2.870457970899354e-08
10,2,Interior (FPS Spread),success,none,-0.0482413014865758,-0.1289557948314589,0.1994163980260375,-0.1724022893573693,0.5273205502544044,-0.649718933816961,0.5196881708712267,-2.00781777700138,-0.9249614811749548,0.0471483884335093,1.2078293846543142,-1.1523418711033613,-0.0482412905122051,-0.12895580126450562,0.19941639926846524,-0.17240230491842937,0.5273205233632722,-0.6497189270517076,0.5196882014530203,-2.0078176880148373,-0.9249614845024172,0.047148399743373454,1.2078293623118708,-1.1523418200871354,1.2781413432367575e-05,5.915117333884393e-06,3.539650770267855e-08
10,3,Interior (FPS Spread),success,none,-0.0482413014865758,-0.1289557948314589,0.1994163980260375,-0.1724022893573693,0.5273205502544044,-0.649718933816961,0.5196881708712267,-2.00781777700138,-0.9249614811749548,0.0471483884335093,1.2078293846543142,-1.1523418711033613,-0.048241291549916084,-0.12895580065575019,0.19941639914638823,-0.17240230343874627,0.5273205259128008,-0.6497189276850351,0.5196881985651296,-2.00781769643057,-0.9249614841878944,0.047148398683550495,1.2078293644404292,-1.1523418249171555,1.1572154563043334e-05,5.399738656763832e-06,3.204677630902486e-08
11,1,Boundary (Edge Case),success,none,0.2749613790136415,-0.2986311643081956,0.0302889017753482,0.8774646475360571,-0.3926530205523733,0.1244979831062923,-0.2457227095284155,-0.8488283763515687,1.2054576185212351,-0.7314990246117782,-0.4994789935208128,-2.5839737343380453,0.293606417358955,-0.28259695804013607,0.05510348059447923,0.8916549304755014,-0.35717790221383,0.14439771265439696,-0.23774930432923402,-0.7871538063210158,1.1431963899162363,-0.7314987281529921,-0.4994786203147983,-2.5839711889253016,34.935605727048106,5.020797050555189,0.024787802742619203
11,2,Boundary (Edge Case),success,none,0.2749613790136415,-0.2986311643081956,0.0302889017753482,0.8774646475360571,-0.3926530205523733,0.1244979831062923,-0.2457227095284155,-0.8488283763515687,1.2054576185212351,-0.7314990246117782,-0.4994789935208128,-2.5839737343380453,0.29357954341560877,-0.28262369125391434,0.05510074473580626,0.8916377097745016,-0.35722118476675246,0.14440598160833942,-0.23774383722328368,-0.7872488203630577,1.1432031671075198,-0.7314986580709755,-0.4994785386128199,-2.5839710134892053,34.90705932009533,5.016686503852732,0.02476750993997241
11,3,Boundary (Edge Case),success,none,0.2749613790136415,-0.2986311643081956,0.0302889017753482,0.8774646475360571,-0.3926530205523733,0.1244979831062923,-0.2457227095284155,-0.8488283763515687,1.2054576185212351,-0.7314990246117782,-0.4994789935208128,-2.5839737343380453,0.2937042615800259,-0.2824996896819425,0.055119954104068745,0.8917182247616366,-0.35701816704951184,0.14437482126689033,-0.23776573977071558,-0.7868079861630275,1.1431557083919384,-0.7314992606250038,-0.49947923957618595,-2.5839725222564063,35.0442759986047,5.036452526253618,0.024864798893615158
12,1,Interior (FPS Spread),success,none,0.2571394885015159,0.3175095565761279,0.0482680879389564,0.3181063144125822,0.0743113175267167,0.4388626984417595,0.8370697299118539,0.9133196185784938,1.2859275266189627,-0.8808937083280128,-0.5604613405444574,0.6498577478303567,0.264433665233907,0.311926000115031,0.06285489572431374,0.32587174005561514,0.054960295475917915,0.4338266738139642,0.8382012837271472,0.8904259100442258,1.2495741525730264,-0.8808940708645516,-0.5604616742158671,0.6498562596991057,17.23821563632888,2.4615152181075666,0.01184985338388076
12,2,Interior (FPS Spread),success,none,0.2571394885015159,0.3175095565761279,0.0482680879389564,0.3181063144125822,0.0743113175267167,0.4388626984417595,0.8370697299118539,0.9133196185784938,1.2859275266189627,-0.8808937083280128,-0.5604613405444574,0.6498577478303567,0.26445463168446687,0.3119089860189985,0.06285912736320133,0.32587558043518394,0.054944776735605196,0.433799777666307,0.8382147281467732,0.8903586210535133,1.2495635939846441,-0.8808940589208879,-0.5604616614858992,0.64985625313821,17.256191405762976,2.464081989924216,0.011865419277152501
12,3,Interior (FPS Spread),success,none,0.2571394885015159,0.3175095565761279,0.0482680879389564,0.3181063144125822,0.0743113175267167,0.4388626984417595,0.8370697299118539,0.9133196185784938,1.2859275266189627,-0.8808937083280128,-0.5604613405444574,0.6498577478303567,0.26445586316535125,0.31190801386308736,0.0628569081815005,0.32587462531728434,0.054946541586664434,0.433797450138551,0.8382161883400224,0.890354711396264,1.2495690832753592,-0.8808940214280223,-0.5604616214628,0.6498562324649504,17.255152710332457,2.4639320257984108,0.011865091981918319
13,1,Interior (FPS Spread),success,none,0.1940930522789665,-0.0788351742514498,0.1456668714586711,0.7985852277104053,-0.3195956642004456,-0.3183360728417218,-0.3984750810712082,-0.4085757437750601,-0.1954435173750957,-0.4813790784435259,1.5449789188947392,-2.4074302029882304,0.19409306149612207,-0.07883515220076273,0.14566689815161926,0.7985851631142713,-0.31959569851785186,-0.3183358734641583,-0.3984753422841246,-0.40857562333899156,-0.19544375472112135,-0.4813788477934808,1.5449786698753118,-2.407429493108007,3.5828790633228324e-05,3.859963436854011e-05,3.094663580283097e-07
13,2,Interior (FPS Spread),success,none,0.1940930522789665,-0.0788351742514498,0.1456668714586711,0.7985852277104053,-0.3195956642004456,-0.3183360728417218,-0.3984750810712082,-0.4085757437750601,-0.1954435173750957,-0.4813790784435259,1.5449789188947392,-2.4074302029882304,0.194093053988883,-0.07883517014275046,0.14566687638596293,0.7985852156390291,-0.31959567060974875,-0.31833603583721143,-0.3984751296853043,-0.4085757213492805,-0.1954435614902471,-0.4813790353997748,1.5449788726049918,-2.4074300708753786,6.639535328096997e-06,7.2445096183544e-06,5.7597456259994575e-08
13,3,Interior (FPS Spread),success,none,0.1940930522789665,-0.0788351742514498,0.1456668714586711,0.7985852277104053,-0.3195956642004456,-0.3183360728417218,-0.3984750810712082,-0.4085757437750601,-0.1954435173750957,-0.4813790784435259,1.5449789188947392,-2.4074302029882304,0.1940930530896099,-0.07883517228479564,0.14566687378800813,0.7985852219093489,-0.31959566727981376,-0.3183360552223144,-0.3984751043032201,-0.4085757330564781,-0.19544353843674517,-0.48137905778915874,1.5449788968167455,-2.4074301398571087,3.1544702049108628e-06,3.4150945850063755e-06,2.7528742796434357e-08
14,1,Interior (FPS Spread),success,none,-0.119693518846645,0.1532445659132449,0.0717217212518404,-0.2241681592450938,-0.4196574376734204,0.805655386819883,0.3529244523607712,2.2807040792193147,-0.3531905205670624,1.375529472072913,-0.9573032876273148,-0.9903084428454424,-0.11969350476937637,0.1532445845175385,0.07172172653512758,-0.22416817310083198,-0.4196574058634737,0.8056553769262149,0.35292450396997604,2.2807039663694684,-0.35319055254202936,1.3755294189016445,-0.9573032054605229,-0.9903083938695042,2.3920751578121853e-05,7.443026089337883e-06,6.58277623633019e-08
14,2,Interior (FPS Spread),success,none,-0.119693518846645,0.1532445659132449,0.0717217212518404,-0.2241681592450938,-0.4196574376734204,0.805655386819883,0.3529244523607712,2.2807040792193147,-0.3531905205670624,1.375529472072913,-0.9573032876273148,-0.9903084428454424,-0.11969350858463891,0.15324457947344683,0.0717217250902777,-0.22416816937865935,-0.41965741448439914,0.8056553796082702,0.35292448996059217,2.280703996960497,-0.3531905438584004,1.3755294333225854,-0.9573032276851342,-0.9903084071749235,1.7433342951102454e-05,5.122641877509564e-06,4.798263650851453e-08
14,3,Interior (FPS Spread),success,none,-0.119693518846645,0.1532445659132449,0.0717217212518404,-0.2241681592450938,-0.4196574376734204,0.805655386819883,0.3529244523607712,2.2807040792193147,-0.3531905205670624,1.375529472072913,-0.9573032876273148,-0.9903084428454424,-0.11969337655541412,0.15324475406273932,0.071721775053061,-0.22416829844212643,-0.41965711638258907,0.8056552866438642,0.35292497466997813,2.280702938226241,-0.35319084411627144,1.3755289340469872,-0.9573024583421099,-0.9903079474600978,0.000241953710403462,7.294645231227146e-05,6.654477516243595e-07
15,1,Boundary (Edge Case),success,none,0.2498824372970274,0.3357306276035658,0.0522888866190554,0.7893293056297846,0.4422255865888542,0.1354658505030877,0.4037880399264207,0.9543541329798426,1.291643288295925,-1.3194138149563233,0.1715417853948635,2.2703173204713507,0.24988252722241922,0.33573055410758673,0.0522890052084492,0.789329237928245,0.4422254230254792,0.13546595850435436,0.4037883151702739,0.95435385138955,1.2916426126860996,-1.3194133368645962,0.17154194168274522,2.270316651099519,0.00016598698551190165,3.9532577923636065e-05,4.5219031172272217e-07
15,2,Boundary (Edge Case),success,none,0.2498824372970274,0.3357306276035658,0.0522888866190554,0.7893293056297846,0.4422255865888542,0.1354658505030877,0.4037880399264207,0.9543541329798426,1.291643288295925,-1.3194138149563233,0.1715417853948635,2.2703173204713507,0.24988246266799113,0.335730606846917,0.05228891987534762,0.7893292863982384,0.4422255405623322,0.13546588066460244,0.4037881178095322,0.9543540535043268,1.2916430976717077,-1.3194136794760674,0.17154182973696427,2.270317131456167,4.669588035994392e-05,1.1197136397927984e-05,1.2778745466235365e-07
15,3,Boundary (Edge Case),success,none,0.2498824372970274,0.3357306276035658,0.0522888866190554,0.7893293056297846,0.4422255865888542,0.1354658505030877,0.4037880399264207,0.9543541329798426,1.291643288295925,-1.3194138149563233,0.1715417853948635,2.2703173204713507,0.2498824540039007,0.33573061392589393,0.052288908415854,0.7893292929157858,0.4422255563425019,0.1354658702025026,0.40378809129654775,0.9543540806317958,1.2916431628115541,-1.3194137255078262,0.1715418147155648,2.2703171959898265,3.0680592448315454e-05,7.443026089337883e-06,8.421662804347641e-08
16,1,Interior (FPS Spread),success,none,-0.0898962674318174,0.3159288325887748,0.2975173610305114,0.178565348569056,-0.1840038507342035,0.7745875226309225,0.5781618882198016,1.8827918334630904,0.52714127312416,-1.0452383715305635,0.0066989341374137,-0.0902247826434941,-0.08989611624750798,0.3159288508309044,0.2975173796598477,0.17856526479557136,-0.18400384828268015,0.7745874085515907,0.5781620677102426,1.8827913831450407,0.5271409077733443,-1.045238049252895,0.006699100254566913,-0.09022476141426361,0.00015341617540868342,2.6231839250190885e-05,2.6505858353991634e-07
16,2,Interior (FPS Spread),success,none,-0.0898962674318174,0.3159288325887748,0.2975173610305114,0.178565348569056,-0.1840038507342035,0.7745875226309225,0.5781618882198016,1.8827918334630904,0.52714127312416,-1.0452383715305635,0.0066989341374137,-0.0902247826434941,-0.08989535741839362,0.3159289420549886,0.29751747381786003,0.17856484640287942,-0.18400383617285002,0.7745868358182949,0.5781629680979169,1.8827891232050975,0.527139074951849,-1.045236434685327,0.0066999324066184755,-0.09022465277077295,0.0009234870163907358,0.00015755767507721425,1.5946834933090737e-06
16,3,Interior (FPS Spread),success,none,-0.0898962674318174,0.3159288325887748,0.2975173610305114,0.178565348569056,-0.1840038507342035,0.7745875226309225,0.5781618882198016,1.8827918334630904,0.52714127312416,-1.0452383715305635,0.0066989341374137,-0.0902247826434941,-0.08985240164511485,0.3159341007622856,0.29752280534179093,0.17854115843147372,-0.18400315799535324,0.7745544109223166,0.5782139371499684,1.882661194258265,0.5270353111838946,-1.0451450305664023,0.0067470397260774905,-0.09021852232066102,0.044515181910023016,0.007593469530751721,7.686160414981085e-05
17,1,Interior (FPS Spread),failed,safety_block_limits,-0.2907666957919533,0.1223110282763352,0.3106372001712238,0.2746357732648684,-0.0340071381483369,0.94432233685983,0.1779719941613221,-0.3839308175588463,-1.1066502857549247,-1.2491676001856442,-0.2262375730890098,-3.102021833870324,,,,,,,,,,,,,,,
17,2,Interior (FPS Spread),failed,safety_block_limits,-0.2907666957919533,0.1223110282763352,0.3106372001712238,0.2746357732648684,-0.0340071381483369,0.94432233685983,0.1779719941613221,-0.3839308175588463,-1.1066502857549247,-1.2491676001856442,-0.2262375730890098,-3.102021833870324,,,,,,,,,,,,,,,
17,3,Interior (FPS Spread),failed,safety_block_limits,-0.2907666957919533,0.1223110282763352,0.3106372001712238,0.2746357732648684,-0.0340071381483369,0.94432233685983,0.1779719941613221,-0.3839308175588463,-1.1066502857549247,-1.2491676001856442,-0.2262375730890098,-3.102021833870324,,,,,,,,,,,,,,,
18,1,Boundary (Edge Case),success,none,-0.3737834270370166,0.1387776424983987,0.0636476011435902,0.0625771374969302,0.7011204102611649,-0.6873611038831065,-0.1790223032096936,2.796276643448208,1.4065987221476717,-1.2493655999914526,-0.3229974203691053,-1.561642176090622,-0.36352485738939583,0.1638033092570917,0.0755076793289146,0.07548203300211064,0.6998363501842501,-0.6781391390770597,-0.21132641507033684,2.7302752976206945,1.3775840979510898,-1.2492817296166887,-0.3229421920416077,-1.5615586756780075,29.532756432379387,4.126768965488277,0.019047713827794223
18,2,Boundary (Edge Case),success,none,-0.3737834270370166,0.1387776424983987,0.0636476011435902,0.0625771374969302,0.7011204102611649,-0.6873611038831065,-0.1790223032096936,2.796276643448208,1.4065987221476717,-1.2493655999914526,-0.3229974203691053,-1.561642176090622,-0.3636678583328841,0.16347431545207874,0.0754723500217486,0.07519364953211352,0.6998964109935989,-0.6782053619800881,-0.21101757256157277,2.7311508955985953,1.3777475537627524,-1.2493644077599864,-0.32299671246832007,-1.561641523397331,29.190324959146395,4.081025935951731,0.018795893812014852
18,3,Boundary (Edge Case),success,none,-0.3737834270370166,0.1387776424983987,0.0636476011435902,0.0625771374969302,0.7011204102611649,-0.6873611038831065,-0.1790223032096936,2.796276643448208,1.4065987221476717,-1.2493655999914526,-0.3229974203691053,-1.561642176090622,-0.36353643640772226,0.16377691371469727,0.07551042328901206,0.07545623681907379,0.6998360831526647,-0.6781495397558857,-0.2113031347886749,2.7303456510965747,1.377569755051634,-1.2492735776005346,-0.32293673459415834,-1.5615499749331165,29.50747240203424,4.123012174442983,0.019040973754208268
19,1,Interior (FPS Spread),success,none,-0.1246962069310141,-0.280143793094938,0.3309152670892233,0.1454496388496559,-0.7135592431829542,-0.3846164944601566,0.5672281385966802,-2.0247576731425427,0.695536793812233,-1.3681668738165342,-0.0994361249013056,1.655541488351712,-0.12469544181453535,-0.2801440849024251,0.3309153765452475,0.14545030442505613,-0.713558593045985,-0.38461680418762867,0.5672285757694056,-2.02475505668588,0.6955346014177001,-1.3681647164421915,-0.09943509090475462,1.6555393488360886,0.0008261570412669834,0.00012302638282944868,2.0279475426127068e-06
19,2,Interior (FPS Spread),success,none,-0.1246962069310141,-0.280143793094938,0.3309152670892233,0.1454496388496559,-0.7135592431829542,-0.3846164944601566,0.5672281385966802,-2.0247576731425427,0.695536793812233,-1.3681668738165342,-0.0994361249013056,1.655541488351712,-0.12469605654609259,-0.2801438506097448,0.3309152884423052,0.14544976996328143,-0.7135591153272958,-0.3846165555161976,0.5672282244157206,-2.0247571586492437,0.6955363631397263,-1.3681664494663597,-0.09943592151465824,1.6555410677254074,0.00016241776912770094,2.426880686682527e-05,3.987057864640597e-07
19,3,Interior (FPS Spread),success,none,-0.1246962069310141,-0.280143793094938,0.3309152670892233,0.1454496388496559,-0.7135592431829542,-0.3846164944601566,0.5672281385966802,-2.0247576731425427,0.695536793812233,-1.3681668738165342,-0.0994361249013056,1.655541488351712,-0.12469618782977858,-0.28014380054970234,0.33091526965422485,0.14544965582967462,-0.7135592268619417,-0.3846165024470852,0.5672281493584294,-2.0247576075835556,0.6955367390783658,-1.3681668193364767,-0.09943609876763172,1.655541434796191,2.0664218909607513e-05,2.9575586669421963e-06,5.089242138545114e-08
20,1,Boundary (Edge Case),success,none,0.4013799833294522,-0.1294738508456238,0.0607543280157539,-0.5083371852535686,0.0498242419961487,-0.1561328036336853,0.8454190668700778,-0.3210119443281645,1.284843000402112,-1.0924743065289575,-0.2669292499624249,-1.0706498585722977,0.4012625987125868,-0.12943480288759593,0.06965303648583204,-0.5095932036385761,0.04058740888494803,-0.1615250461356028,0.844142812867746,-0.3210119071696696,1.2631550074164626,-1.092474786877711,-0.26692975300542415,-1.070649446142859,8.899568322494257,1.2426868086139873,0.004337885193067137
20,2,Boundary (Edge Case),success,none,0.4013799833294522,-0.1294738508456238,0.0607543280157539,-0.5083371852535686,0.0498242419961487,-0.1561328036336853,0.8454190668700778,-0.3210119443281645,1.284843000402112,-1.0924743065289575,-0.2669292499624249,-1.0706498585722977,0.40126220623025266,-0.1294341172160997,0.06967573040013825,-0.5095942936227876,0.04056492758949447,-0.1615372949614955,0.8441408916130494,-0.32101062295690197,1.263094363579851,-1.092469211076396,-0.26692586869751667,-1.07064511103026,8.92226824919032,1.2456194533548857,0.004352636490606188
20,3,Boundary (Edge Case),success,none,0.4013799833294522,-0.1294738508456238,0.0607543280157539,-0.5083371852535686,0.0498242419961487,-0.1561328036336853,0.8454190668700778,-0.3210119443281645,1.284843000402112,-1.0924743065289575,-0.2669292499624249,-1.0706498585722977,0.40126213901427227,-0.1294346288294353,0.06967281938211646,-0.5095958508167464,0.0405669054398847,-0.1615369588885774,0.8441399208226192,-0.32101185812377625,1.2631065808148485,-1.0924745753268885,-0.2669296074152712,-1.0706492769279556,8.919356137135551,1.245440986069505,0.004347542737354238
21,1,Boundary (Edge Case),success,none,-0.3177924493105303,-0.2359370606378127,0.0317410619480575,0.0717470204187344,-0.1339466094481167,0.9423822950382152,-0.2980373816770197,-2.520598613604175,1.333772026780367,-0.9768935221698388,-0.4122909078724466,-0.3001654296918348,-0.31841186499158786,-0.23638047507553717,0.0471637192513759,0.08958709734751534,-0.12811054862537144,0.9425842686852838,-0.29512156096561626,-2.5205980574590567,1.29577877759031,-0.9768937595588623,-0.4122911895648724,-0.3001641851865571,15.441458818554768,2.176882571234054,0.007599113784380463
21,2,Boundary (Edge Case),success,none,-0.3177924493105303,-0.2359370606378127,0.0317410619480575,0.0717470204187344,-0.1339466094481167,0.9423822950382152,-0.2980373816770197,-2.520598613604175,1.333772026780367,-0.9768935221698388,-0.4122909078724466,-0.3001654296918348,-0.3184143156327583,-0.2363824697564714,0.04726800602052283,0.08970745343797472,-0.1280709447903659,0.9425844088180345,-0.2951017420337143,-2.520597574072194,1.2955218295752042,-0.9768935149731779,-0.41229097630130646,-0.3001641249210279,15.545774320861982,2.191578375981068,0.007650523426694278
21,3,Boundary (Edge Case),success,none,-0.3177924493105303,-0.2359370606378127,0.0317410619480575,0.0717470204187344,-0.1339466094481167,0.9423822950382152,-0.2980373816770197,-2.520598613604175,1.333772026780367,-0.9768935221698388,-0.4122909078724466,-0.3001654296918348,-0.31841476443708283,-0.23638290951200353,0.04728863867121352,0.0897312429037024,-0.1280631041575181,0.9425844148095929,-0.29509789283990995,-2.5205973364961918,1.2954709203125534,-0.9768933945743958,-0.41229087139501375,-0.3001640959235625,15.566412537825672,2.1944823533435716,0.007660776283389015
22,1,Boundary (Edge Case),success,none,-0.3279047027199618,0.22453159788249,0.0573422581104179,0.259962841116905,0.627076322084843,0.7188282553642786,0.1499351420078714,2.557821171186556,1.402685472060524,-1.1622172062501257,-0.4272481116835747,1.4909347143099445,-0.2969443477449518,0.264852889017942,0.07849986159691283,0.3157464034547003,0.6012799738879411,0.7122495442285444,0.17738993334732758,2.432885315704158,1.3507150267947508,-1.1621996806997592,-0.4272346416066019,1.4909153082109001,55.06354769082945,7.75171637646606,0.03539134049491098
22,2,Boundary (Edge Case),success,none,-0.3279047027199618,0.22453159788249,0.0573422581104179,0.259962841116905,0.627076322084843,0.7188282553642786,0.1499351420078714,2.557821171186556,1.402685472060524,-1.1622172062501257,-0.4272481116835747,1.4909347143099445,-0.2970122634921778,0.2647738798212528,0.07848733014216544,0.3156654053494816,0.6013294591676157,0.7122656624457935,0.1773016060372415,2.433141346705085,1.3507626511391202,-1.162216962690526,-0.4272479668632776,1.4909329198154153,54.96269760764107,7.737603296984889,0.03532096565546015
22,3,Boundary (Edge Case),success,none,-0.3279047027199618,0.22453159788249,0.0573422581104179,0.259962841116905,0.627076322084843,0.7188282553642786,0.1499351420078714,2.557821171186556,1.402685472060524,-1.1622172062501257,-0.4272481116835747,1.4909347143099445,-0.29706987623218645,0.2647072069992711,0.07847898047691729,0.31559373148927417,0.6013671139038111,0.712283184359219,0.1772310814692707,2.4333578828209945,1.3507836280534224,-1.16221743339291,-0.42724832974616767,1.4909333997412315,54.878293749296475,7.725703986605005,0.0352733784293507
23,1,Interior (FPS Spread),success,none,0.10504540550019,-0.3514048163051399,0.0385179699255213,0.5831446719609267,-0.453455114994608,-0.4079285362338393,0.5365771701954226,-1.3119550063512169,0.8830779748851612,-0.1231306059079822,-0.7708122026694892,1.6622878064889517,0.12479036294376292,-0.3460115082701091,0.07121479965776535,0.5771413446111106,-0.46080810404414163,-0.3653482827062656,0.5666430904116854,-1.2556847556758117,0.7932267883160784,-0.12312306314634974,-0.7707859983956404,1.662258811091518,38.57504103106816,6.07205614972216,0.029236835935480578
23,2,Interior (FPS Spread),success,none,0.10504540550019,-0.3514048163051399,0.0385179699255213,0.5831446719609267,-0.453455114994608,-0.4079285362338393,0.5365771701954226,-1.3119550063512169,0.8830779748851612,-0.1231306059079822,-0.7708122026694892,1.6622878064889517,0.12461703676174798,-0.34607420304856074,0.07103473125410689,0.5771337109375024,-0.46083251376991147,-0.3656348410308654,0.5664461465808959,-1.2561909492721277,0.7937346660093229,-0.12312897175517085,-0.7708065008017283,1.6622819855358184,38.32497821564693,6.033341230753932,0.029024104585726608
23,3,Interior (FPS Spread),success,none,0.10504540550019,-0.3514048163051399,0.0385179699255213,0.5831446719609267,-0.453455114994608,-0.4079285362338393,0.5365771701954226,-1.3119550063512169,0.8830779748851612,-0.1231306059079822,-0.7708122026694892,1.6622878064889517,0.12387741836718777,-0.34630641072284285,0.07126226909152583,0.5765103986230502,-0.46161234050145883,-0.3660426059806515,0.5661824952991312,-1.2583209553933046,0.7931130387422776,-0.12313059059455725,-0.7708121271338402,1.662288342567449,38.115975338133126,6.000580032587482,0.028719922805673453
24,1,Interior (FPS Spread),success,none,-0.2914284018402767,-0.1348476158615992,0.296419510877892,0.2102528183196569,0.5570222579647406,0.7162118306771693,-0.3640886844143347,0.4181983178955168,-1.3717111993112563,-1.1168002258677951,0.1318578916084751,-1.9947900142097583,-0.2914283317406971,-0.13484755200718734,0.2964196155528499,0.21025296846010172,0.5570223917369771,0.7162116214276522,-0.36408880467450044,0.4181982278978484,-1.3717111195196254,-1.1167999211465713,0.13185801380104578,-1.9947895846280024,0.0001412380394565826,3.6061199636676066e-05,2.0525696994289078e-07
24,2,Interior (FPS Spread),success,none,-0.2914284018402767,-0.1348476158615992,0.296419510877892,0.2102528183196569,0.5570222579647406,0.7162118306771693,-0.3640886844143347,0.4181983178955168,-1.3717111993112563,-1.1168002258677951,0.1318578916084751,-1.9947900142097583,-0.2914283277940912,-0.13484754838766333,0.29641962146568784,0.21025297691775724,0.5570223992805425,0.7162116096466363,-0.3640888114242776,0.4181982227634938,-1.3717111149174754,-1.116799904023487,0.13185802059246762,-1.9947895603893269,0.00014921538191208829,3.8028883852184735e-05,2.1683490719071053e-07
24,3,Interior (FPS Spread),success,none,-0.2914284018402767,-0.1348476158615992,0.296419510877892,0.2102528183196569,0.5570222579647406,0.7162118306771693,-0.3640886844143347,0.4181983178955168,-1.3717111993112563,-1.1168002258677951,0.1318578916084751,-1.9947900142097583,-0.2914283387915589,-0.13484755839936832,0.29641960504538817,0.21025295335372993,0.5570223783365449,0.7162116424380193,-0.36408879256929627,0.4181982368661375,-1.3717111274524627,-1.1167999518013667,0.13185800143336177,-1.9947896276584005,0.00012706126921292093,3.2443398557560674e-05,1.8466616916179568e-07
25,1,Boundary (Edge Case),success,none,0.1944977097201291,-0.3550120405497736,0.0474994473276432,0.701338267660677,-0.3048812398094719,-0.436769377339838,0.4737136001268383,-1.0959635986632557,1.0816612761916715,-1.0872083720557717,0.3352832180168577,1.7510874821508673,0.19449777259119985,-0.355011995460667,0.04749951600524978,0.7013382181545035,-0.30488112276983487,-0.4367693619275045,0.473713762958088,-1.0959634069421218,1.0816609121589118,-1.0872081285434634,0.335283282238478,1.7510871760850313,0.00010345246597745078,2.3783381691638923e-05,2.339107316395861e-07
25,2,Boundary (Edge Case),success,none,0.1944977097201291,-0.3550120405497736,0.0474994473276432,0.701338267660677,-0.3048812398094719,-0.436769377339838,0.4737136001268383,-1.0959635986632557,1.0816612761916715,-1.0872083720557717,0.3352832180168577,1.7510874821508673,0.19449778726110842,-0.3550119849823747,0.047499532163200256,0.7013382064817729,-0.3048810956322013,-0.436769358180609,0.473713801160086,-1.0959633622558829,1.0816608273454802,-1.0872080722728454,0.33528329700360066,1.7510871044889698,0.0001276613137715085,2.9328087869136986e-05,2.883370261774765e-07
25,3,Boundary (Edge Case),success,none,0.1944977097201291,-0.3550120405497736,0.0474994473276432,0.701338267660677,-0.3048812398094719,-0.436769377339838,0.4737136001268383,-1.0959635986632557,1.0816612761916715,-1.0872083720557717,0.3352832180168577,1.7510874821508673,0.19449799975205523,-0.3550118328621257,0.04749976532659421,0.7013380385165795,-0.30488070147544155,-0.43676930486547483,0.4737143526692952,-1.0959627145896949,1.0816595971754053,-1.0872072524938217,0.33528351253515826,1.751086069673433,0.0004778870265093542,0.00010956281304351662,1.077929502402153e-06
26,1,Interior (FPS Spread),success,none,0.0083927524447481,0.1026017968894818,0.247784786085639,0.6380936843181824,0.1894531625317696,0.6894084365555051,0.2857620633430073,1.605939594256914,-1.3870041691438488,1.2394073205908902,-0.7336571908613324,1.3908089017273917,0.00839276894812264,0.10260180947031078,0.2477847886590254,0.638093665477234,0.18945309144137687,0.689408418951506,0.2857621950152225,1.6059394293010714,-1.387004129450415,1.239407224181029,-0.7336570434388402,1.3908087588401292,2.0910785409938717e-05,1.7329712313881676e-05,1.1827377845996523e-07
26,2,Interior (FPS Spread),success,none,0.0083927524447481,0.1026017968894818,0.247784786085639,0.6380936843181824,0.1894531625317696,0.6894084365555051,0.2857620633430073,1.605939594256914,-1.3870041691438488,1.2394073205908902,-0.7336571908613324,1.3908089017273917,0.008392761282071958,0.10260180363803961,0.24778478745313046,0.6380936742238921,0.18945312450780272,0.6894084271166265,0.2857621338635743,1.6059395059213821,-1.3870041478695831,1.2394072689822142,-0.733657111872731,1.3908088252633233,1.1203185188725604e-05,9.352621701108683e-06,6.333422866156014e-08
26,3,Interior (FPS Spread),success,none,0.0083927524447481,0.1026017968894818,0.247784786085639,0.6380936843181824,0.1894531625317696,0.6894084365555051,0.2857620633430073,1.605939594256914,-1.3870041691438488,1.2394073205908902,-0.7336571908613324,1.3908089017273917,0.008392903800318048,0.10260191209835345,0.2477848099256824,0.6380935118116031,0.18945251015746686,0.6894082752111984,0.2857632702942961,1.6059380814760735,-1.387003804602455,1.2394064357414418,-0.7336558402394263,1.390807591635836,0.0001917027394957661,0.00015952549819872087,1.0845770288536727e-06
27,1,Interior (FPS Spread),failed,safety_block_limits,0.0999771889669307,0.2923947748861053,0.1680466667508378,-0.1432951408280871,0.2211075200724264,0.5718170804428226,0.7769190393447227,-1.863064809604231,-0.9995087461105124,-1.2028217508918293,-1.47147632698003,-3.1065278253625848,,,,,,,,,,,,,,,
27,2,Interior (FPS Spread),failed,safety_block_limits,0.0999771889669307,0.2923947748861053,0.1680466667508378,-0.1432951408280871,0.2211075200724264,0.5718170804428226,0.7769190393447227,-1.863064809604231,-0.9995087461105124,-1.2028217508918293,-1.47147632698003,-3.1065278253625848,,,,,,,,,,,,,,,
27,3,Interior (FPS Spread),failed,safety_block_limits,0.0999771889669307,0.2923947748861053,0.1680466667508378,-0.1432951408280871,0.2211075200724264,0.5718170804428226,0.7769190393447227,-1.863064809604231,-0.9995087461105124,-1.2028217508918293,-1.47147632698003,-3.1065278253625848,,,,,,,,,,,,,,,
28,1,Boundary (Edge Case),success,none,0.4019978628288221,-0.0176655751579026,0.0302624506073111,0.6808786803579782,-0.1187749650531463,0.0824105491666495,0.7179869300319145,-0.0452656532911905,1.4864753747482462,-0.9702485288630196,-0.8029189724463673,1.5242885493435376,0.4014906940589089,-0.02389667989211193,0.090983265602633,0.6685115998364882,-0.17910915471818747,0.12964752862187906,0.7100730032203973,-0.061276850165497866,1.3312174194202566,-0.9702486217825184,-0.8029187804500493,1.5242883548138637,61.04179928594807,8.942703425422858,0.03425392632955754
28,2,Boundary (Edge Case),success,none,0.4019978628288221,-0.0176655751579026,0.0302624506073111,0.6808786803579782,-0.1187749650531463,0.0824105491666495,0.7179869300319145,-0.0452656532911905,1.4864753747482462,-0.9702485288630196,-0.8029189724463673,1.5242885493435376,0.4014849793934478,-0.023934774707984198,0.09102497020413965,0.668493561437037,-0.1791794819021907,0.12964887244152537,0.7100719973757096,-0.061375187780566255,1.3311105798669989,-0.9702486532091352,-0.8029188175257713,1.5242883924151869,61.08723025454663,8.949374555700969,0.03429495311313709
28,3,Boundary (Edge Case),success,none,0.4019978628288221,-0.0176655751579026,0.0302624506073111,0.6808786803579782,-0.1187749650531463,0.0824105491666495,0.7179869300319145,-0.0452656532911905,1.4864753747482462,-0.9702485288630196,-0.8029189724463673,1.5242885493435376,0.4013886396337457,-0.024333861953910067,0.09189780254610541,0.6682062383665947,-0.18030928442388772,0.13003940754840362,0.7099850262103923,-0.06241131971200672,1.3288732596598178,-0.9702483876324748,-0.8029183634783805,1.5242879319089422,61.99801456751871,9.083064151259828,0.03494982982847433
29,1,Interior (FPS Spread),success,none,-0.2554737107704551,0.3051217507463912,0.1328593940142213,0.2898198632879267,0.5663537508294327,0.7126224201413994,0.2956639343528646,-0.8510534671842129,-1.4897520305037255,-1.4355717970078763,-0.1380255076749799,-1.7630589872269742,-0.25547397628567775,0.30512129946613137,0.13286057142997504,0.2898214172073178,0.5663540809246074,0.7126224003288718,0.29566182658148865,-0.8510522419755304,-1.4897513263209134,-1.4355692987012145,-0.13802430114777145,-1.7630564494641672,0.0012885883995643241,0.0003024624940658657,1.6343976343591304e-06
29,2,Interior (FPS Spread),success,none,-0.2554737107704551,0.3051217507463912,0.1328593940142213,0.2898198632879267,0.5663537508294327,0.7126224201413994,0.2956639343528646,-0.8510534671842129,-1.4897520305037255,-1.4355717970078763,-0.1380255076749799,-1.7630589872269742,-0.2554737369580381,0.3051217063053459,0.13285950976614277,0.2898200160607677,0.5663537835729285,0.7126224180363577,0.295663726952055,-0.851053346453917,-1.4897519612406103,-1.435571551411966,-0.13802538912715118,-1.7630587370552218,0.00012672530659638294,2.9821031431209247e-05,1.6086178052932e-07
29,3,Interior (FPS Spread),success,none,-0.2554737107704551,0.3051217507463912,0.1328593940142213,0.2898198632879267,0.5663537508294327,0.7126224201413994,0.2956639343528646,-0.8510534671842129,-1.4897520305037255,-1.4355717970078763,-0.1380255076749799,-1.7630589872269742,-0.25547376571694175,0.305121657410699,0.13285963736571377,0.28982018444969826,0.5663538193285446,0.7126224158917626,0.2956634985690675,-0.8510532137230651,-1.4897518848585662,-1.435571280731063,-0.13802525842814872,-1.763058462087394,0.0002663655696759936,6.255312325322552e-05,3.3795390637081367e-07
30,1,Interior (FPS Spread),success,none,-0.0738966760493772,0.3781886817715455,0.036064452026671,0.6105625629579726,0.7643774471444877,0.1626946229321181,0.1283391393147216,1.794133889467079,1.0567896511814454,-0.4968118548508426,-0.5624492034040485,2.7241329898386053,-0.06949291493045617,0.3797847646146061,0.05075774941313073,0.6180486325985887,0.7580903269720544,0.17353473974018252,0.11489402942592651,1.782167736930424,1.018929190993222,-0.4968059657478312,-0.5624398588820513,2.7241109986215375,15.421853991053641,2.274176695739939,0.009972767513390945
30,2,Interior (FPS Spread),success,none,-0.0738966760493772,0.3781886817715455,0.036064452026671,0.6105625629579726,0.7643774471444877,0.1626946229321181,0.1283391393147216,1.794133889467079,1.0567896511814454,-0.4968118548508426,-0.5624492034040485,2.7241329898386053,-0.06949032663146101,0.3797851186558979,0.050751104920565705,0.6180494936917783,0.758089208478561,0.17353041683645765,0.11490330616762397,1.782161030506508,1.018944409215531,-0.4968045553181559,-0.562437619351978,2.7241061658874464,15.416299787699927,2.273263828796399,0.009972761692480282
30,3,Interior (FPS Spread),success,none,-0.0738966760493772,0.3781886817715455,0.036064452026671,0.6105625629579726,0.7643774471444877,0.1626946229321181,0.1283391393147216,1.794133889467079,1.0567896511814454,-0.4968118548508426,-0.5624492034040485,2.7241329898386053,-0.0698327277662272,0.3797119374222008,0.05075943031173352,0.6177115180165617,0.7583676717859867,0.17358188625209087,0.11480541653050583,1.7830624396916985,1.0189330084941062,-0.4968120582414015,-0.5624495090710239,2.724131776205334,15.32247924533853,2.259900454565631,0.009785963030705058
31,1,Interior (FPS Spread),success,none,0.2050031791277972,-0.0337122757401698,0.422687186820614,-0.2179564355954358,-0.4466460988177645,-0.1701500236835986,0.8509119954694934,2.9686651354809808,-0.608197585645835,-1.4180701658760106,-0.1284927297170064,2.7332487000420413,0.205002675673694,-0.033712804603390406,0.4226874383177893,-0.2179583192195831,-0.44664649390590183,-0.17015213590813066,0.8509108832365704,2.9686620342773375,-0.6081979954414171,-1.418068371443226,-0.12849186422894032,2.7332458445088106,0.0007722779093762295,0.00035138983413994827,1.8052906613330589e-06
31,2,Interior (FPS Spread),success,none,0.2050031791277972,-0.0337122757401698,0.422687186820614,-0.2179564355954358,-0.4466460988177645,-0.1701500236835986,0.8509119954694934,2.9686651354809808,-0.608197585645835,-1.4180701658760106,-0.1284927297170064,2.7332487000420413,0.20500313868739084,-0.03371231835069679,0.4226872070118973,-0.21795658729484566,-0.44664613042677764,-0.17015019375648427,0.8509119060127205,2.9686648857253175,-0.6081976187061806,-1.4180700216222313,-0.128492660181506,2.733248470079829,6.211900995962855e-05,2.836790617393633e-05,1.4531350019386658e-07
31,3,Interior (FPS Spread),success,none,0.2050031791277972,-0.0337122757401698,0.422687186820614,-0.2179564355954358,-0.4466460988177645,-0.1701500236835986,0.8509119954694934,2.9686651354809808,-0.608197585645835,-1.4180701658760106,-0.1284927297170064,2.7332487000420413,0.20500316186197132,-0.033712294021096906,0.42268719543441097,-0.21795650063956104,-0.4466461122319608,-0.17015009657843438,0.8509119571914483,2.9686650284037164,-0.608197599875582,-1.4180701041952024,-0.12849270000008203,2.733248601443771,2.6580040201494016e-05,1.2074182697257337e-05,6.226060287328749e-08
32,1,Boundary (Edge Case),success,none,-0.2695958142254979,-0.2896444582568361,0.0358678433545466,-0.0187574997983878,-0.0855166291628862,0.9162058099887797,-0.3910268227126308,-2.3421056524956385,1.1581862311204296,-0.8566610280429136,-0.200101352551498,-0.1432554487301454,-0.26959578169897425,-0.28964448822635913,0.03586786225450121,-0.018757494589404577,-0.08551662636970098,0.9162057890240344,-0.3910268726953688,-2.3421055430501636,1.1581861303852994,-0.8566609736376263,-0.20010131020935204,-0.1432554420649958,4.809735268471445e-05,5.915117333884393e-06,6.271863759454987e-08
32,2,Boundary (Edge Case),success,none,-0.2695958142254979,-0.2896444582568361,0.0358678433545466,-0.0187574997983878,-0.0855166291628862,0.9162058099887797,-0.3910268227126308,-2.3421056524956385,1.1581862311204296,-0.8566610280429136,-0.200101352551498,-0.1432554487301454,-0.2695957760713472,-0.2896444934190583,0.03586786555905477,-0.01875749362536422,-0.08551662584666445,0.9162057854008064,-0.3910268813454997,-2.342105524101385,1.1581861129488373,-0.8566609643044341,-0.2001013029424069,-0.14325544088614628,5.643723297500346e-05,7.2445096183544e-06,7.355148308740844e-08
32,3,Boundary (Edge Case),success,none,-0.2695958142254979,-0.2896444582568361,0.0358678433545466,-0.0187574997983878,-0.0855166291628862,0.9162058099887797,-0.3910268227126308,-2.3421056524956385,1.1581862311204296,-0.8566610280429136,-0.200101352551498,-0.1432554487301454,-0.26959578925846794,-0.2896444812542331,0.035867857815246845,-0.01875749587623353,-0.08551662704374481,0.9162057938933794,-0.39102686107698087,-2.3421055684983165,1.158186153859394,-0.8566609862300895,-0.2001013200047197,-0.1432554436016952,3.689640502863777e-05,4.517745487845101e-06,4.814928202812041e-08
33,1,Interior (FPS Spread),success,none,0.1859149079573148,0.2372427562273795,0.3438406029082351,0.8029266489463504,0.1801245158808705,0.537825374372671,0.1833243624599922,0.9382205089920594,0.6085944633364369,-1.16816981895197,-0.3637739440673331,2.1985989420246,0.18591501916305378,0.23724264816680213,0.3438406447447494,0.8029266275553263,0.18012411666644168,0.5378252771721019,0.1833251335537935,0.9382199869091646,0.6085935675756655,-1.1681690009713153,-0.36377335147054457,2.1985977179461242,0.0001606054130279434,0.00010015023255641958,8.104999170699401e-07
33,2,Interior (FPS Spread),success,none,0.1859149079573148,0.2372427562273795,0.3438406029082351,0.8029266489463504,0.1801245158808705,0.537825374372671,0.1833243624599922,0.9382205089920594,0.6085944633364369,-1.16816981895197,-0.3637739440673331,2.1985989420246,0.18591491908840238,0.23724274559314923,0.3438406069343119,0.8029266468829671,0.18012447639896517,0.5378253645078909,0.1833244392306382,0.9382204571002982,0.6085943745143017,-1.1681697373632358,-0.36377388503700525,2.198598820460933,1.5912173285464495e-05,9.80911239371096e-06,8.057932512350874e-08
33,3,Interior (FPS Spread),success,none,0.1859149079573148,0.2372427562273795,0.3438406029082351,0.8029266489463504,0.1801245158808705,0.537825374372671,0.1833243624599922,0.9382205089920594,0.6085944633364369,-1.16816981895197,-0.3637739440673331,2.1985989420246,0.18591491738358065,0.23724274725173544,0.343840606291467,0.8029266472114682,0.18012448252364013,0.5378253659948395,0.18332442741178354,0.9382204651079871,0.6085943882436163,-1.168169749894029,-0.36377389411628996,2.1985988392259213,1.3448529005673272e-05,8.365239156607494e-06,6.81569111704583e-08
34,1,Interior (FPS Spread),success,none,0.3500971806955336,0.0271820482120403,0.2827080354088853,-0.749646065473606,-0.2336284817026407,-0.2566279706953836,0.5635517666674734,-3.0613680604745674,-1.4600953394558518,-0.9606272936954988,-0.0158044277913411,1.259720996670738,0.35009660858350167,0.027183213584956695,0.2827086324653259,-0.749645636247493,-0.2336303945405766,-0.2566282237268965,0.5635514294087842,-3.061364500577564,-1.4600948048737667,-0.9606258277559889,-0.015803595416379716,1.2597195312330454,0.001428944577168922,0.00022977775594715358,1.5716462504498928e-06
34,2,Interior (FPS Spread),success,none,0.3500971806955336,0.0271820482120403,0.2827080354088853,-0.749646065473606,-0.2336284817026407,-0.2566279706953836,0.5635517666674734,-3.0613680604745674,-1.4600953394558518,-0.9606272936954988,-0.0158044277913411,1.259720996670738,0.3500959823269302,0.027184489081931953,0.2827092860899081,-0.7496451661069836,-0.23363248832587408,-0.2566285005786814,0.5635510607050888,-3.0613606042507477,-1.460094218992104,-0.9606242236834577,-0.015802684645228566,1.2597179284631101,0.002993014560340657,0.0004812981864600691,3.291610669780426e-06
34,3,Interior (FPS Spread),success,none,0.3500971806955336,0.0271820482120403,0.2827080354088853,-0.749646065473606,-0.2336284817026407,-0.2566279706953836,0.5635517666674734,-3.0613680604745674,-1.4600953394558518,-0.9606272936954988,-0.0158044277913411,1.259720996670738,0.35009514146865667,0.02718620154438972,0.28271016365469664,-0.7496445350179252,-0.2336352994541518,-0.25662887254072614,0.5635505653845121,-3.0613553730707186,-1.4600934327940704,-0.9606220695588288,-0.015801461498660553,1.2597157758871267,0.0050929408099709295,0.0008189928002923345,5.601055718397474e-06
35,1,Interior (FPS Spread),success,none,0.0491520189416554,0.0372766696986716,0.0313099077032157,-0.1233853640970813,0.7479845192368965,0.0467602876346651,0.6504680517972448,0.7870729294419876,-0.5247436537000523,0.4758938638771108,1.795261917627869,0.5449288834217723,0.049152108643369836,0.03727673041238121,0.03130991328956487,-0.1233851194104211,0.7479843213505907,0.046760456867460276,0.6504683135982252,0.7870725365857482,-0.5247438923663652,0.47589377674066835,1.7952613672161395,0.5449286078610371,0.00010846086577475404,5.0711567328481214e-05,3.089262918920532e-07
35,2,Interior (FPS Spread),success,none,0.0491520189416554,0.0372766696986716,0.0313099077032157,-0.1233853640970813,0.7479845192368965,0.0467602876346651,0.6504680517972448,0.7870729294419876,-0.5247436537000523,0.4758938638771108,1.795261917627869,0.5449288834217723,0.049152118890169426,0.037276737209606524,0.03130991405040573,-0.12338509010492953,0.7479842991692864,0.04676047436837133,0.6504683434056379,0.7870724898551816,-0.5247439191180016,0.4758937656888925,1.7952613059287537,0.5449285790741593,0.00012077962829952065,5.65040789940678e-05,3.4384794037611856e-07
35,3,Interior (FPS Spread),success,none,0.0491520189416554,0.0372766696986716,0.0313099077032157,-0.1233853640970813,0.7479845192368965,0.0467602876346651,0.6504680517972448,0.7870729294419876,-0.5247436537000523,0.4758938638771108,1.795261917627869,0.5449288834217723,0.04915204710279374,0.037276688718632066,0.03130990948809248,-0.1233852868962578,0.7479844572342985,0.04676034024505589,0.6504681339570806,0.7870728055628246,-0.5247437284850182,0.475893836242757,1.7952617452559694,0.5449287976539218,3.402931668716813e-05,1.5926940848252767e-05,9.688764657234117e-08
36,1,Boundary (Edge Case),failed,safety_block_orientation,-0.385003144017716,0.0436436652407008,0.030113641491505,0.0559558745589682,0.955828374596958,-0.2885230470261531,-0.003938242301147,3.0320995288544426,1.1786492299246358,-0.7443411321651021,-0.4095450156293025,-2.556631429075712,,,,,,,,,,,,,,,
36,2,Boundary (Edge Case),failed,safety_block_orientation,-0.385003144017716,0.0436436652407008,0.030113641491505,0.0559558745589682,0.955828374596958,-0.2885230470261531,-0.003938242301147,3.0320995288544426,1.1786492299246358,-0.7443411321651021,-0.4095450156293025,-2.556631429075712,,,,,,,,,,,,,,,
36,3,Boundary (Edge Case),failed,safety_block_orientation,-0.385003144017716,0.0436436652407008,0.030113641491505,0.0559558745589682,0.955828374596958,-0.2885230470261531,-0.003938242301147,3.0320995288544426,1.1786492299246358,-0.7443411321651021,-0.4095450156293025,-2.556631429075712,,,,,,,,,,,,,,,
37,1,Interior (FPS Spread),success,none,-0.3560629160558015,0.1545363583122272,0.045731473782109,-0.0456049240407128,0.3805446057908506,0.894926503038407,0.2285006522226468,2.744080297425046,1.034075001673486,-0.8897489863282539,0.1140755280024967,0.7517957793440537,-0.35606289210455044,0.15453640689640813,0.04573149292232263,-0.045604897069824846,0.38054459148392694,0.8949264957438163,0.22850071000168673,2.7440801619802304,1.0340749014164008,-0.8897489271984756,0.1140755572322577,0.7517957422733893,5.744939373519408e-05,7.443026089337883e-06,7.222642087467701e-08
37,2,Interior (FPS Spread),success,none,-0.3560629160558015,0.1545363583122272,0.045731473782109,-0.0456049240407128,0.3805446057908506,0.894926503038407,0.2285006522226468,2.744080297425046,1.034075001673486,-0.8897489863282539,0.1140755280024967,0.7517957793440537,-0.3560628114837146,0.15453657072063032,0.04573155816842607,-0.045604804860389425,0.3805445430086093,0.8949264714473905,0.22850090429304093,2.7440797054025436,1.0340745629719825,-0.8897487292309961,0.11407565474511415,0.7517956171907723,0.00025134379160368577,3.2978215886223295e-05,3.153434324859594e-07
37,3,Interior (FPS Spread),success,none,-0.3560629160558015,0.1545363583122272,0.045731473782109,-0.0456049240407128,0.3805446057908506,0.894926503038407,0.2285006522226468,2.744080297425046,1.034075001673486,-0.8897489863282539,0.1140755280024967,0.7517957793440537,-0.356062850726149,0.15453649097711813,0.04573152640655725,-0.04560484975077459,0.38054456660681624,0.8949264832719923,0.2285008097221193,2.744079927646757,1.03407472771257,-0.8897488255892664,0.11407560729084369,0.7517956780790278,0.0001569626367369951,2.0561592220437876e-05,1.9700631310459738e-07
38,1,Interior (FPS Spread),success,none,0.2923279195071165,0.0821149525715528,0.0306412456166115,-0.118205664433526,0.3994791994340042,0.1560980340229807,0.895587624908672,0.2849530573586931,0.3369342500898504,-0.160921280048524,0.675746706886619,-0.1324906551907005,0.2923279166449503,0.08211490346462863,0.030641402960558145,-0.11820557572142062,0.39947900098556094,0.15609794805236704,0.8955877401203001,0.2849528987796009,0.3369335070935664,-0.16092102361312138,0.6757467206291542,-0.13249058164364122,0.00016485387330213288,2.986987836227836e-05,2.4906007465852474e-07
38,2,Interior (FPS Spread),success,none,0.2923279195071165,0.0821149525715528,0.0306412456166115,-0.118205664433526,0.3994791994340042,0.1560980340229807,0.895587624908672,0.2849530573586931,0.3369342500898504,-0.160921280048524,0.675746706886619,-0.1324906551907005,0.2923279190288287,0.08211494518637576,0.03064126919048013,-0.11820565112403303,0.39947916978980896,0.15609802111466115,0.8955876421380964,0.28495303355607376,0.3369341384752171,-0.16092124133137495,0.6757467091267225,-0.13249064412948264,2.4708235092260778e-05,4.517745487845101e-06,3.748714461626612e-08
38,3,Interior (FPS Spread),success,none,0.2923279195071165,0.0821149525715528,0.0306412456166115,-0.118205664433526,0.3994791994340042,0.1560980340229807,0.895587624908672,0.2849530573586931,0.3369342500898504,-0.160921280048524,0.675746706886619,-0.1324906551907005,0.2923279121813578,0.08211482578775423,0.03064165261122133,-0.11820543501947754,0.3994786858710656,0.15609781193571343,0.8955879229732082,0.2849526478792807,0.33693232896834957,-0.16092061748601355,0.6757467419529547,-0.1324904648067138,0.00042634775799985797,7.725590104845391e-05,6.437227492106512e-07
39,1,Interior (FPS Spread),success,none,0.3952898480434452,-0.0686574386191681,0.092646584323197,-0.6963165481533861,-0.0151853526950189,-0.1373226456205906,0.7043118349360906,-0.1772468988462359,0.9929090491002506,-0.5727011020776617,-0.6344741907811666,-1.5402682587258083,0.39528984692670305,-0.06865743494135723,0.09264660073811304,-0.6963165212565449,-0.01518535701244826,-0.1373226381515471,0.7043118628907846,-0.1772468900548402,0.992908950309161,-0.5727010585782766,-0.6344741243772658,-1.5402681823643667,1.6858910829837934e-05,4.182619578303746e-06,5.8769442551342974e-08
39,2,Interior (FPS Spread),success,none,0.3952898480434452,-0.0686574386191681,0.092646584323197,-0.6963165481533861,-0.0151853526950189,-0.1373226456205906,0.7043118349360906,-0.1772468988462359,0.9929090491002506,-0.5727011020776617,-0.6344741907811666,-1.5402682587258083,0.3952898438831235,-0.06865742496031761,0.09264664557017918,-0.6963164482503253,-0.015185369200441137,-0.1373226183329278,0.7043119386695695,-0.17724686620212451,0.9929086821711567,-0.5727009411583103,-0.6344739448185988,-1.540267975116568,6.288930989985933e-05,1.6730478313214994e-05,2.18012872971185e-07
39,3,Interior (FPS Spread),success,none,0.3952898480434452,-0.0686574386191681,0.092646584323197,-0.6963165481533861,-0.0151853526950189,-0.1373226456205906,0.7043118349360906,-0.1772468988462359,0.9929090491002506,-0.5727011020776617,-0.6344741907811666,-1.5402682587258083,0.3952898473176941,-0.06865743621910257,0.09264659498741792,-0.696316530613194,-0.015185355447598713,-0.1373226406860833,0.7043118531799218,-0.17724689310778344,0.9929089846900236,-0.5727010736322686,-0.6344741473886188,-1.5402682089256383,1.0955027936241857e-05,2.9575586669421963e-06,3.8357358039808886e-08
