GyaraManasa17/my_repository/metric_ws/40_poses/d1/omx_all_reachable_poses_6dof_FULL.csv
j1,j2,j3,j4,j5,x,y,z,roll,pitch,yaw,qx,qy,qz,qw
-2.4827588583338818,0.8769621487904407,0.2970981636375436,1.1924542693663331,1.37231742800221,-0.025738462920892338,-0.02921855004089527,-0.10307870201371908,-1.7692752255875828,0.7750780717954755,0.6588337952559116,0.7552497246812487,0.005161146798147703,-0.4664184888386472,-0.4604617347859631
-0.3160977209041782,0.7499764628329326,-0.07891667508445499,-1.4933855867502495,-2.959504758364891,0.3070817693314303,-0.0965106690498339,0.17656461222092407,-2.959504758364891,-0.8223257990017717,-0.3160977209041784,0.9072018107473174,-0.10779171816300852,0.4061765914053613,-0.019656975010849776
2.978231604504522,-0.3632199695791303,0.22047390774653164,1.5014648808257192,-1.2534726303099009,-0.11949542767674558,0.021674381780675125,0.04938978588223249,-1.2534726303098997,1.3587188189931205,2.978231604504523,-0.5444164737383415,-0.4132449967116134,0.6580828322500623,-0.31585797712399927
-2.5927773183681175,-1.4726108251367713,0.9314677130604379,0.6308533215695598,0.15779972689891508,-0.10753447832578109,-0.07309251459321531,0.14551677363073973,0.15779972689891508,0.08971020949322628,-2.592777318368117,-0.06436451164678453,0.06367999187124186,0.9595837997053402,-0.26646012763415666
-2.5393133099546237,-1.1469871342095053,-0.373683408258769,1.2114506449985452,-2.1113729190786725,-0.030308228346395294,-0.0290864083913238,0.3063974511560285,-2.1113729190786725,-0.3092198974697291,-2.5393133099546232,-0.32749007367749233,0.7986622196351695,-0.5045989933049813,0.01639410033318031
-1.053544690514923,1.2683357972064746,-0.2253447139061031,0.040240406321057964,-1.8018969843785153,0.14378815804696168,-0.23164693508677603,-0.17332307065800445,-1.801896984378515,1.0832314896214297,-1.0535446905149228,-0.4197436032707204,0.6143836635831682,0.08187583306272044,0.6630568372286962
2.280520579450263,-1.2747327124994636,-0.3187070696738188,-1.4532950112798957,-1.7296219063901814,0.1925126257237174,-0.21013069116677263,0.2588761195932635,1.4119707471996117,-0.09485786013661524,-0.8610720741395301,0.5738566717541079,-0.30325681113434283,-0.2892883069534464,0.7035880202532844
-2.504996812770554,1.277099277938853,-0.5624523735178505,-1.2666204382015191,2.1406562414109422,-0.276632301916268,-0.21337602980408393,0.07595608565187316,2.1406562414109427,-0.5519735337805165,-2.504996812770554,-0.1399930662065082,0.8426729678455935,0.36366825041384626,-0.3715502850454181
0.583755994165891,0.1837867251261769,0.14344655330965694,0.5584784124579489,-1.7123433203655365,0.23339098048782714,0.14623980229254052,0.01759030542067387,-1.7123433203655365,0.8857116908937828,0.5837559941658907,0.7344154667810919,-0.07256484055264552,-0.48037103597873887,-0.47393241486629006
-1.8135889068329087,1.2503813387695861,-1.0863725766802317,0.7022029002649941,0.16175688883024275,-0.073272862253482,-0.3442884402161789,-0.06472957347269738,0.16175688883024242,0.866211662354349,-1.8135889068329094,0.37463221095775723,0.2000491950704971,-0.7333761429926338,0.5308393909213944
-1.454767290111544,-0.1668305627337887,0.8031975845473798,-1.4067868316468886,-1.5014288766983865,0.037075509750562126,-0.21514339000444588,0.22709945834552192,-1.5014288766983865,-0.7704198098332974,-1.4547672901115438,0.6548672536201929,-0.21512591254890465,0.6420139479419273,-0.3356900542672767
-0.15636826874094512,1.374232696187566,-1.009370176130731,1.4870197868394779,3.1075463006312503,0.21135237108536337,-0.03142896054044925,-0.13652557722201808,-0.03404635295854308,1.2897103466934805,2.9852243848488484,-0.6002222117309841,0.03337798136478086,0.7974291658930934,0.052210461478744065
2.224776027268206,-0.15885947269708622,-0.295614555221158,1.6487544066545008,-0.49936704723762215,-0.09355331764481332,0.1377076199447911,0.09579238150369856,-0.49936704723762215,1.1942803787362566,2.224776027268206,-0.5790163608229559,0.05786477388762842,0.7800586615593146,0.2300004486268773
1.4137380842134144,-0.7868567932223373,-0.8618588667068948,0.05459940445156697,-1.803701056654218,-0.0016184738446324135,-0.08599556501732783,0.4499532447254429,1.3378915969355656,-1.547476398112128,-1.7278545693763692,-0.12875274972698944,-0.6933482513592792,-0.1452301999846225,0.6939734294533152
-1.7830969441751332,1.3437111920453866,0.09197904523139422,-1.6515095605663868,1.165014778072456,-0.051764713639058116,-0.2958250047456519,-0.023779537966362896,1.165014778072456,-0.21581932328960574,-1.7830969441751332,0.2736026757663037,-0.48202883018283166,-0.6087354281621515,0.5676539096899903
-3.1284831485370748,0.2139748096026317,0.8556544244256501,0.09965813134200441,-1.2496700745524387,-0.16052766229515947,-0.002261881837086112,-0.07608150611491296,-1.2496700745524394,1.1692873653702862,-3.1284831485370748,-0.44441861672814675,-0.4907297689301927,0.6742190854089799,-0.32726902062590485
1.1882029453571956,-1.3717062421717032,-1.183289248430619,-0.812050712637045,0.8522306283210845,-0.129662614702024,-0.35202419313532723,0.14132321530418102,-2.2893620252687086,0.22545354964957398,-1.9533897082325975,-0.46794566731760456,0.7757897655294779,-0.28300195272013295,0.31478085535018024
-1.030255295143979,-0.6359418193250341,0.4955812068934773,0.8892785235969491,2.511472398217212,0.10611366958136337,-0.15681291538778513,0.08548466323415455,2.511472398217212,0.7489179111653925,-1.030255295143979,0.8258989306203249,-0.3373057967531956,-0.44471518315280006,0.07965024639175346
-0.28247216542495845,0.15670810393150125,-0.12526464155818706,0.2199632365945947,2.858991366333561,0.3213417990332903,-0.08978114201825674,0.13860928554411445,2.858991366333561,0.2514066989679089,-0.28247216542495845,0.9749272333362173,-0.12078392102984421,-0.14255506044831887,0.12085606671003926
1.9737310674536799,-0.1626068183172933,-1.1694093694058991,0.3211794327379407,-1.7810281104357417,-0.033881242928303565,0.10763754630216339,0.4453192814149011,-1.7810281104357426,-1.0108367549852515,1.973731067453681,-0.12091123604229473,-0.7353928310233339,0.25166438835518484,0.6174486964210241
0.3557104833092284,-1.0067601617452073,-0.8469638347309115,0.5412198483890334,-1.549030429931115,-0.07163355459809244,-0.031070991609471254,0.4214905401372648,-1.5490304299311153,-1.3125041480870856,0.3557104833092285,-0.46820255260210136,-0.5272634638938799,-0.31980213077802205,0.6328555969013315
2.1713091662724153,-0.2606582720886417,0.02771171301261921,-0.8634546425116089,2.920937459588298,-0.09180936970750406,0.15157087755079066,0.3598725559893302,2.9209374595882984,-1.0964012015876312,2.1713091662724153,0.44633877535293737,0.723632635289015,0.32467974172865866,-0.4143918098516511
-2.0751298365942223,-0.6714736911392877,0.8355215475919495,-0.018831859066611,0.66387648057969,-0.09397691978792821,-0.1920071018878897,0.13131184676983831,0.66387648057969,0.14521599738605095,-2.075129836594222,-0.224275071436182,0.24503231094290465,0.8240316376759632,-0.4589463138923172
2.1491429378716136,-0.47707463841444264,-1.462571726775323,-0.13547499823298903,2.3531254058020683,0.09904454121876734,-0.13333867527800414,0.43953061470552146,-0.7884672477877244,-1.0664712901670383,-0.9924497157181804,-0.5143309100745955,-0.25523709708351583,-0.5502555877700062,0.6062479091445211
-2.4707766947973564,-0.5492625465371503,-0.39679704439863106,-1.4496731795716282,-1.666687764340658,0.08326718346195885,0.056556435449276035,0.3900176548266753,1.4749048892491357,-0.7458598830823839,0.6708159587924372,0.680059675643308,-0.048543065572534,0.4582242051034113,0.5702569475298714
-2.413055989804338,-1.1949101021880877,-0.7861224479625095,1.1145013982842558,0.7333386641841448,0.05410921874277825,0.03757345308418691,0.36407706798280143,0.7333386641841448,-0.8665311518663414,-2.413055989804338,0.25028994012964206,0.4436626508576307,0.7380512453630449,-0.44249153361611204
0.7756692562719443,1.3168861205293636,-0.7703132635275106,-1.1621782695399452,1.4692245855642239,0.27336287932826553,0.2563261717188668,0.09607510253889227,1.4692245855642239,-0.6156054125380924,0.7756692562719443,0.676379578130862,0.03345325038069095,0.45545237705883956,0.577888119412345
0.5598360766823229,-1.3941362405198328,-1.1505657807811036,1.7030325286438155,-2.0702441816210757,-0.08806004744769058,-0.06270975326485503,0.294266781712328,-2.0702441816210757,-0.8416694926571211,0.5598360766823228,-0.6967363124180248,-0.41725077810334366,-0.2089118930798523,0.5448083333247384
1.1453066516321941,-1.0311699445590436,-0.8282301081542747,-0.4472751348769466,2.553705215129011,-0.08699570960255025,-0.21845002450369927,0.3829575927895822,-0.5878874384607824,-0.8349174659995284,-1.996286001957599,0.46965347765227794,-0.01232583199370015,0.7989872638178607,-0.3753572126010538
-1.6838609518657857,0.025697286435591327,-0.7536607400948522,0.488621261195455,-1.4706986775368924,-0.019004467985616773,-0.27304949622860736,0.3071562037322961,-1.470698677536893,-0.2393421924638055,-1.6838609518657845,0.5096458944969392,-0.43785851321100955,0.6025643471403539,-0.4306474105186031
-1.572095229493757,1.2155104752232377,0.06719456567342741,-1.4258304240789736,0.34104060163775873,0.011582461401486634,-0.3214546894568808,-0.014614322532464578,0.34104060163775873,-0.14312538318230827,-1.5720952294937567,0.06974934426601753,-0.16955678975608576,-0.6869449072516437,0.703201406727192
-1.1589558007617435,1.146579973199365,-1.2210245162018816,0.1812195153962206,1.9384662720087582,0.17563367516460257,-0.3746010657666366,0.08253731632230599,1.9384662720087582,0.10677497239370437,-1.1589558007617433,0.7054129481477148,-0.42554681820610024,-0.34626787115189334,0.44877727160379827
-0.14522254692208314,-0.022099592352355035,-0.6986025703215966,-1.10680257189521,0.4497518377060157,0.0850581235355046,-0.010684906015522293,0.42410156458890524,-2.6918408158837774,-1.3140879190206318,2.99637010666771,0.07983904242260417,-0.7797117272562867,0.13290004829476887,0.6066406900689302
-2.1262783950696376,0.3126792522378268,0.3834019619718303,1.4047821952988102,0.21910055730426636,-0.02845916007495085,-0.06518589966715076,-0.04321201633617036,-2.9224920962855263,1.040729244081326,1.0153142585201558,0.7800969654446666,0.3717537295890307,-0.47800277639293254,0.15735702971687285
2.2027737658630056,1.3733956499995612,1.113276778547041,-1.3004323167821683,2.4351406450602204,-0.04217879358836259,0.0739998070593399,-0.16230922453203583,2.4351406450602204,1.186240111764434,2.202773765863005,0.17949745548443213,0.7813209740058179,0.018579819726755195,0.5974721661735677
-2.2003899450253512,-0.6759562844055981,0.7435913235414624,0.8506358325868832,-0.8501396224756359,-0.08174210395784796,-0.1286795738968728,0.039257862346663286,-0.8501396224756358,0.9182708717227479,-2.2003899450253512,0.19222806062601275,0.5125534166155148,-0.6450210453619968,0.5331840384556175
1.644465603814382,1.4070659033663966,-0.9111029129509158,1.289574971459684,2.968497015299216,-0.0031084788581238884,0.20471406152090252,-0.15816054018826148,-0.17309563829057673,1.3560546917146286,-1.4971270497754108,0.3759823194715807,0.5036685468275274,-0.4883398564788547,0.6053754826185386
1.5699784265562817,-1.0785723305588335,0.3254314808661829,1.7882456136473828,1.5105509418483645,0.012057593053413727,0.0704157278016686,0.08879313612713227,1.5105509418483642,1.0351047639547324,1.5699784265562815,0.16679324697313178,0.6758798784224251,0.2073105090590377,0.6873054310432374
2.6249449856930083,0.42677346603145927,-0.407275751478299,-1.3842077744205634,2.7303178395654366,-0.18923778882722544,0.11432701617299565,0.3197920177948834,2.730317839565436,-1.3647100598674033,2.6249449856930083,-0.3185780084480479,-0.7016348472099089,-0.3109174039899561,0.5563694470494849
1.1858579648798484,1.2366052002529981,-0.17380522800802978,-1.3433739932420443,-2.1389823449512564,0.14056087860229288,0.31731653474557514,0.014637756447855282,-2.1389823449512564,-0.28057402099707573,1.1858579648798484,0.6825724594483232,0.5409491537580692,-0.16420932396021837,-0.4631459257897278
-0.24835548845037936,0.4667549878890611,-0.18092008047896524,-0.05344836300489231,1.5430711597792466,0.35437578262839964,-0.08682339039898325,0.09131266801935788,1.5430711597792466,0.2323865444052038,-0.24835548845037947,0.6974960999075123,-0.0033117753384986105,-0.16839804494023966,0.6965129727565897
2.1494759918770656,0.38056916074699876,0.04262563427237831,1.098600952895523,-2.593725684356084,-0.09229840813552599,0.15965272145148965,-0.040805059591098425,-2.593725684356082,1.5217957479148994,2.1494759918770674,0.49590627797001335,0.5243881774223826,-0.4882738501947732,0.4905941806274627
-0.6651433010399619,-1.3002195295895609,-0.20443765958843718,1.863048502711069,0.5588801911447367,0.04397115501366479,-0.025077513024991872,0.18462093561278742,0.5588801911447367,0.35839131353307097,-0.6651433010399619,0.31246284936125085,0.07333116860907875,-0.35525341836336793,0.8779433445391661
-2.8835481257540945,1.386313969912829,1.209700507884048,-0.7038244976544106,-0.9511184570518174,0.03728651996053283,0.006673840154994456,-0.1562908443579724,2.1904741965379757,1.2494026734473271,0.258044527835699,0.6806852801233035,0.3583259548314157,-0.4678539749960894,0.43518124683627235
3.1120061342530283,0.8731994376566989,-1.0502200950277418,-1.5757102618130117,-2.40839334017592,-0.19462774638494473,0.006115180250464062,0.3020346795930308,0.7331993134138723,-1.3888617344057388,-0.02958651933676426,0.26656648282995943,-0.601433708518083,0.21874825686678848,0.7206726057008078
3.093192781233906,0.8117790265377138,-0.5447008137553705,1.8707855892801593,0.2554021997930729,-0.13114137569610018,0.006933439128723677,-0.037081991171356965,-2.8861904537967202,1.0037288515272902,-0.04839987235588694,0.8678114976083932,-0.08228820072923604,-0.47430238622196613,-0.12316291269522477
-1.8497957611299793,0.41732053753058773,-1.4922063779599366,-1.663954326460494,3.0201503635222493,0.015831884460082095,0.013376153089492832,0.338366116093911,-0.12144229006754381,-0.40275248669995034,1.291796892459814,0.07269177077822694,-0.19522028784649073,0.5789730716378079,0.7882861967537811
-1.1636757315651427,0.4909378095227226,-1.4554324107829288,-1.605364960780358,-1.8408710677141336,0.019141958393653208,-0.01656251708758312,0.3492694621662499,1.3007215858756598,-0.5717330915492289,1.9779169220246504,0.5067376869774223,0.3619817624525354,0.7317556011663695,0.2769835020541358
-2.8745492344512495,0.14773893523309045,-0.4862283217071135,-0.42170370171553206,-2.285742166650808,-0.25338239804156715,-0.0726027030690188,0.33365382523851395,-2.2857421666508078,-0.7601930881895551,-2.8745492344512495,-0.2650695549755016,0.8168765255634991,-0.4268732693292051,-0.28324915699890696
1.9812392419435447,1.0511064094201137,-0.8531782446933703,-1.00066136280818,0.8450466293488907,-0.1298140364689902,0.32589099224023155,0.1925732900791022,0.8450466293488906,-0.8027331980814367,1.9812392419435447,0.5049343256490337,0.12038258805948655,0.7900093228152898,0.3262432055053144
-1.4663819170750725,-1.3296589810171975,0.9351838665155583,-0.43088272936240246,-2.7557470493925145,0.02284972780224339,-0.10353235629183476,0.2782281600454829,-2.755747049392515,-0.8253578438640415,-1.4663819170750716,0.7194981821760327,-0.544550722140527,0.41002071171119925,0.13292814912371437
2.188193204674448,-0.7208591919492796,1.1976357964609838,-0.9444813832021961,3.0955898264990744,-0.09572892804183478,0.151733781971287,0.18650230208202784,3.095589826499075,-0.46770477869049176,2.188193204674448,0.45097720812458353,0.8616554423247108,0.1261785950927046,-0.19557202919843739
-1.0508238278895692,0.7668209944833295,1.1101371181672395,-0.22117677570941874,-1.8113242707571513,0.03941805733310521,-0.04788968567233609,-0.14213505810155558,1.3302683828326418,1.4858113166486429,2.090768825700224,-0.2324628103770776,0.660190012644201,0.29195275272075594,0.6518234263780444
-2.642301020968978,0.6944166074229194,0.299666232757432,1.0784524910970978,-1.716129171849498,-0.0681158798032871,-0.04369384435545078,-0.10128518782886022,1.4254634817402954,1.0690573223123438,0.49929163262081555,0.45002180948243015,0.5124980852359682,-0.16194759005392323,0.7131613153385088
2.2518171445705066,-0.8158255165963876,1.2853871361439277,-0.056160991064290844,-2.807881997083102,-0.10124239099551809,0.13974484158472184,0.0445085307558964,-2.807881997083102,0.41340062848324943,2.251817144570506,0.4461135595733507,0.8565062865287796,-0.23382050346575037,0.11272819195080568
1.2407358831768036,-0.8869784138677596,-0.23883665362556283,1.12577917487539,-0.9667772546287816,0.05374914815589772,0.12186244548808713,0.2708993545975347,-0.9667772546287814,-3.589261793246479e-05,1.2407358831768038,-0.37816760328609694,-0.27020690263683356,0.5147214050914205,0.720443869245184
-1.6008242998122761,-0.20420475044907604,-0.25442655728566477,-1.2576683562609425,1.4381920893893967,0.009429866096807314,-0.08556559500493349,0.40241942129861363,-1.7034005642003964,-1.4252929895941098,1.540768353777517,-0.10861413697081385,-0.7055409246141028,-0.005953647091161402,0.7002710382638112
1.5538631969130927,0.5750763151173666,0.1418611573747326,-0.5408460535172057,1.8471272485522854,0.017761493479039717,0.34021724528656005,0.04443826064333174,1.8471272485522854,0.17609141897489344,1.5538631969130927,0.5294775643134111,0.5949435269719424,0.37108888515954325,0.477481672856635
-1.1819305546404117,-0.8942504707738094,-0.08639490526787896,-0.4871439959235908,1.0782671064566558,0.012236829285782637,-0.0005780135288350492,0.4200357945247204,1.0782671064566534,-1.467789371965279,-1.1819305546404093,-0.00366130546011308,-0.6896926208255219,-0.06950985062170684,0.7207489606566898
2.007380506173706,1.165613978500995,-0.4815236975709545,-1.6657101462396595,0.7162072803061079,-0.11985457046777993,0.2825772009354685,0.14214313139555473,0.7162072803061076,-0.981619865309619,2.0073805061737064,0.5383953956132018,0.0235938637551435,0.7854465421855761,0.3043804477037407
1.14569694495375,1.3272574331693634,-0.3135381110092985,-0.1900359622005945,-2.9812224995869077,0.13735401006781536,0.2769012770265864,-0.15519552060998537,-2.9812224995869077,0.8236833599594706,1.1456969449537497,0.7849987627211035,0.4681655246826546,-0.3750992495815256,0.15459151654708603
-2.7622972194767104,1.2061752084876125,-0.09880907256733207,-1.1703101081369862,-0.41823300973960187,-0.30639667620043937,-0.12691163693232044,-0.018166100462825074,-0.41823300973960187,-0.06294397221670556,-2.76229721947671,0.06934449355411629,-0.19797006028859335,0.9614317149905361,-0.1778995611388916
-2.758264683585154,1.2310792888001707,-0.8509180258847729,-0.059700982036963834,0.5143474605034557,-0.3545266413251339,-0.1478116744312916,-0.016731932256757044,0.5143474605034557,0.3204602808784338,-2.7582646835851534,-0.19930381171540942,0.2170996788584588,0.9449724390453154,-0.14203101604934942
2.8090416907763407,0.6136771468317299,0.7312766750756405,-0.24004549938841357,0.6904244471275245,-0.17018993763129323,0.06292432641114877,-0.11302854651316455,0.6904244471275245,1.1049083225189569,2.8090416907763407,-0.43933090352430715,0.3658153903919147,0.7605797679487256,0.3077106984620289
-1.0496069936911718,0.30789570946820755,-0.5598153549762938,-1.0029238846715414,0.151902941066123,0.12717125581365074,-0.2005971146039026,0.35672083970042995,0.15190294106612318,-1.2548435301796275,-1.0496069936911718,-0.24013379344743746,-0.5373673181607425,-0.36589644917808084,0.7208966049969628
-0.6871336190348689,1.012308654028148,-0.6920979700432202,-1.5564094983615195,1.6010724844307966,0.23722861099163584,-0.1848065087449269,0.21859785338398402,1.6010724844307966,-1.2361988143765916,-0.6871336190348689,0.4148307799180137,-0.5769626015745304,0.20045131398258106,0.6744248298658784
-2.4256286276511894,-0.18456762202629817,0.9817320275146764,-1.3858828233420621,0.02428828554075091,-0.15352403131830206,-0.1439980298548349,0.1895933545578279,0.02428828554075091,-0.5887184178536841,-2.425628627651189,0.2676422909484986,0.11253328835801639,0.8950201585434271,-0.3385893957407253
-0.526842610602392,-0.32311626384371506,-0.1737370110310894,1.804395755328571,-2.0193698937075846,0.1266430689850398,-0.06668598312577292,0.09359770492989128,-2.0193698937075846,1.3075424804537668,-0.5268426106023922,-0.5646261192435226,0.4874672630147123,0.3871784294226379,0.541909472833576
2.6211187907355757,-0.9810066163463826,-0.5064629154007737,0.05493558465697612,2.4850756594884396,0.06468287539027659,-0.03019736103721729,0.4321848750682649,2.4850756594884396,-1.4325339470901806,2.6211187907355753,-0.3882646954932909,-0.6354814097721251,-0.39490449114478743,0.5380189094643522
-1.7094418037919932,-0.4711307312721118,0.2814031883517818,1.8533835480323673,2.2159955411132652,0.0022882963116106986,-0.06959762441036302,0.04902108822233828,-0.9255971124765284,1.477936648477756,1.4321508497977997,-0.6445634975751814,0.238027455247372,0.6610109415535749,0.30157148951544777
-1.3699105223109478,-1.0804056611585788,0.2404026903209593,-0.3579370217679805,0.49151812580976584,0.019832945578771313,-0.038466105567990544,0.3818326560446446,0.49151812580976606,-1.1979399926056,-1.369910522310948,-0.1903423665096613,-0.5506299313727966,-0.40057862743504613,0.7071868391239656
1.1226584134910356,0.6155238641248442,-1.3394202597747842,0.8743286855548396,2.234203084667437,0.16109617701696077,0.3101256563547172,0.20837378649600088,2.234203084667437,0.15043228990489954,1.1226584134910356,0.7412230008008349,0.5049885479726816,0.1754685884798931,0.4059381775062825
-2.145046622444183,0.202916145731046,0.6496135190558925,0.7653178144205943,-0.14900221798178315,-0.05503323253788407,-0.10360920179654089,-0.07265177951481833,2.9925904356080064,1.5237451743822605,0.9965460311456067,0.609250846672137,0.3899611882581924,-0.5789263891617884,0.37628169423137797
0.26647951467210573,0.3924820339567603,-0.5199796789289004,-0.6902526367513442,-1.953554030005753,0.3045009288833316,0.07984446771750191,0.30072719297687805,-1.9535540300057528,-0.8177502817234843,0.2664795146721055,-0.7240863365848305,-0.3215646418831896,-0.25832704423855263,0.5527768957515033
1.7071993204123572,-1.3712275607946653,-0.435608427905521,0.26925750444374286,1.4562605861342592,0.031635866287701604,-0.1430608982013851,0.38837293157321584,1.4562605861342532,-1.5375784842564435,1.7071993204123632,0.7054973777839297,0.019381444907984016,0.7084366112319123,0.003921402749315883
0.7755788358049975,0.1203490850374227,-0.7918326578833731,-0.43760809084087504,-2.292628569155366,0.1600345720788792,0.1451555496947127,0.4036385688153883,-2.292628569155367,-1.1090916636868255,0.7755788358049982,-0.6351638092084483,-0.4937035318675836,-0.3117991868351235,0.5055739561945848
0.48739865206293764,0.19209295496620316,0.535515196808896,-0.645476841535003,1.2234232432223853,0.27667484179768725,0.14029125192018954,0.08500793239856942,1.2234232432223855,0.08213131024009623,0.48739865206293764,0.5487213698195399,0.1710676597797794,0.17449345756067464,0.7994953078970247
1.9647692619697343,-1.363933910602761,-1.237542204064316,-0.16264349440101267,2.415131087444767,0.1559326005653485,-0.3462358885916852,0.231830858407582,-0.7264615661450263,-0.3774730445217034,-1.1768233916200588,-0.3876364549275881,0.047819409956268044,-0.5650622707668642,0.7267433611656877
-0.6261108217505957,0.6487800259599936,0.7310079975722448,-1.6182147490467609,-2.5275659954072474,0.2348297795593216,-0.16114489132218943,0.06291692704018757,-2.527565995407247,-0.2384267255145225,-0.6261108217505957,0.9115424528266156,-0.2572873514103924,0.2002709413500994,-0.25056960220626806
-2.632134076444761,-0.9887620217503955,-0.8789002998556618,-1.69524109441876,-2.9706628720008093,0.25256303533299745,0.13439008415116346,0.20326038574789787,0.1709297815889839,0.42131076243502386,0.5094585771450322,0.028282695763626433,0.2226489491065541,0.2282406614083237,0.9473825705922505
-2.5456234442541477,0.10790309189394787,0.02876764951353028,-0.7075754231587034,0.535788055166357,-0.23189037029419832,-0.16541514985085842,0.253469211912752,0.5357880551663572,-0.5709046817512251,-2.545623444254147,0.18501027284289795,0.3225212901702703,0.8626462355164322,-0.342917903701205
-0.08795453355294347,-0.3559614844982961,-0.989631545982522,1.6767269407934717,-2.038149760819297,0.1678087376702612,-0.013739532806134762,0.25685263163474703,-2.038149760819297,0.3311339103126536,-0.08795453355294336,-0.8353676410119555,0.12323113338873928,0.11749337538902811,0.5226569609730081
-0.4677201731694036,-0.6778282672392606,-1.331269660573796,-0.7867390256790784,2.8468110837793232,-0.22387922793290033,0.11914286238667432,0.3405888690799939,-0.2947815698104701,-0.3457557000976583,2.67387248042039,0.13199654119929846,-0.18016087612443407,0.9420345702516536,0.2503793926749574
-1.7080359686968816,-0.42022645657974,0.904575862315876,-1.6821138481623583,0.8452724458402687,-0.006819157084741609,-0.13626425296814018,0.27694697712514305,0.845272445840269,-1.1977644424262224,-1.7080359686968818,-0.16504040502551434,-0.5931724290912009,-0.41602389444256377,0.6692026997314797
-1.6146304221905914,-0.2927343712058481,1.1976517077599071,-0.5911800381334809,-0.05063047145776123,0.002606852984826131,-0.21415133755329296,0.042245802845012774,-0.05063047145776123,0.3137372984205782,-1.6146304221905912,0.09553956645812202,0.12604850827734446,-0.7105999614286634,0.6855885498020167
-3.0737681306637055,-0.7612395882827091,-0.3602198367794067,-0.23413815894323808,2.942384122090035,-0.00496114311122799,-0.0011521486735264065,0.43623744437291595,2.942384122090035,-1.355597584005354,-3.0737681306637055,-0.03604059752803597,-0.7767627176017388,-0.05625823082528508,0.6262393850103907
0.2607922109598628,-1.3990125950460408,0.5100157966024357,0.1638038693426942,1.4390689593653536,0.0849427029173434,0.019466218721178936,0.30709877203917946,1.4390689593653536,-0.7251929291009108,0.2607922109598628,0.6456405601318724,-0.1843914060884138,0.32321322069142483,0.6668442775068374
-1.2792891405334703,-0.40905317270189845,0.16259282433100797,0.06262053228226194,-1.5920012581841936,0.08332435860205205,-0.23770434002631646,0.2458956891797615,-1.5920012581841936,-0.18383981608862854,-1.2792891405334703,-0.6092100307308164,0.37321061192470517,-0.4684412657009908,0.5197497072555198
2.4187842955089423,0.9575635355783172,0.169689182018941,-1.6597071512059753,0.6786685095010272,-0.2198269543562853,0.2044827017082798,0.08250757365424605,0.6786685095010273,-0.5324544336087171,2.4187842955089423,0.3456133114928748,0.21266609301488196,0.8819514688618786,0.2397627543491469
2.7086956472406385,-1.0463223222382219,0.8093026314761622,1.14056937646583,-0.03486519168973734,-0.09734705886105743,0.05053277951444367,0.048195329787850696,-0.03486519168973734,0.9035496857037706,2.7086956472406385,-0.4296796867828701,0.07842613823762506,0.880181844695423,0.18575421361538433
2.070377397191516,-0.5418522283642907,-0.8123583966668465,-1.1865510896883542,-0.7363138087244279,0.08403570332606408,-0.13199186572723415,0.3928147994320294,2.4052788448653653,-0.600830938870302,-1.0712152563982777,0.712047637275214,-0.5464248097284885,0.06197277974047306,0.4365403350610449
-0.7068625571522702,-0.525376127268699,0.6608185110287277,0.8902819453341146,-0.6055762200887504,0.13528280975312956,-0.1052943643054137,0.02914384613022128,-0.6055762200887509,1.0257243290941438,-0.7068625571522706,-0.08165476925351355,0.5293318361919943,-0.1506021385957858,0.8309388074353867
0.6948601883677186,1.4618065895164438,0.299523238143681,-0.20822659083154238,-2.153417977568483,0.09587319562775297,0.06991165742152859,-0.23166556191883722,-2.1534179775684983,1.5531032368285822,0.6948601883677032,0.7036568338824257,-0.09866259476222426,-0.6953205255981818,-0.10799129227494901
2.0260233219212544,-0.8947657970693956,0.5844141228269701,-0.6199907536750158,2.740310516963706,-0.04452155853655312,0.11546367047578328,0.3240711195549197,2.740310516963706,-0.9303424279174413,2.026023321921254,0.5394257234673762,0.6957476814972616,0.38379488149946756,-0.2786692331200064
-2.474183315087782,-0.22859551246082188,1.1547683188495115,-1.494326637190305,2.2421196413498348,-0.14769536043793127,-0.1258473010147251,0.1763156208822047,2.2421196413498343,-0.5681538308016152,-2.4741833150877817,-0.1680320518751872,0.8566886141655168,0.3116111541015453,-0.37516441267967254
1.1741111322923476,-1.4855503902930316,0.9727541048498658,0.7718276935631703,-0.0643215494034326,0.06483039569866333,0.12611957238018554,0.11429244526886953,-0.06432154940343249,0.25903140812000447,1.1741111322923472,-0.09805033110797859,0.08981275857341164,0.5524463349599669,0.8228747462137539
-1.623043234200375,1.4104581904771947,-0.426765951661114,-1.3428493909758075,-0.14992447433486866,-0.00618424267000355,-0.34772763555751895,0.00906920378596926,-0.14992447433486844,-0.35915715215972654,-1.623043234200375,-0.1799182132364391,-0.06916410720809259,-0.7208757217209918,0.6657206295835767
0.237034555456606,-1.4895985620243741,0.5743731847324121,-0.7559371252865758,-0.3509430247868117,-0.052175282386275584,-0.01550320409028206,0.35079494644648457,2.790649628802982,-1.4704301510112554,-2.904558098133188,-0.029922091323272927,-0.7390195982593132,-0.05047847706891444,0.6711234053378621
1.534920345319005,1.0355996592394314,0.41641349992561394,0.8399877907671682,2.4574515628084534,0.013137744363499071,0.031699653914951206,-0.13877520964664233,-0.6841410907813398,0.8495917036575795,-1.6066723082707886,0.0672203104647259,0.4895218154607911,-0.5217376012383188,0.6954420878139905
-1.9826230365019346,-0.17910328893154737,0.40820275295847375,1.5709854105783119,-3.099217493605459,-0.022152774970474035,-0.07818774327722897,0.006241929147507055,0.042375159984334165,1.341507778984555,1.158969617087858,-0.3264079046068369,0.5290723214664924,0.4178435798781201,0.6625308303942297
2.193262901711826,0.5114191659443015,-1.2694894909822725,0.631075502225843,2.6719520979499047,-0.18147294519127244,0.26959636769512496,0.26483047140509036,2.6719520979499043,-0.12699482281212804,2.193262901711826,0.4563050355051585,0.8567734028596267,0.2347597931842464,0.05111643795357492
-2.878229162202671,-1.234896766060872,-0.493640035206363,-1.1125801881836794,0.1829449640229308,0.28694944489039986,0.0741336009209504,0.29401837605645287,-2.9586476895668623,-0.3004756641388786,0.26336349138712234,0.9742825586514073,0.14283325900470895,0.1358985397507759,-0.10910427545869823
-0.3870350500493891,-1.1175425192947697,-0.7628994491801476,1.0943004553797107,2.842785714423225,-0.015458510334068809,0.01119190203642894,0.3680970645684534,2.8427857144232247,-0.7861415130952067,-0.3870350500493889,0.885432047885989,-0.23161540364418376,0.3452476411370704,0.2077702087895526
0.07484312106412938,0.03146608609675994,-1.229587174638839,1.3883555299147747,1.4681475227118832,0.24114388121109187,0.017181936727387558,0.2720100818232168,1.4681475227118834,0.19023444137269574,0.07484312106412938,0.663766663448549,0.09541367749494398,-0.03592677060510506,0.7409583752108885
-2.7347195908936563,0.6702976243491028,0.28887239330356174,-1.5687669752716296,-0.5302590119782842,-0.26377954862257735,-0.11883853948314513,0.1346952170178783,-0.5302590119782837,-0.6095969576189649,-2.7347195908936563,0.3341428114402646,-0.18628913016001813,0.9174799502526658,-0.10897468711304176
3.0440090372258624,0.028020838541818804,-0.8179845156890981,1.6344230680790977,2.5960928679044097,-0.20773602239158406,0.021510958910943505,0.15561383272224083,2.59609286790441,0.8444593909318181,3.0440090372258624,-0.06741504309442642,0.8827963260402846,0.22618268213370438,0.40616160945756047
0.18075628089690143,0.5124414623536095,1.0752170370260066,-1.5755975129859425,-2.768149300485978,0.24914645528815027,0.04333874243271159,0.033384995319509954,-2.768149300485978,0.01206098639367359,0.18075628089690143,0.9786909587714953,0.08756981760453897,-0.02265598317779996,-0.18434272616484354
0.3270112279677355,0.08807395713314614,-0.7528198799371043,-0.6496707140626103,-0.034810923934209814,0.17603010642717065,0.05563718286764654,0.4156700054081318,-0.034810923934209564,-1.3144166368665686,0.3270112279677353,0.08583208320222387,-0.6049128418049442,0.11836118787272772,0.7827540715435404
2.0893117421995075,1.4871744269461198,0.7310804066292222,0.8107094639031958,0.12734059851225688,0.06340475452045287,-0.09009017594428301,-0.07055606490904305,-3.0142520550775362,0.11262835611125555,-1.0522809113902853,0.8598330108233726,-0.5034843356200324,-0.016670485524171802,-0.08314332321994951
-0.5361068257046488,-1.3265063835498894,0.5426497476714109,1.3338916097793068,1.1210440008160538,0.10260957477278741,-0.05383566654287429,0.11791905710904434,1.1210440008160538,0.5500349739008286,-0.5361068257046488,0.5542969971222145,0.08628145952558137,-0.3551113675891945,0.7478009530164851
2.94237996843266,-1.402578723805148,1.3201509528565953,0.011533631167070624,-2.5361736799683925,-0.14532897290929586,0.03176322491943109,0.12609930143202808,-2.5361736799683925,-0.07089413978148196,2.94237996843266,0.08434824020199176,0.9502549665891958,-0.29307970631401453,-0.06328632233179902
1.9697494743718398,-0.43056358953925233,-1.3584094421214576,-1.6491842597837896,0.9999168569011352,0.09396085384159478,-0.19442284871853763,0.26028341036912434,-2.1416757966886575,0.29656463785470644,-1.1718431792179536,0.684032924905359,-0.5389716170781292,0.1541473617307196,-0.4667409822386123
-2.7548559875597567,0.9260317938373208,-1.1936783844532597,0.014725499811509835,1.524834696084827,-0.3498798198703123,-0.14737385037078488,0.18995307081085058,1.5248346960848271,-0.25292109080442904,-2.7548559875597567,-0.04215459329227269,0.6899138559161394,0.6872837170413278,-0.2233449215208251
-2.868437142672332,-0.10790851608899299,0.6692135055484218,-0.7077582394953928,-0.35016580817953535,-0.2507252881777537,-0.0736046764277169,0.14661201716222677,-0.35016580817953535,-0.14645325003596388,-2.8684371426723314,0.09502483729113512,-0.16229634495237572,0.9746630172482849,-0.1210874870552789
1.555102404642894,1.202762332691194,-1.3651260134741499,0.34824327672370337,-0.7271205523998496,0.01839006803549667,0.4071348986015666,0.07372658404898455,-0.7271205523998497,0.18587959594074754,1.555102404642894,-0.3131729317619829,-0.18657873401187036,0.6763703886856508,0.6400267089234274
-0.5878573686512825,0.012960874217418983,-0.9449907317205278,-1.263132535946671,-1.8155006569192316,0.017280222548001156,-0.003519040767738249,0.41613709301395896,1.3260919966705618,-0.9464302601400134,2.5537352849385107,0.5025107593312762,0.42032085568588956,0.7526985959452918,-0.06525441512857412
2.3905221551600633,-1.3759551050740972,0.09727783879075091,-1.6151067031162873,-2.351703921147831,0.18731989032521526,-0.16367830086216484,0.2656970836363442,0.7898887324419623,-0.24780868419015945,-0.7510704984297301,0.3133607666638577,-0.24615952628998203,-0.29170308094663333,0.8695515108944224
-0.1381191501091834,-1.4639502656503727,1.3504096053365537,-1.3326104333337094,-1.8784427043258423,0.030145954065636346,-0.0025223638168078654,0.26932481050991036,-1.8784427043258418,-1.4461510936475286,-0.1381191501091834,0.6306576826909751,0.34798615638895763,0.5633260624712902,-0.40477187348564797
-0.19191579595397368,0.7798077921068551,1.2517481662800662,-1.1164300499824837,2.859500154722737,0.15844033217522807,-0.028454414950482048,-0.10385583052596437,2.859500154722737,0.9151259084044381,-0.19191579595397368,0.8900866449103311,-0.0232843124537611,-0.4474474534194301,0.08363242059328856
1.1560519548605335,0.8803167758707131,-0.6149926020564871,-0.14792635106638663,0.9944563395670873,0.1699705282566969,0.35879274589229015,0.07132400252652049,0.9944563395670872,0.11739782274783983,1.1560519548605335,0.37064084956239995,0.3033504409058444,0.4559466329906169,0.7501443451112672
0.8767449504934408,0.2268376830386476,1.3474531153210987,-0.7776939361855005,-2.1620841147770906,0.11642532943040113,0.12548556031375924,-0.05921528595203762,-2.16208411477709,0.7965968621742459,0.876744950493441,0.8139061483028429,0.1800525070748727,-0.49393835075010695,-0.24731110389375535
2.900421839640199,1.4311829032628682,-1.3483985536242487,1.530156644216693,1.4096048211070573,-0.22780267804083443,0.05898138434117341,-0.11606586658944903,-1.7319878324827376,1.5286516597344808,-0.24117081394959616,-0.49193243587958246,0.5112567540485508,0.4670761278250021,0.5276920510916595
2.09037256513147,-1.4838052146703844,0.3134953259474369,1.8703733775179565,-1.8056520691932807,-0.010292608236457078,0.038973140072349345,0.10595766634556908,-1.8056520691932807,0.7000634887950095,2.09037256513147,-0.5537571956985847,-0.5313554616151416,0.6383792079044586,0.0590451398429638
-0.6113050085763136,-0.9516490761640983,1.1945954734283069,-0.09566715151067573,-0.9542372685823866,0.16580586917025664,-0.10779686223102657,0.10009251867425037,-0.9542372685823867,0.1472792457535328,-0.6113050085763138,-0.41708326817729624,0.2001397096955396,-0.23436496822756925,0.8550197106951518
-2.1076620466728886,-1.3238404012499352,0.8184694913734112,-0.5519824740285302,0.819671294446672,-0.023081414514352902,-0.05894281419044643,0.3130281097017976,0.8196712944466719,-1.057353383905054,-2.107662046672888,-0.23211753575380184,-0.5277461671373636,-0.5891430956583509,0.5661411886671908
0.8186096059241486,-0.05389954515534079,0.7659039148921729,0.2476677591146874,-0.4301696671606079,0.15033043923388062,0.14783800183815146,-0.023039687882951146,-0.4301696671606079,0.95967212885152,0.8186096059241486,-0.3531728414774899,0.33839647214484964,0.43528267702549434,0.7558344810632516
-1.7052285799648979,-1.2997801570443874,0.6949710018711528,-0.018357932299998714,0.8416744490152084,-0.003362297375268008,-0.11358615727131921,0.28048375373244017,0.8416744490152084,-0.6231670874732331,-1.7052285799648983,0.04516896574716814,-0.47693298935996065,-0.5717975728650244,0.6659896574716233
2.4227189004104286,-0.8262677608219104,-0.835075315123694,0.6639183044948667,2.1916855374554145,0.013925050358462955,-0.0016845677840617301,0.4213700784523782,2.1916855374554145,-0.9974247714507379,2.422718900410428,0.47945820950674567,0.6541501361031902,0.5255511207573127,-0.25691135483566324
1.6387369534193503,-0.7907905925212948,0.5486535060193587,0.09465909414629148,1.0238047670061907,-0.0018515105703549861,0.20356290731372295,0.21975214055888195,1.0238047670061907,-0.14747799235564485,1.6387369534193503,0.3804270189364835,0.313110577050752,0.659952635764047,0.5671856559805905
-2.603022075977638,-0.4330149505266814,-1.3324708956770852,0.5175563988603444,2.714563865308779,0.01655588658680182,0.0027220886982184354,0.45867278792698474,2.7145638653087794,-1.2479294473434217,-2.6030220759776386,0.09166883855146833,-0.7974923286506992,-0.01386273351863111,0.5961632615326962
-1.5882969042775517,-0.2679746600837274,0.5486905393056758,0.3490839807441948,-1.527923988509289,0.007847373583708961,-0.23726088295231468,0.06099006784795795,-1.527923988509289,0.629799859966143,-1.5882969042775517,-0.3015043729892904,0.6259208239895127,-0.33955009462944313,0.6340536005747153
-1.2668786942414465,0.6769934024969286,1.3377639875010967,-1.1314647681534322,2.6028913382510814,0.05594724069099828,-0.14012269904117033,-0.09100992687761486,2.6028913382510814,0.8832926218445931,-1.2668786942414463,0.769713458227382,-0.4241556980518763,-0.47448400589752915,-0.04998063806318409
-0.3703540538188901,0.7783659162233514,-0.5994553747311092,1.2612403445713627,1.543382176999875,0.24482597793910293,-0.09039946690525445,-0.04641437903536537,1.5433821769998763,1.4401508860636048,-0.37035405381888875,0.6022965304088607,0.3680399925722961,-0.5512040000445473,0.44492651489849805
-0.08577557873024899,-0.6080911231192029,-0.7675058339082371,1.32547446213288,2.5826760958253723,0.14144446690827667,-0.011130484789213739,0.30790228007655845,2.5826760958253723,-0.05012249489456,-0.08577557873024899,0.9597232299870808,-0.048104069573894036,0.012241713723051958,0.27652750452480795
-2.339755024509903,-0.9200175433085664,-1.032680972056088,-1.5646080517376808,1.6247834844107474,0.20802018066089453,0.20257343712472098,0.2126781947840198,-1.5168091691790457,0.375713913512542,0.8018376290798903,-0.6749944348363158,-0.13886699819068582,0.39657958279215333,0.6064842160072362
-1.5035207750071105,0.19793788356980757,-0.9241995530783662,-0.13075648825053499,2.789218157713566,0.028526290793129558,-0.245280048472939,0.3831920246074335,2.7892181577135657,-0.8570181577590936,-1.50352077500711,-0.6044178348200597,0.6647651315972019,-0.18995122304467182,-0.39583447756331097
1.8551489680416555,0.46179645856629814,1.2291089886775062,-0.06546973773858422,-0.10772868766886923,-0.003415181182528298,0.052742439853468125,-0.11896953931658216,3.0338639659209243,1.5161569440845732,-1.2864436855481372,0.6024066143958715,-0.40528270846938846,-0.5727875506724924,-0.38048208754477175
-3.0440544192246066,-1.386431643665581,0.6822653325558017,-1.0200608000907674,2.2321272555391407,0.06305672365781459,0.0049958357081819746,0.3444622070199501,-0.9094653980506514,-1.4173655423892464,0.0975382343651855,-0.30456593420476524,-0.6002567083756719,-0.25227036365449607,0.6951914408230372
2.9124357616221737,-0.9057432990108709,-1.3120423358133864,1.5531373242495536,-1.746025046887602,0.04619068548203906,-0.00797512125717063,0.35469078652974345,-1.7460250468876022,-0.6646483105747037,2.912435761622173,-0.12542959550897076,0.7435585062093281,-0.5748035309539081,-0.317787767570006
1.1649293191630257,0.21689204089487468,-0.4296803027457554,-1.2806661124739054,2.467244484385224,0.08484731181713384,0.1695202723356068,0.3645466597507273,2.467244484385223,-1.4934543743247861,1.1649293191630266,0.7019975681696558,0.19332809901059622,0.668858402825002,-0.14984023954607775
-0.9971558384193377,-1.0153135503561466,0.19100983429045093,0.9162861348898466,1.888895791160754,0.0917390247509293,-0.12341272132671699,0.22376755773626458,1.888895791160754,0.09198241882415092,-0.9971558384193377,0.7236802298903052,-0.3633274126087758,-0.31271965739827434,0.496474100018957
-1.6552212919185287,-0.6348044887175863,-1.4168705475076928,-0.9356029254501669,0.5242593008717682,0.034897868114000676,0.2705768385441218,0.3112491385346404,-2.617333352718025,-0.154314691914347,1.4863713616712644,0.6955330307469361,0.666286570897088,-0.12000359010383188,-0.24061410379354933
1.7666483238237296,-0.40628426644614546,-0.25415454065861587,1.3307760326615317,-0.905670098161111,-0.025825369659741047,0.1906566882256424,0.1635450583629574,-0.9056700981611111,0.6703372255567706,1.7666483238237296,-0.4907834205457171,-0.13162515850453713,0.7476103211649303,0.42765086163104005
-3.0417093649050715,-0.4811679610286732,-1.4877821486510991,-0.6269744491134586,-0.7527505680094113,0.23327145833933832,0.02217511465645198,0.3811531019793998,2.3888420855803822,-0.5456680947965624,0.09988328868472185,0.8994307852790597,-0.054208377174196416,0.2679575951947537,0.341005046170696
-1.1708577195483216,1.2578133821070652,-0.8000298469675301,-1.2267133185991175,2.222285862662092,0.1502347284844347,-0.3270118502288203,0.1321846858779112,2.2222858626620914,-0.7689297834595822,-1.1708577195483216,0.6004955993737351,-0.5977383071495026,0.05291939564782824,0.5285011720546078
-0.12656319693181528,-0.8941951953557263,1.3486513327142733,-0.6852086540243159,-2.3795450877510884,0.19245658681846445,-0.022961896740107072,0.1404062149060005,-2.379545087751088,-0.23075251666576868,-0.12656319693181528,0.9229743076466661,-0.015589557920660847,0.13001115909594613,-0.36190121803957004
-0.683867757035233,0.7176783497433492,-0.7685912394280008,-1.4529775966268539,0.5401613978944328,0.19552130093679787,-0.1495842648199503,0.30559713694032675,0.5401613978944354,-1.5038904863115055,-0.6838677570352355,-0.03714820498796868,-0.6855299606543457,-0.06432331555744344,0.7242452588640955
-1.5800064469456037,0.5645317904437452,-1.0071581859053271,0.32436539307990686,0.7914369525647249,0.008691819636459059,-0.35917955125809453,0.22672858667297582,0.791436952564725,-0.11826100238167503,-1.5800064469456037,0.2321020269538135,-0.31172299946355186,-0.6382801909281343,0.6644966655733662
-1.7045239941248265,-0.047397545980931266,0.4993808668246751,-1.3027090124950396,1.7655295092582342,-0.01928402214458545,-0.2325421139353684,0.25424188049719476,1.7655295092582348,-0.8507256916512957,-1.7045239941248271,0.26594953013415834,-0.7021915863653613,-0.2255841587571259,0.620733123634431
2.9220487068578116,-0.5052118248463148,-1.4527205634188407,1.2034744248270333,-1.9683395539387325,-0.015771482216593066,0.006196945532666871,0.407188872567404,-1.9683395539387323,-0.7544579634381222,2.9220487068578116,-0.11785114276741766,0.7919341723108917,-0.4779297609344588,-0.36129561094456686
-0.2461557534760357,1.089434686469319,1.1221861890740117,-0.17396790466605028,1.015546930601411,-0.008712044771957334,0.005203922524714504,-0.14434077482994823,-2.1260457229883825,1.1039396827125127,2.895436900113757,0.3443813371037903,0.7071300559633079,-0.46714483837391835,0.4039112261234395
2.1218029081492205,-0.7838509405044349,0.561393915872467,-0.6225296256131505,-2.3188709749499004,-0.06833194384847781,0.13072923921944818,0.31375158152749,-2.3188709749499004,-0.8449866502451184,2.121802908149221,-0.2649310089398603,-0.8096662912910549,0.1348693467135004,0.506026003843844
1.9058832485733799,1.3106821243726028,0.7101684645038269,-0.0029186863353296566,-2.04421295306433,0.009711317151212817,0.00657254673650972,-0.18624418005780613,1.0973797005254633,1.1236607510486936,-1.2357094050164132,-0.6230977416191658,-0.11480731245201817,0.6447667710556063,-0.42760296577452234
-0.3867847192267009,0.9070745532963809,-1.2802118555505735,0.4131870891585401,1.3754819527832036,0.3736070321324218,-0.14728301747042,0.1582663954221452,1.3754819527832036,0.040049786904347684,-0.38678471922670077,0.6258080431592554,-0.10679248767178554,-0.16094515735249673,0.755682680772052
1.9978206819240407,-1.3301817826463138,-0.6445882412052047,-1.1228394434285693,-2.3909993935937157,0.14729934026935765,-0.2973452423469195,0.2343427758034875,0.7505932599960774,-0.043983186309705546,-1.1437719716657524,0.2970764721557291,-0.21553887883771927,-0.49664993802453833,0.7865287028844576
0.261171087439684,0.7222680300453521,1.011605282655096,-1.252195108064118,1.9588181472022028,0.22825549644508003,0.05779988144712422,-0.05657256906582698,1.9588181472022033,0.48167820463633015,0.2611710874396841,0.7820281747245114,0.23682466110052008,-0.12582263628874205,0.5625963722145959
2.7484098761243274,0.16887695285908433,0.938682198203761,0.30935704073468995,-1.9779986586728726,-0.10348795155719555,0.0479021342169621,-0.08690175683654336,-1.9779986586728726,1.4169161917975353,2.748409876124327,0.4745916079659143,0.5523714219021713,-0.5154364871493038,0.45163463732234604
2.2912865098569206,0.7134113385504119,-0.44237084418839534,-0.8307364954172004,-2.2091904703942626,-0.22323407658685035,0.26794003542929845,0.19206320961528497,-2.2091904703942626,-0.5596960010551835,2.2912865098569206,0.2410077658745282,0.8333101606994522,-0.29178250643103065,-0.40295459025062275
0.5401495055226424,-1.0316937254000558,-0.46295532192333444,0.005209151969276293,-0.6048833462875476,-0.052433669453132374,-0.03863654592027539,0.42842003996423955,-0.6048833462875491,-1.489439895354114,0.540149505522644,-0.03844242651008377,-0.6819812776601614,-0.00728545999396724,0.7303222842264276
0.13205888203867655,1.1760043672402425,-0.42231115812938835,-1.6052880792137025,-0.9922007185607171,0.33206597050800074,0.04251498946906651,0.12171627813727043,-0.9922007185607169,-0.8515948701028482,0.13205888203867638,-0.4085848803449684,-0.3910636596713454,-0.1433360055144595,0.8121467842459889
-0.32676200043229775,1.34557858407639,-1.0101650929164183,0.9359802073529673,-2.6053999027777706,0.2906911541986139,-0.09445148960685146,-0.12852920633297785,-2.6053999027777706,1.2713936985129388,-0.32676200043229775,0.7399981718869801,-0.281390865414745,-0.5302337540225452,-0.30343706523796216
1.9592010906534414,0.9088698414319047,-0.6688471575771879,-1.142210322096233,1.5365380511294213,-0.11488284611945206,0.3100819298288555,0.21492156745724206,1.5365380511294215,-0.9021876382415162,1.9592010906534412,0.6088489607781237,0.3445094418998042,0.7061828395399341,0.10918784062614324
0.634608962304259,1.2547677425973585,0.5170791964569434,-0.40577560295592874,1.3565334399689832,0.12215224163474583,0.08109382763950367,-0.2012012420313239,1.3565334399689848,1.3660713360983734,0.6346089623042608,0.3090518480689523,0.6187678244480221,-0.187798068598651,0.6973845568003665
2.6696319755763724,0.10784773817431548,-1.2036370600762187,-0.46663169016489214,2.89192502866531,-0.07322450653484876,0.04350156672102617,0.45393930367656204,2.8919250286653253,-1.5624210120667952,2.669631975576357,-0.24996045619301382,-0.66451300985663,-0.2493035759261555,0.6586273279340106
1.4983470725722121,-1.0583590340342353,0.6621628449512373,1.4961819207753237,-2.711206354031763,0.01829421580252946,0.08672552197157683,0.04888257026824694,-2.7112063540317624,1.099985731692326,1.4983470725722126,0.6858779859423695,0.48548151106607845,-0.4978857925855357,0.21445006028003102
0.6456034309082095,-0.5512601815592166,-1.3162912698005924,0.11835317194921524,-1.3396465261442818,-0.07678838034137617,-0.06688340530851516,0.4566575174824396,1.8019461274455122,-1.3923943741791993,-2.4959892226815845,-0.18677711878552644,-0.6967364961699987,-0.2922824373445103,0.6278881585305487
-1.3142458635024974,-1.3160153982576432,-0.6371504786074019,-0.004229044350754663,-0.7443165620324619,-0.04489580542819211,0.21688534196805898,0.3777590308071859,2.3972760915573312,-1.1841977323739934,1.8273467900872964,0.6328409886508155,0.4880353041548442,0.5564689208875458,-0.22732392102063856
1.7812547421874267,1.462799503965714,-0.6612996642961535,-0.9992501732876649,-0.4370588575877328,-0.06581638934954304,0.36427187677413425,-0.00830905835016589,-0.43705885758773266,-0.19775033361810412,1.7812547421874263,-0.06075956987766026,-0.22833425338716537,0.7418098662132425,0.6276064577321512
3.098244185111777,0.4018030576760554,-0.7883622643377066,-0.6354519879545621,-1.6370176245204795,-0.2579464020334453,0.011709098166896349,0.3507471665508551,-1.637017624520479,-1.0220111946162131,3.098244185111776,-0.3202954931255371,0.6439490536404141,-0.5881412813204426,-0.3699057266464418
1.6528826602932263,-1.3954958487321303,-0.2994981268038399,-0.36120094606350817,1.8343294976123894,0.02935242952597989,-0.2109174176913352,0.3695767734402951,-1.307263155977404,-1.0853977319903148,-1.4887099932965668,0.6607642396831085,-0.05121137231042183,0.6915560384211745,-0.28725991823659963
-0.5871334254976155,-0.43134220254149724,-0.5508572476059109,1.279344012347382,-1.3786053784054675,0.16988173959533814,-0.10505639053202229,0.2422432243792465,-1.3786053784054673,0.297144562199974,-0.5871334254976154,-0.5690284185359793,0.2913538184569901,-0.13072551142556046,0.7577799496103728
0.9510729969544904,1.1376577022759489,-1.0809455332576938,0.019774867634364535,-0.24126192187538464,0.24960192166404088,0.33301300965110847,0.07222437127661024,-0.24126192187538475,0.07648703665261958,0.9510729969544905,-0.12428547991776905,-0.021307610527857533,0.45824672805594535,0.8798346671058281
-2.9914918753568007,0.9996034168393915,-0.7475936656666454,-1.6473705134324432,1.3575190622337874,-0.2535581252435794,-0.04016255936612519,0.2346435272077338,1.357519062233787,-1.395360762259697,-2.9914918753568003,0.4625635151063711,0.517265297176321,0.5645563592465005,-0.4469314534286734
1.276605782809308,0.8686218100940444,-1.4512700703812125,-0.6415837998916045,-3.0176593397713316,0.09056304628124415,0.2592991794796272,0.34209638672204923,-3.017659339771331,-1.2242320601787724,1.276605782809308,0.6348277002939128,0.5152915254862124,0.4303819597080473,-0.3824131319129806
-1.4873780219841315,0.9553894306509685,0.4758360285226835,-1.1155802770552046,-1.2158918817179507,0.03593351788011566,-0.2862438581398583,-0.05851145999340953,-1.215891881717951,0.3156451821184474,-1.4873780219841317,-0.32781334601486495,0.4768353381995925,-0.4827271089984039,0.6573743291737685
1.6535692781440954,0.4086745801145344,0.2948323294972348,-1.5412708332289902,-1.540139966123898,-0.010668389617483013,0.27323655626691123,0.20573867531755105,-1.5401399661238984,-0.8377639236172207,1.6535692781440956,-0.2158967889612301,-0.6656828789878019,0.29073608287319874,0.6524779009700561
3.0305678226300463,0.04701683837512949,-0.7124854650463709,-1.4107485762622303,-2.6991413026709647,-0.03799547405622188,0.005573659158335201,0.40234945031190433,0.4424513509188288,-1.0653754506563216,-0.11102483095974705,0.16124113044035626,-0.5051983019446015,0.0646322255362629,0.8453393691227429
-3.0356987885021183,-0.45132199204185786,-0.03755373278546825,-0.470525166025233,0.9368463909236691,-0.1538641942641369,-0.017629947795247364,0.3739920530981894,0.9368463909236697,-0.9594008908525593,-3.035698788502118,0.39002619146289713,0.42175488231724073,0.7794360062466402,-0.249963800140751
-1.501673060607519,0.3912494890045666,0.8364658888621879,-0.6116440803665069,-2.62661493950499,0.02877580910749076,-0.24230744725659548,-0.04026280318937591,-2.62661493950499,0.6160712975002474,-1.5016730606075188,-0.6210618272536611,0.6851521830140519,0.04879854407457833,0.3774485328301386
-0.7009222283199743,-0.20899722844907753,-0.5602545129732783,1.512384984879995,-1.0656732222671415,0.16748933518960463,-0.13121218033990265,0.16803083823772466,-1.0656732222671415,0.7431332434576392,-0.7009222283199744,-0.3371693900284072,0.4562354585743816,-0.10233005680624752,0.8171257970724738
2.8317345774188576,1.1052414762499922,-0.029826563022950614,0.19046070076658728,-2.087933748997172,-0.20893388859993645,0.07073662970254645,-0.16572018454166285,-2.0879337489971723,1.2658756139936287,2.8317345774188567,0.40139775475543726,0.6427228836092742,-0.47944490431827413,0.44262819734571135
-0.8239469206826397,-1.1880781575103132,-0.28619497285612994,-0.5573038939866353,2.3162546654814054,-0.10263554585736331,0.12383275881232556,0.39585228217530277,-0.8253379881083878,-1.1100156292367147,2.3176457329071534,0.30584193405848237,-0.5056249408373622,0.6287882364913606,0.5054003207603509
2.6040162958520883,-0.06918238049631809,-0.058470802931231525,0.22458969273385665,-1.6101473743255386,-0.2429684351876085,0.15199685761955978,0.1892017278412002,-1.6101473743255388,0.09693650930630726,2.6040162958520883,0.22358741505453988,0.6852640132689977,-0.6766632151715736,-0.15016255585652713
1.0637304297007377,-1.3654454628280712,0.32375391359872285,-0.37461171944912053,-0.32923080993220966,-0.004162575877111309,-0.029094871265989163,0.37374076661903577,-0.3292308099322073,-1.4163032686784685,1.063730429700735,0.2181235043288951,-0.6161289268746744,0.2881356660421946,0.6998464976564256
-2.854399798707284,-1.4521592682708282,1.2402403134856335,0.25477513823912945,1.9519888983017153,-0.13791747538013602,-0.04427935798506058,0.11772948106953635,1.9519888983017155,0.042856183453934715,-2.854399798707284,-0.13038220859367022,0.8178285496421919,0.5569897466491547,-0.06260483367996439
1.303463331152198,-0.28603932605659654,0.734389926927165,0.3059600394693287,-1.8799420128212145,0.06876482071845824,0.20725486734358456,0.02609600488928583,-1.879942012821214,0.7543106403398969,1.303463331152198,0.728653398484748,0.2827057239113867,-0.5690561967728562,-0.2555714057925458
0.3013828489184638,1.0436767297440226,-0.028205100332915345,0.974400542326644,-2.596646719701241,0.12961868156795167,0.03656201077994626,-0.14791650289542108,0.5449459338885523,1.1517204818520423,-2.8402098046713293,-0.5524077302152247,0.14442063318587206,0.8206280599922174,0.0236213348916785
0.6147137466247763,-0.08215179673848061,-0.03697301362980232,-0.7386279104125619,0.12575801580354629,0.20877748244752686,0.13891672844061004,0.3244160266011236,0.12575801580354615,-0.8577527207808451,0.6147137466247764,0.1800310824985888,-0.3782886008815792,0.2995030625695839,0.8571956948613796
2.308204159666305,1.399973389035631,-1.3078437785865642,-1.4440041233313186,-0.9671916339016944,-0.18186534121310668,0.21342642695605363,0.2018936301940431,-0.9671916339016929,-1.3518745128822518,2.3082041596663037,0.3596810143043377,-0.5558715172996432,0.5138275582065407,0.5455434580594831
-1.6130605478381506,1.0454925856462554,1.1526675345591668,0.5002843188962911,1.59137022322343,0.015976110086863213,0.09402142629216878,-0.06585418285245034,-1.5502224303663628,0.4431482144880805,1.5285321057516426,0.6014623910702233,0.3590965811554041,-0.5932659168471422,-0.39664617663367147
-3.0588916852844137,-0.5186262715961231,-1.0890179350988503,0.8045839328369329,0.0242692603464425,-0.051384588282693544,-0.0052539503355441,0.4212382809871784,0.0242692603464425,-0.8030602738580405,-3.0588916852844132,0.39000268203259164,0.027314770022656663,0.9194134753650122,-0.04278636071489045
2.654833138957608,1.3205044688613037,-0.6305190768751929,1.6417826954761503,2.5035661592040594,-0.09017027276692657,0.05407186987994811,-0.12648198503165248,-0.6380264943857339,0.8098245661275323,-0.4867595146321852,-0.18963009511074283,0.43250634869183335,-0.09041230112332324,0.8768148614018437
0.6563946598842794,1.132365731866619,-0.4985985248388156,-1.552471025223212,1.90097187612275,0.26771686532601374,0.1969899608428072,0.1454505943799887,1.90097187612275,-0.9187038181954085,0.6563946598842795,0.7734950486954282,-0.00887133160671552,0.5094589221526619,0.3769327735262998
2.2669259151861985,-1.079434106457432,-0.6498688416304608,-1.513293852476071,1.8523398063494407,0.1914175444271945,-0.21469298114747004,0.24741725346772217,-1.2892528472403524,0.10100414697417048,-0.8746667384035947,-0.5265623159524911,0.2907246074683231,-0.3106235563810827,0.7360192499196653
0.3534190310335594,-0.825646608085544,-0.547582823634137,0.49027063814752636,-0.32340106319712536,0.0568423084555737,0.016542684276103937,0.40875498856154585,-0.3234010631971254,-0.8829587935721548,0.3534190310335595,-0.06916193237520708,-0.4407248919929226,0.08914411367284833,0.8905231741428384
2.613097802960149,0.2011962729995096,-0.7347011193594613,-1.338059282412425,0.5893539334275659,-0.08179275838470176,0.05476530342476424,0.39552247229447646,-2.5522387201622276,-1.2700285248174163,-0.5284948506296441,0.7886187022998457,-0.034904957253704356,0.6089862197452492,-0.07744656546558738
-0.7118680446091119,-0.6347596285611588,-0.485604741936577,0.4443013827397142,1.288126978057035,0.1042380881182419,-0.07958136482941913,0.38823460457938097,1.2881269780570355,-0.6760629877580216,-0.7118680446091121,0.43855382078432975,-0.44596617934310084,-0.07623936579586722,0.7765128925269864
-2.396396618473129,-1.414804629242798,-1.3416954439732083,-0.2540823391617113,0.5576854658740436,0.30287241876587834,0.2683772707322444,0.17051103054635533,-2.5839071877157496,-0.13101024121207572,0.7451960351166642,0.8869304152493187,0.3660054878968155,-0.041371698006377994,-0.2787163503261948
0.20729784806853235,-0.2557690698533066,0.3680161760633791,1.331026095296728,-0.8856872831031484,0.14346494899178275,0.027649596810403857,0.01731350065779469,-0.8856872831031475,1.4432732015068002,0.20729784806853307,-0.3817235764779506,0.5604023280762684,0.3517410155123693,0.6453794231720652
-1.2163440345653143,0.24571729223523775,-0.24792676695345595,-0.3528130657370314,-1.8103490874331958,0.125830225974508,-0.30758085740816915,0.23353523341992757,-1.8103490874331953,-0.3550225404552494,-1.216344034565314,0.6976654335340692,-0.35284394888908693,0.4612860893314432,-0.4194987894778464
-1.5508141354629297,-0.7109711627053428,-1.383014512952636,-0.9784258226772443,-1.273765801248838,0.006277122294028689,0.28636078488879685,0.29058904468995506,1.8678268523409556,-0.06918115525456958,1.5907785181268634,0.5771235981810384,0.5593919251603596,0.44389999676601977,0.39618407257117916
-0.9214925062940988,0.10078399193416843,-0.5959386587056555,0.17864097746364171,-0.0805858148640266,0.1918422346891265,-0.23691305709825594,0.2930017777659738,-0.08058581486402666,-0.3165136893078453,-0.9214925062940988,-0.10564395806869675,-0.12336218881485551,-0.44439047864106895,0.8809870753805353
-1.350316196543482,-0.14380464887052158,0.4196191160150815,0.7664286228855015,-1.1862963097852517,0.05686708470682229,-0.20018901030879682,0.018114953970689157,-1.1862963097852508,1.0422430900300612,-1.350316196543481,-0.12040436389984258,0.6252401996158651,-0.23223187524854744,0.7352862286597857
-2.6015040570198744,0.903225734240845,-0.04439607175000915,-1.4345288439119548,-0.6808783010464854,-0.2711854080952172,-0.16978382849466933,0.1128518436982162,-0.6808783010464854,-0.575699181421119,-2.6015040570198744,0.343311189013956,-0.23717202587182007,0.8963584276877886,-0.149761232482762
-2.0925596533794266,0.9273019821247832,-0.7925730807255207,-0.1996376259133601,2.8466971132087413,-0.18678608607486008,-0.34577170398288615,0.11078899571552675,2.846697113208741,-0.06490872451409735,-2.0925596533794266,-0.4909734166915457,0.8581106535871419,0.11102310302546312,-0.10131673552318747
1.1454691010031484,0.6935525640832814,0.005310808865051531,-1.645553540583951,0.23127473023412826,0.13100794652967004,0.26272376951998977,0.19224370107218308,0.2312747302341282,-0.9466901676356182,1.1454691010031484,0.3317046186448398,-0.3249083231884398,0.5233288529946591,0.7145162973059832
1.8273411805218647,1.1484781719256052,-1.0796139214938467,-0.38264655073094955,1.214194857686206,-0.09000583711059268,0.388852505818787,0.13077134757755435,1.2141948576862063,-0.3137823002991911,1.8273411805218644,0.4458014273627195,0.36774703127628255,0.6967334024295261,0.42495384959759913
0.05198771631402188,-1.3854490959820662,-0.29777673879333344,1.5865042114656809,-2.033058612952491,0.035426165455057834,0.0012189712223020389,0.2452979549725883,-2.03305861295249,-0.09672162330971878,0.05198771631402177,-0.8483441275738959,-0.047508654739991385,-0.027427071775388414,0.5265955987942824
-1.7501564460826708,0.49509913750224555,0.5227056617773291,-1.230345779210281,-2.0321992527422537,-0.0420504611962665,-0.2981131618133833,0.08885406437056816,-2.032199252742254,-0.21254097993070586,-1.750156446082671,-0.5846435232140662,0.6130133351050123,-0.4597906867248623,0.2664566121310423
2.8549475030200364,0.4838143768948353,1.0345916836097255,-0.15064497635217156,-2.7198278021191014,-0.1025678561671751,0.03377034522971045,-0.11840833808723897,-2.7198278021191014,1.3677610841523897,2.8549475030200364,0.23915593496430904,0.7312939258984712,-0.24883132465091118,0.588299757426281
-3.0761321375786044,0.46471519014045315,1.1510446287605998,-0.7211812215519231,-2.604760145618526,-0.16069872619063158,-0.011321122988345155,-0.08510650252844684,-2.6047601456185263,0.8945785973491298,-3.0761321375786044,0.08619717142339299,0.8726257725607087,-0.22533934495106367,0.4246368899641881
0.7131870353853182,0.954499621214909,-0.11582649996510441,-1.450525735689609,-1.748971031205838,0.2629155706861123,0.21706341937971188,0.11329016103577855,-1.7489710312058382,-0.6118526144398044,0.7131870353853185,-0.6181339821910865,-0.4364066197390663,-0.003027107408476825,0.6537969707250478
1.729167761676619,0.35837765268875055,-1.4656295315447951,-1.05901861509476,2.2319366043705364,0.00674017774023493,0.03293380396138554,0.4139116305478846,-0.9096560492192569,-0.9753221596389885,-1.412424891913174,0.5684373418003545,0.06839170682838976,0.6716342990221743,-0.4702222147676981
-0.8492588024631229,-0.24339286474468924,-1.1129913499471544,-0.39124970260396075,2.322923654806163,0.005903256409623437,0.006929756940173684,0.46768443118615843,-0.8186689987836316,-1.3939587362939887,2.2923338511266715,0.41084826658714174,-0.5206830882003601,0.5357138544212566,0.5225930440463189
-2.577358947882466,0.9647883229152283,-0.8484106904844566,0.2048487028761956,2.8760299634922943,-0.3204052706109025,-0.21036702907022395,0.04792407747482625,2.876029963492294,0.32122633530696754,-2.577358947882466,-0.2927229511532372,0.9338665761556914,0.16965037369079464,0.11586734878281849
-1.9007170534802211,-0.678855989938537,0.2545245964471037,-0.23952622039908267,1.7550395490249557,-0.04532159058492842,-0.1673934429617339,0.32352070931055815,1.7550395490249562,-0.6638576138905161,-1.9007170534802214,0.253335400478407,-0.7127189533318199,-0.3458521895264174,0.5551928776793014
1.4298095724883515,0.6934196216899577,-0.06536243115844909,1.6329757601791688,1.4007239325230594,0.02591877156904029,0.09806897695364879,-0.05324866994553893,-1.7408687210667342,0.8805597028791161,-1.711783081101442,-0.2460090543703056,0.7023981236302056,-0.2266557871120389,0.6282862208080141
1.8348720847372304,1.4998553216525825,-0.1249125577005008,-0.8839213131730004,-2.2609552695931643,-0.06478222846231088,0.28396793069920284,-0.15220469864776143,-2.260955269593164,0.49102145077908155,1.8348720847372304,0.6156485201532389,0.6337954223702331,-0.46194434771890786,-0.07673123110062505
-1.8497560053196083,0.7187493589493519,-1.496838734283355,1.967653441985228,-2.5194761145987767,-0.05684111721961557,-0.240343264339779,0.07902302657326996,-2.519476114598777,1.1895640666512248,-1.8497560053196085,-0.33768776628528807,0.7329021165895918,0.11865720622223379,0.5785688614255726
0.9016025039533986,-0.010579704947667468,0.0009743892538602861,0.3720295542239056,0.9568564850340704,0.19548681590144892,0.2319849302168251,0.13238833127890548,0.9568564850340707,0.36242423853009864,0.9016025039533987,0.3379019581438788,0.3413027648723645,0.30575243210365466,0.8221010519612002
2.1628383330410887,0.10834849065384056,0.6956817259538726,-0.13622853056784923,3.110202932176301,-0.12693946305458748,0.20659616462158198,-0.003917668070916841,3.110202932176301,0.6678016860398643,2.162838333041089,0.4395199887322526,0.8361944919400044,-0.14095246117120405,0.29619816819787836
-2.0480700580538898,-0.8313463270860504,-1.321579223329463,1.305474574961648,0.6704558392244948,0.030834425933585055,0.03641961802459465,0.38662594366891095,0.6704558392244947,-0.8474509754538653,-2.0480700580538898,-0.17574725127908963,-0.45804190509316944,-0.6649974843141293,0.5631064399403934
2.112918723203487,-0.07197054452674712,-0.7603117322688987,-1.3012922796140152,-2.979287727394893,0.005235920967904362,0.01123007373882337,0.4154899694170622,0.16230492619490045,-1.0080180971801322,-1.0286739303863066,-0.17500456142332876,-0.45399385774627415,-0.3952830791902868,0.7791112038185112
3.019193927862986,0.09187566195117891,-1.0162655606282298,0.8606177177895813,2.70391742954993,-0.25548971725778213,0.03290488583562349,0.29390642769279196,2.7039174295499304,-0.06377218088746939,3.019193927862986,0.06658033811410494,0.9734044382266148,0.218481891416201,-0.017791046639790226
-0.04977023293912897,1.0848096724393397,0.795631531394906,0.6525104952150362,2.245434079575929,-0.03219904667555244,0.002201615004958739,-0.11123217152297032,-0.8961585740138645,0.6086409545405114,3.091822420650664,-0.28026530866724686,-0.40648055390622445,0.8628316792181777,-0.10838085343491888
-1.7949998829608997,1.469839729599434,-0.3433542298578083,0.7162406696477117,-1.0099359294115513,-0.019176542924922026,-0.13671682212812453,-0.217076843789628,2.131656724178241,1.2988664842004556,1.3465927706288925,0.36248364386575416,0.6633546260114811,-0.17350143234668772,0.631239654214325
1.3754721679613677,-0.4812494564070624,-0.3335452269505803,-0.7738153664420832,-1.8564952877416705,0.020588150884472113,0.04340812274311761,0.4337659031294919,1.2850973658481268,-1.5529826037900674,-1.7661204856284294,-0.16213420563415915,-0.686441860491032,-0.1747173856779677,0.6870108490197568
2.178153567680998,0.6775264510561301,-1.271081226857155,0.5990129969507778,1.7005591045612998,-0.19415170162277565,0.2966244006993931,0.21266728284273834,1.7005591045612998,0.005458221149752696,2.178153567680998,0.34655949082527243,0.66677958485245,0.5837382971551892,0.3074916339955972
2.95003368745539,0.44246325413582266,-0.40617168990749897,0.8953588158811943,2.2407237517903265,-0.27814974433439327,0.05627075680728419,0.03238281739710927,2.240723751790327,0.931650380109518,2.95003368745539,-0.11772744369368329,0.8193506678561222,0.34851697310227564,0.43970518707959844
-1.8111831814456898,0.0017626490744881984,-0.952566269533117,-0.47662003259790264,1.0232792989728297,-0.016346297720383842,-0.11563934234376716,0.4462424389576379,1.0232792989728303,-1.4274236530565314,-1.8111831814456905,-0.2206687265399161,-0.6435179548762919,-0.3207696958651814,0.6590119551978139
-0.6357927776290251,0.35240228444575283,-0.4343995266469909,0.5898260397151807,2.886893970212203,0.27724450997350253,-0.19575700716659641,0.10394465681538761,2.886893970212203,0.5078287975139428,-0.6357927776290251,0.9219644758173758,-0.26979240018041545,-0.27510151720159715,0.038893718889575934
0.8332721119433075,-0.7479429510874296,0.14883613961364905,1.8754640757136964,-2.7542446642015235,0.06527796021447232,0.058640012566793284,0.08694692512641246,-2.754244664201524,1.2763572642399157,0.8332721119433069,0.7671429809667677,0.21411028152328995,-0.5971450025170035,0.09521701564534957
-2.7008683267119897,-0.8793735386841476,-0.08533769963352245,-1.514179711496559,-1.4663793058580028,0.13717691057656606,0.05904165412880151,0.35965116157651544,1.6752133477317899,-0.6627017037755641,0.4407243268778037,0.7332237226592323,-0.05887197513696002,0.3742098946723384,0.5646981652197282
-2.4895238455007376,-0.8724181863511166,0.9897844478979976,-1.6881124633776183,1.6885392934110466,-0.020232711140959626,-0.024608834982632943,0.30516221232584007,1.6885392934112362,-1.570746201830737,-2.489523845500927,-0.2756655359368429,-0.6511616208085683,-0.2756963256929971,0.6511440638460835
0.8350228015136598,-1.0572839067752333,-0.879596484164718,0.5492327399112706,-2.207942326707202,-0.06520997186024009,-0.08528010892361541,0.4158989409414954,-2.207942326707202,-1.3876476510286804,0.8350228015136595,-0.5108722078405508,-0.5414641809633667,-0.38170468122901435,0.5478390861536335
2.460373340183798,-1.4791140762348944,1.0647658150249515,-0.8823654436051543,0.4726075554130147,-0.012401598960564059,0.01978188896536873,0.2985861702412901,0.4726075554130148,-1.2967137048150972,2.460373340183798,0.6157051253977853,-0.020242131436821607,0.7776354272028805,0.12562084633047815
0.7383781044905935,-0.9014295031880063,-0.9560677498205066,1.245835189012437,1.3132445722252455,0.019416466977186644,0.006749873487559455,0.3682719113615259,1.3132445722252453,-0.6116620639960754,0.7383781044905933,0.6289524130519207,-0.012346161258889139,0.4439708706910836,0.6380880036453722
-2.821968356542834,-0.32192878391626456,-1.4929137063294624,-1.406911552668168,1.4071765759036485,0.20821408771153183,0.06494146613642916,0.2960713795685873,-1.7344160776861448,0.080161389324102,0.3196242970469594,-0.7563296063678205,-0.09565210344234795,0.13303455089692445,0.633338779727095
-1.1906175487163788,0.5152391321881442,-0.7470777038254293,-0.15437109424089623,-3.1032587699031913,0.14276699337858118,-0.3272283218034382,0.24762815930874604,-3.103258769903191,-0.3862096658781813,-1.190617548716379,0.814499175932755,-0.5471951649604176,0.16941275581299564,0.09202098682719452
-1.1309225673269987,-1.287693292651889,-0.9568971232974065,1.489520694163063,-1.2199708570692667,-0.020967153008430932,0.07004953152895976,0.3245123861504764,-1.219970857069267,-0.7550697217862328,-1.130922567326999,-0.6115162843124095,0.03020546234733756,-0.5865488888535129,0.530184746149715
-0.7309171188626609,0.9856751116510356,0.6717610793597739,-0.8385060250236898,-2.9383688757397954,0.17444184143292227,-0.14564056380671364,-0.12984919762819913,-2.938368875739795,0.8189301659871195,-0.7309171188626611,0.8379016489102421,-0.36386066677093415,-0.3366544221026153,-0.22845139966579922
2.8267071379836484,1.1334388662869448,-1.2251240909872188,-0.8906723331509402,0.5978883353142068,-0.30950358281017637,0.10472104990767507,0.23599952221559506,0.597888335314207,-0.9823575578512141,2.8267071379836484,0.4858893916744036,0.1858075493175438,0.8540265616916782,-0.005068096287230483
0.6741159639675294,1.2922324017140783,0.5531521754045623,-1.6233051076157845,-1.8155968527143325,0.20858464350287842,0.15706632321901204,-0.08286381314688919,-1.8155968527143327,0.22207946950285606,0.6741159639675294,-0.7617774017348552,-0.19468066853584498,0.2847159271694108,0.5483898871428908
0.7163357902745586,0.9732744077638453,1.2809884850338387,-1.0294231509936007,-0.8339390670638891,0.0837304290524574,0.062448923458128004,-0.1345273668537609,-0.8339390670638887,1.2248397418040833,0.7163357902745591,-0.4946109514652392,0.37607132877873445,0.480306283679831,0.6190607694071055
2.386730186843118,1.3582864343367387,-0.03451044288286753,0.591162361584683,2.310933415539489,-0.06570856172836795,0.07310202359788383,-0.20734689764053263,-0.8306592380503036,1.226654300551239,-0.7548624667466747,-0.11263571426626853,0.6111852513422786,-0.05984343996162041,0.7811431028351741
1.0792526444979016,1.435809231973431,1.1659640793543935,-0.502051520512576,-0.09478496606894193,-0.014802550884610936,-0.050063355036107496,-0.14849368944826072,3.046807687520851,1.041870862774545,-2.0623400090918915,-0.4653870919724685,0.7311534040020449,0.2906862791275861,0.4053776530207245
2.947803135851651,-1.4557946243449218,0.6947267368730428,1.4926526061406629,2.8374808612309645,-0.07050070301400552,0.01619096119576087,0.07699752917396988,2.8374808612309645,0.7315847186687838,2.9478031358516517,0.03537505328396102,0.9239774939224799,0.10658119259562567,0.36558808201962045
0.38579926178177937,-1.2444772303401281,0.5678757577770668,-1.6212405705936348,2.387161969275114,-0.10185041923579735,-0.04624066998766026,0.320076218492159,-0.7544306843146793,-0.843750610433097,-2.7557933918080137,0.4380434010794262,-0.2568267088848343,0.8613626140430257,-0.014576265060671795
-1.8881040804812879,0.6746800123591399,1.1057354950529357,0.2617242819547376,-1.38497478471797,0.011854149517101375,-0.00044411887144774065,-0.11892909640233151,1.7566178688718237,1.0994528642229802,1.253488573108506,0.33589745295099144,0.6550723522237277,-0.006397318512858605,0.6767659778453362
-0.8227522507623317,0.018065141027489684,-0.6300605150500348,0.14373993385869954,2.9497935623026827,0.1957466185278414,-0.19801355781043153,0.330270967793747,2.9497935623026827,-0.46825544016384546,-0.8227522507623317,0.8785853030488601,-0.40753495779508436,0.1744184974860221,0.1777113141480307
-1.6503574994463832,0.17806613408174954,-1.1349233955862406,-1.2916252535105364,-1.4442417462238486,0.01059143779808413,-0.017666769394736326,0.40683536147215804,1.6973509073659447,-0.893110138574766,1.4912351541434101,0.6908963211576795,0.24946105948350294,0.642536667096662,0.21812401208593726
0.7573544351351971,-0.9663000661652138,0.7841519493774838,-1.4281326778735572,0.7067958848471076,0.0294222538845103,0.01647149747744628,0.3338327894560529,-2.4347967687426837,-1.5313118589285062,-2.384238218454598,0.47290119450789414,-0.5397902119473738,0.4721955248564955,0.5118812104622659
3.0037579139677115,0.963644169166415,-0.4551792042264644,1.2775348306628216,-1.0622361041654602,-0.17923748249105007,0.02652737445740429,-0.10337126355942564,2.0793565494243325,1.3555928579870211,-0.13783473962208181,0.6919257798429135,0.2706080091408159,-0.5665781997833926,0.35636942083718454
0.8898109788948902,0.09416099869076655,1.0796282439159643,0.6820344459870007,0.6970821089515016,0.03656886333188948,0.03032098547764864,-0.08274392924051702,-2.444510544638292,1.2857689649960617,-2.251781674694903,-0.13892994374001078,0.7671328911802964,-0.00424032762649468,0.6262488464048273
2.9446850326279144,-1.391661486726375,-1.1722788452450503,-0.6670908220218394,-0.568580244864322,0.3889901877083855,-0.07520675009391597,0.1593876297273038,2.5730124087254715,0.08943850040347168,-0.19690762096187897,0.9554902216414234,-0.08177726890239875,-0.07024395335188585,0.2746210145928138
-2.275055019444218,-1.3380351791162686,-0.20898798073447233,0.6680970419845245,-2.8834675950240736,0.021263423268186137,0.010903344588868574,0.35916653605888776,-2.8834675950240736,-0.8789261178662163,-2.2750550194442174,-0.4264847969840959,0.7915376977856152,-0.28284930744927356,-0.334028532016576
1.1044155436105108,0.08068563557310471,-1.3147464132655138,0.9990351753534814,-3.010723695875895,0.11556675138850266,0.20572586405961302,0.3393275959526255,-3.0107236958758947,-0.23502560233892766,1.1044155436105112,0.8396659651013387,0.5263622663694734,0.06553918212511632,-0.11665524934266708
-0.7582354155137816,-0.732777485701563,0.4711335848663567,-1.2097915322672441,0.5916655710882077,0.06123896627134448,-0.04663414837345116,0.3614876006335239,0.5916655710882089,-1.4714354331024506,-0.7582354155137828,-0.03680882798040841,-0.6763708424759058,-0.08069256696411549,0.7312019579212599
-2.9155343027607015,-0.14537586170146266,-0.6159979622013856,-0.5020755721749137,-2.1174425375174257,-0.12757622262782758,-0.032101056148026885,0.4272019565486025,-2.1174425375174257,-1.2634493960777617,-2.915534302760701,-0.36685564957271916,0.6663696619911645,-0.45096382495329246,-0.4669047381831284
-2.311633939193819,0.7858084301240291,-0.8452933210531504,0.4589682297900006,-0.5409753522534428,-0.2432713831274102,-0.27909899473124244,0.07833046570390871,-0.5409753522534426,0.3994833388608794,-2.311633939193819,-0.0693875328356105,-0.31674802443798583,0.8429433205271061,-0.4293048074274927
-2.863066237458364,1.281613074886537,0.7118881312100238,0.27195911403380646,2.343276025881131,0.034536215999742825,0.006444446625941624,-0.16262648476411312,-0.7983166277086622,0.876132333459426,0.2785264161314296,-0.4027917552682531,0.3382042471375012,0.2790859253911288,0.8034225135970816
1.4814512333731198,0.6095469173915573,-1.0993373612362523,0.37608715624757827,-2.2583323151798633,0.04419719752232765,0.3594095523186519,0.22713955735939867,-2.258332315179863,-0.11370328759711645,1.4814512333731191,0.6497077777602873,0.6270153502234079,-0.2500533785187847,-0.34957812001517985
-1.8257901342349214,-1.1595080174419774,0.4608857641123676,0.1626383137263887,0.6768090872516899,-0.01936660277714616,-0.12033154713319871,0.29387861174558544,0.6768090872516896,-0.5359839396032209,-1.8257901342349216,-0.0018962655633866252,-0.4060419541779986,-0.6660055848834857,0.625749867381713
1.7792273967484773,0.37260449103169657,-1.0794939974993842,0.18443715512352776,1.1341397156708823,-0.05037983662677485,0.294936241831174,0.3301060103680061,1.134139715670882,-0.5224523513441601,1.7792273967484777,0.49600755715833433,0.2659493940621803,0.7203689325516809,0.40535912972835897
1.7393964525505874,0.20558420269743838,0.3288155972116016,-0.7303227322472002,2.0626349040922753,-0.04048596023440849,0.308349077283303,0.1477991387618023,2.0626349040922753,-0.19592293233816016,1.7393964525505874,0.5891815490692922,0.6200575356820966,0.4447749244757642,0.26564830366055975
-0.6191827341363747,-1.4165025546917422,0.796169605582314,-0.9700954081888221,-0.9377020647423815,-0.008379346083936964,0.014523869367828096,0.33443744328498426,2.203890588847404,-1.5511642962915428,2.522409919453426,0.4953853981832201,0.5102945256465402,0.4975868622972762,-0.4965884803649561
-0.7198724680319901,-1.179859042813121,-0.9584054317687674,-0.7948557454769352,0.5078922838310085,-0.23754753557782943,0.21881383241440178,0.26804013929047105,-2.6337003697587846,-0.20847243353096956,2.4217201855578034,0.3146037725551379,0.910192760537014,-0.1983788452479709,-0.18226200569006837
-2.801671060952312,-1.0786992047837343,-0.12490369065242102,0.7464522258172772,2.000856946701249,-0.06923433656850397,-0.028728414438119493,0.32726527370726843,2.0008569467012496,-0.45715066961887785,-2.8016710609523123,-0.018083045908895694,0.8286915526428726,0.4860611408418466,-0.27692576874051356
2.4679767041997955,-0.7609769797130161,-0.42640824189120985,0.22227515966935996,-3.066252752829449,-0.039819406382897236,0.04136000483797004,0.4148675672725246,-3.066252752829449,-0.9651100619348661,2.4679767041997955,0.2760376165778122,0.8412246585203245,0.12176042381022258,-0.4486855327787593
0.29534717639608576,0.7743340523777773,0.12316690841806999,0.9971862006386096,0.6418965845811875,0.1394518107249736,0.038776638947727794,-0.11392254294317838,-2.499696069008605,1.2469054921553364,-2.8462454771937074,0.06882166607056861,0.7891258487820783,-0.17181107873509333,0.5856832986240252
-2.2164814521981184,0.678596056896891,1.0263041410974818,0.6193959755600214,-1.599869509574944,0.02805435947794992,0.021308698094329406,-0.09513243457414704,1.5417231440148491,0.8172964800353992,0.9251112013916747,0.4449985289173382,0.540399705468325,0.04595994992266999,0.7126234283226015
-1.4118835150235634,1.2279921968174508,0.30781288576186117,-1.364941771352843,0.6818552085687011,0.0579123541637839,-0.28647924748492537,-0.07112340201863877,0.6818552085687009,0.17086331122646903,-1.4118835150235631,0.30569179449364436,-0.15492894455125567,-0.6308936282003706,0.6960767046925662
-1.4637077085842112,-0.6842303724915031,-0.7738969716306843,-0.38536928543241133,-1.6848531329277665,0.002238783531009868,0.09080212525383188,0.4506775807401224,1.456739520662028,-1.2980960240351944,1.6778849450055806,0.6899335419112431,0.09308792119423495,0.7111457915736676,0.0979694329911355
-0.7626023872251331,1.0613894459749402,-0.17128867387021462,0.292884410964541,0.3388042768035193,0.2012967953204441,-0.18085738166223397,-0.1430525302085788,0.33880427680351966,1.1829851830692664,-0.7626023872251323,0.3344285119816136,0.45806640086693057,-0.3917416804376094,0.724479950432376
0.8352090358350033,0.2819798616879412,0.7072647419619948,0.2975168805699664,1.2388897567236827,0.12706821789849326,0.12714295572637935,-0.08095840920806262,1.2388897567236832,1.2867614842199022,0.8352090358350037,0.2264916728525632,0.6348585767405319,-0.05416523580891048,0.7366968419215593
-2.85445149323724,-0.04474610211294561,-0.23102595083192212,1.6146786212372157,2.7851982275664846,-0.1550878607185532,-0.04934138146370848,0.06697857876363189,2.7851982275664846,1.3389065682923484,-2.85445149323724,-0.2192850137140034,0.7480654290282905,0.2249489264475827,0.584559814854946
1.4449368041045387,-1.4300474314110057,-1.2004295965534932,1.4557708268852705,1.504188231418985,-0.009337512375639644,-0.1686382268938943,0.3090247338423504,1.5041882314189845,-1.1747062010792284,1.4449368041045392,0.6941983537380356,0.07244979058923591,0.6859561828365156,0.2056788485463047
2.6710305799431717,-0.8468632803277318,-0.0474761910605086,0.6285298187885664,0.7525107569806755,-0.12305561396898802,0.0686991719178551,0.3008538402088436,0.7525107569806754,-0.2658096525996738,2.6710305799431717,0.20474960182425714,0.3254356299578499,0.9077979056810563,0.16754764620200863
-1.109188487504234,-1.060864488742574,0.8586434599364647,0.22824021937360062,1.6961888256414572,0.09257898297558118,-0.16198314629507504,0.1636810008778736,1.6961888256414572,0.02601919056749158,-1.109188487504234,0.6420809657728068,-0.387611851775744,-0.35656459361194187,0.5570913536733353
0.3217101744343309,0.0976736727737606,-1.0917836931398033,-0.18048085164550964,1.0729537166034198,0.169040687092117,0.052339849906620176,0.43563931189500843,1.07295371660342,-1.1745908720115523,0.32171017443433075,0.4962579414278368,-0.40197452481579254,0.39415204230392803,0.660899920197125
1.7201740320760246,0.08501477073392394,0.7984349670154027,0.2032664728029978,2.8596815644315075,-0.015932414631264318,0.18559895780651917,-0.052017781536957686,2.859681564431507,1.0867162105523245,1.7201740320760244,0.4978271021512578,0.6896954136659906,-0.24279802667914607,0.4664091883448393
-2.646958101078427,1.0570097678957233,0.3538618187731166,-0.48335265063191657,1.081063553588605,-0.19807857082427976,-0.11330714569065065,-0.14853119002219065,1.0810635535886057,0.9275189360369236,-2.646958101078426,-0.4845405818100746,0.3523428663843925,0.799886499124547,0.03544739208264331
1.2071289758607682,1.487127953505067,-0.7528546028561927,-0.35476724702658213,2.1363691040302712,0.1435239306145359,0.34557396874919033,-0.09589357704796234,2.1363691040302712,0.3795061036222922,1.2071289758607677,0.6569755274284398,0.5632651820972085,0.13241923974084352,0.483301806269725
2.353022652622786,-0.979763557612542,-1.3725693485029449,1.4843078599413244,-2.48209322979298,0.06639065657754036,-0.054736792280471354,0.3604790730574125,-2.48209322979298,-0.8680250461741624,2.353022652622786,0.20403690010313574,0.844847815850682,-0.11840638501482183,-0.4801885457154895
1.6664635561124523,0.9145717277698289,0.3455168323655491,0.2958987538922211,-1.0586687174477842,-0.0029329018157712252,0.15561564505255224,-0.15896366953306867,-1.0586687174477798,1.555987314027599,1.6664635561124568,-0.690246373165516,0.14117940529085102,0.6933798657664192,0.15117103427348552
-2.4357165364357787,-0.5182329640353303,-0.6362854982390824,1.6536195767663966,-2.7030521222988986,-0.10035136049158738,-0.09576643324948801,0.21964928966862296,-2.7030521222988986,0.4991011144919839,-2.4357165364357787,-0.27652045763009103,0.90609097301165,-0.1144650771255556,0.29905406076073776
-0.3602871808577617,1.230207164191357,0.22586051781937888,0.5454926355740766,-3.064164011429797,0.08336187644615249,-0.026884213626114505,-0.18847796246696324,0.07742864215999634,1.1400323360049809,2.781305472732032,-0.524676977107907,0.12867417007996085,0.823905797933758,0.17127832255799258
2.422972493600817,0.4723174504715604,0.3228692057183893,-1.4402039611672373,2.0905572435768547,-0.20920760967436117,0.19347471650980108,0.1699253264005714,2.0905572435768542,-0.6450173049772875,2.422972493600817,0.4373447273946399,0.7121604469912745,0.5418216645525722,-0.089366498100666
0.02416175634580542,-0.9999978487878054,1.0411733268880035,1.163104141502515,0.7048489603492878,0.09828819233325614,0.002085280083349834,-0.0051563313291940055,0.7048489603492881,1.2042796196027132,0.02416175634580553,0.2780241948993222,0.5349927955220423,-0.18615093610517547,0.7757790180052957
-2.7647068321099537,-0.39064421063279653,-1.167582475980953,0.6561595850285042,1.3295601918792435,-0.05671192225532663,-0.027196605576461967,0.43613133117719816,1.3295601918792437,-0.9020671015852453,-2.7647068321099537,0.2329950268141434,0.6096348123158596,0.6454325717097555,-0.3968318390308602
-2.772217315269359,-0.8394973155012995,0.8909653609907697,0.058176903248950085,-2.3255690059815173,-0.17743391627718774,-0.07333833691519787,0.13901395414439432,-2.3255690059815173,0.10964494873842034,-2.7722173152693586,-0.14693948608255228,0.9049382627280719,-0.38021478313707396,0.12219757266215375
-0.5727775688319663,0.3253290719118107,1.2715941034237939,-0.21939377339042077,-1.6937849601014832,0.08851638517153075,-0.049344977439086245,-0.10737316872004357,-1.6937849601014832,1.3775294019451838,-0.572777568831966,-0.4359510191473517,0.5672106521723543,0.3123556393226809,0.6250221912459727
0.9872481775544744,-0.4318063647551986,0.43015714038311414,1.434321912721891,0.8715638212692869,0.07491631335930546,0.09529144100160061,0.028018896594598372,0.8715638212692863,1.4326726883498067,0.9872481775544738,-0.0016824207575730976,0.675046724764272,0.07987827515027511,0.7334361253745555
-2.840889734596524,-0.5867893596857923,-0.398041386587038,-1.502127946968085,1.5591260419688777,0.11595733758565296,0.03223785627389055,0.379805795523534,-1.5824666116209152,-0.6546339603488779,0.3007029189932693,-0.6320106530286409,-0.32433204864404275,-0.1263760759305756,0.692387423422074
0.8146663627944597,-0.6431325418010366,0.5845995215242326,1.2753837782229114,-2.1742015152864904,0.09537185764483556,0.08840076918790477,0.033962182059977294,-2.17420151528649,1.2168507579461076,0.8146663627944599,0.7722878461827686,0.04371411347628539,-0.6157804016549343,-0.1499168298058982
0.6560412911262938,1.1015184198170784,1.0579704053847396,-0.40994510439517184,0.05631776836657654,0.034032072568281196,0.016959873407360583,-0.16410393168011805,-3.0852748852232157,1.3920489327831476,-2.4855513624634984,-0.2300444514571211,0.7320089758130609,0.18603018204405178,0.6137061031565212
3.108621205870554,-0.0824895047019889,-1.2708807027862363,-0.3792517838328022,0.2958636403939803,-0.0024140971294705008,0.00047542594351944435,0.4675388914918005,-2.845729013195813,-1.4089706622687654,-0.032971447719239544,0.7550942440227548,0.08302134095697405,0.642332545599141,-0.10173023372399011
-1.4948859429550214,-0.3953768058409597,0.89230183263671,-0.06446602451945127,-1.1535533901147197,0.029189866206905023,-0.22601433994780243,0.06090767017237101,-1.1535533901147197,0.4324590022762993,-1.4948859429550216,-0.26839475780973376,0.49396073676425156,-0.47071745172725415,0.6799942096481206
-2.785969623484143,-0.6380654027721124,-0.6522777749127855,1.3107034641452533,1.0112420922352716,-0.11626361789103112,-0.04763889618607981,0.2925194618196269,1.0112420922352718,0.02036028646035537,-2.785969623484143,-0.09443137932025052,0.47511418537811045,0.8619073251662223,-0.14988324882046491
1.6728725525619428,1.1905627223173676,0.1057809621631407,-1.204573958788132,2.268946154350559,-0.020628139198046257,0.31853388566923524,-0.04925615591977874,2.268946154350559,0.0917697256923764,1.6728725525619428,0.5923029086565225,0.6850004336784359,0.2854987612063718,0.3137548845946546
-1.734112554242243,-1.307753872604176,0.3150327844800058,0.935053352125373,-2.3781837191606234,-0.005825409788006278,-0.10817447009249645,0.2290018635461431,-2.3781837191606234,-0.05766773599879693,-1.734112554242243,-0.6084427733488088,0.7003131792466806,-0.3012007782452033,0.22053782831410243
-3.021355860094571,-0.2651052405809531,-0.655646065560062,0.36872585070925257,0.14973361318982947,-0.18703283802996845,-0.02404706397666817,0.37167144224925863,0.14973361318982947,-0.5520254554317623,-3.0213558600945705,0.26694327006389956,0.08816361271961733,0.9564964977928879,-0.0779930616770318
0.004943596512866577,0.528155382959262,0.1983915051948979,0.12474159045299715,-2.4600064041207825,0.29503014137258177,0.0013991982183476058,-0.044373132372449615,-2.460006404120782,0.8512884786071573,0.004943596512866577,0.8587327495796329,-0.13588586250375795,-0.3899125081511366,-0.3034490618840389
2.2472383738531576,0.11423702793281332,0.33617348492372434,0.16157085488822598,-0.2891180160421505,-0.16367441384770348,0.21882886243298227,0.038317202359325245,-0.2891180160421507,0.6119813677447636,2.2472383738531576,-0.3281839951685036,0.005045593188668029,0.8695848407690453,0.36890650849407386
2.7018422427939104,-0.35907889158574924,0.09448510506547714,1.129658008891944,-0.23939708921157443,-0.1695357840058092,0.08540816713301118,0.09879696070002301,-0.23939708921157443,0.865064222371672,2.7018422427939104,-0.4297986390954652,-0.015035384747240033,0.8906264105724653,0.14775541894629438
0.6084677143995272,1.0809082870415074,0.1184266580755502,0.05973685275699392,3.0112722352653623,0.1910105797949987,0.12470602203315419,-0.16880579142786917,3.0112722352653627,1.2590717978740518,0.6084677143995274,0.7580600687736128,0.2781992509733633,-0.5447728719300408,0.22621367531142
-0.3943070418884238,0.7859297113863581,0.4186442051366306,1.319231176781989,0.1920226612635112,0.03222337791371238,-0.00841492049284176,-0.07518286665470578,-2.949569992326282,0.6177875602848153,2.7472856117013693,0.2143270450387127,0.92420433730917,-0.14883139735204481,0.2788538610565209
-0.8105300564158688,-1.4512554662266925,0.09146569478963573,0.03128892029311148,-2.7319095982878583,-0.029335968061454002,0.043467693436499255,0.37468426034085334,-2.731909598287858,-1.3285008511439453,-0.8105300564158688,0.7579110327314672,-0.18870396756017152,0.6178354325422365,0.09078026980747618
1.1177711495123122,-0.5279410589583251,-1.3113305516151919,-0.9311906645316085,-1.8036961564784395,-0.08660303941224767,-0.20255697950523785,0.3595660411606734,1.3378964971113536,-0.3711303784846678,-2.0238215040774814,0.2004750626809687,-0.593520345499771,-0.5930244941965841,0.5058312940139033
-1.2433121415811592,-0.3977473334516679,0.871022141459949,0.7989526793683248,1.146258707297823,0.053762636304071854,-0.12293385948198816,-0.02215910093145594,1.1462587072978225,1.2722274873766062,-1.2433121415811597,-0.6452894571303972,-0.15172623402964047,0.6554924040881951,-0.36181538746468234
0.9132303274261666,1.1043497872281889,-0.9626182434263839,1.7396383174538588,2.3372532301310955,0.13370783515449672,0.15760932121358437,-0.0737577753098092,-0.8043394234586979,1.2602227923341296,-2.228362326163627,0.34723320187436474,0.5229219000903939,-0.5656362041487875,0.534824713787686
2.8254799623200837,-1.3066122681630195,0.24194206849214162,1.1030942237913741,-2.5104368525745726,-0.08514021689482876,0.03177269258534285,0.21841780498333488,-2.5104368525745726,0.03842402412049628,2.8254799623200832,0.15548672031639474,0.9376560889953518,-0.3093150808899122,-0.030807780011858688
-1.808167778286191,-1.076054728231161,1.1819618224029194,-1.507298627012322,1.0016967018850624,0.0004918627147044849,-0.047567549243460905,0.2855059984218297,1.0016967018850609,-1.4013915328405637,-1.8081677782861896,-0.21747037631817498,-0.638185501422784,-0.3354724821929551,0.6579392942278781
-2.9910236501681564,0.5093912535258589,0.8399051322859177,0.7555003307602386,-2.4377842756495958,-0.017098187774626572,-0.00441469757300092,-0.09871881044768496,0.7038083779401976,1.0367959370177782,0.15056900342163676,0.26356737929848206,0.4863260282364557,-0.1089766117580317,0.8259196867245769
-2.5590052395528935,-1.4653863576141486,-0.5560238859507408,0.15230198761135716,0.3894421296372115,0.20042455292364808,0.12414781031825077,0.3609121202998572,-2.752150523952581,-1.2724843976362608,0.5825874140368994,0.722871787034456,0.33675837230729444,0.5136939016169807,-0.31649447646377243
2.9082258284785487,0.20101346708840961,-0.46643825010991957,-1.2897342659302171,1.9673924972469439,-0.1545839118591028,0.03959659314757979,0.3721388658528124,1.9673924972469476,-1.555159048951727,2.908225828478545,-0.4550537898534255,-0.544009298255059,-0.4600655116073553,0.534153214706731
-2.7807540089779526,-0.7266418190975434,-0.9062699651360094,0.4803129832860067,2.735020829555108,0.021377413035082962,0.0035386663709773905,0.44062869863741466,2.7350208295551086,-1.152598800947546,-2.7807540089779526,0.03913286643207093,-0.8276308308141241,-0.0707639720260243,0.5554172187768691
-2.282671309896639,1.309543303026449,-1.493598103688671,1.1956594968520002,0.6604842678126892,-0.20773921980151389,-0.25468325697243815,-0.04313580827239891,0.6604842678126892,1.0116046961897784,-2.2826713098966387,-0.534821964858436,0.06706982376466722,0.8177883432633793,-0.20171596433518976
0.5602776951959529,-1.2315243117809247,0.7898786304982766,1.177428894613599,1.566978993370665,0.11164010385359609,0.0625078690374006,0.07068018105470958,1.5669789933706648,0.7357832133309508,0.5602776951959527,0.5624125263509318,0.42693939718093243,-0.06115619131664617,0.7054607158460252
0.05977033190815195,-0.86105677173016,0.19127346123638378,0.1973951090170325,3.047036076054759,0.16950824864793576,0.009425547206575884,0.31067016761525157,3.047036076054759,-0.47238820147674354,0.05977033190815195,0.9710460351093837,0.017964381665898976,0.23501122263889965,0.03894359926197058
-0.5019783696258617,1.422788264008652,-1.366348206255071,-1.3807138186291654,-0.03062224159117166,0.2687354859987205,-0.14091545354787233,0.20232130258176817,-0.03062224159117194,-1.3242737608755841,-0.5019783696258615,-0.1643728738358413,-0.5924712584753035,-0.2049734938255685,0.7615413534776535
-1.1453486047427481,0.5803251881423708,-0.2753530985060213,0.1108871225705712,0.10126860897934842,0.1582860954180459,-0.32283992434245584,0.051718066343435336,0.1012686089793483,0.4158592122069209,-1.1453486047427481,0.15334113598957488,0.1464412169908627,-0.5383114115323475,0.8156361260965047
3.0708997666430395,0.40017403839817334,-1.0947217162272207,-0.4070198682295192,-2.401029523146848,-0.22677226409484008,0.016907675340338033,0.38966275993174576,-2.401029523146848,-1.1015675460585663,3.0708997666430395,-0.16120035930232887,0.8005596624059083,-0.2909274418866326,-0.49847757687446526
-2.7733784585969268,-1.4629423992562365,0.30049753786445565,0.668381383189393,-0.4444679298873164,-0.048636769366277505,-0.023394279499964102,0.2865794790961229,-0.4444679298873164,-0.4940634782023876,-2.7733784585969268,0.2736076297561274,-0.16644196061215316,0.9396793841328386,-0.12016069957579971
0.2892628349532185,-0.3364650564152605,0.9671031731778355,-0.24983879662010522,-1.7717279020632162,0.2311201203546322,0.06521237259928764,0.05584833075275909,-1.7717279020632166,0.38079932014246975,0.28926283495321825,-0.7697819142550069,0.008870018970328346,0.23456809445212315,0.5935780793749575
2.9215707283666354,0.918751199412529,0.5421639173794528,-0.23380982530479044,1.9869446608753187,-0.1672200742315745,0.04008121527874248,-0.15532836020914081,1.9869446608753183,1.2271052914871916,2.9215707283666346,-0.23713328445644144,0.7154545192636671,0.3905706706050008,0.528533052449187
2.1767656821701573,-1.4374856536875127,-0.7143422634312083,-0.4928345228011344,-1.2564112138042982,0.2010621462462992,-0.2728421003888345,0.279989857695004,1.8851814397854953,-0.4969302136699376,-0.9648269714196358,0.6276912010649625,-0.4918524970774314,-0.08800914731957743,0.5969415944733633
2.1411630118890024,0.8418626087824586,0.05959207427977242,0.3843816726984033,0.3159780330469917,-0.11393351925238807,0.1963153019080862,-0.12345606985467167,0.31597803304699157,1.285836355760634,2.141163011889002,-0.4591329625032559,0.3944567106532413,0.6483037187083373,0.46184750131677677
-1.6884814398306272,-1.4844243221051656,-1.1451999520160667,1.9271366628041429,-2.3808720549578446,0.025128854868924175,0.1110436816144281,0.2582551620760154,-2.3808720549578446,-0.7024876113170896,-1.6884814398306272,0.6746410004358477,-0.5668164823599152,0.47278569255669906,0.007230820820130492
-0.5870262331447051,-0.7221645545196949,1.2625479532377022,-0.19238373216300197,-1.5259946883656288,0.16991777739522484,-0.10505594960226634,0.05322645156975102,-1.5259946883656288,0.34799966655500536,-0.5870262331447051,-0.6153446472813668,0.3167017015660241,-0.0914243393648172,0.7160255494457317
-1.9470946632747193,-0.5836364432827256,-0.8223041097309597,1.2685628685378678,2.9564147487028483,-0.034977994943021534,-0.11889345241550484,0.32369861130123434,2.956414748702848,-0.13737768447581744,-1.9470946632747197,-0.553393355701742,0.8249711174777852,0.03783803028008061,-0.10838234476677232
2.492591426740346,1.1886488722802167,-0.5804591226293979,-0.6401629868855814,-1.5130177535756182,-0.29783193109025163,0.2350476799690861,0.01921159427129985,-1.5130177535756184,-0.03197323723476275,2.492591426740346,-0.2077976792856533,-0.6541877911782343,0.6856957508914022,0.24223912889191895
-1.6368626777244144,-1.2918803709959101,1.0430160235623234,0.3225880637961127,-1.2220602839196435,0.0012521678086686357,-0.16244563597772324,0.13660599978462296,-1.2220602839196435,0.07372371636252595,-1.6368626777244144,-0.3697519358919147,0.43919529458536183,-0.583118323134392,0.5747730163666293
-2.8971810751735894,-0.8708642798677346,0.19500561634509572,1.6335219273670527,2.4852692575109994,-0.09092454683252525,-0.025669130621746323,0.10743389586767227,2.4852692575109994,0.957663263844414,-2.8971810751735894,-0.24980988577883226,0.8158037219685625,0.3370899741909473,0.39803223172169555
-0.5190467655468161,1.2261364437470772,0.9083763199979225,-0.8606471806126891,-1.2470262314524765,0.10663684345645938,-0.05406572486518595,-0.17717460852951383,-1.247026231452477,1.2738655831323107,-0.5190467655468165,-0.32978247914321795,0.5871126945257116,0.16814665886927616,0.719908953610115
-0.03912683015707552,1.0530840864096467,-0.5935258999642896,-1.288460514447157,-0.7707896829716847,0.3537483862819283,-0.013378358779276853,0.16457283421944124,-0.7707896829716847,-0.8289023280018,-0.039126830157075576,-0.3513320665809184,-0.36634780052687815,-0.1679439765597773,0.8450738954543495
-1.0270749080852943,-1.3275085503725692,1.0770739525928783,-0.09581759979760851,-0.9399089786994654,0.09048668062298718,-0.12983745308109654,0.19848836082948185,-0.9399089786994654,-0.3462521975772994,-1.0270749080852941,-0.46398930880346323,0.08536355672313768,-0.49940182875819533,0.7266531482988499
1.2405907997102892,-0.9275382036042982,0.07629880335795769,-0.013193354052970951,-2.857280402740554,0.04352431268835018,0.09197344014556416,0.3700747318796803,-2.857280402740554,-0.8644327542993112,1.2405907997102892,0.6969280253602209,0.5707877337241648,0.2626303054434175,-0.3457137734604052
