GyaraManasa17/my_repository/metric_ws/40_poses/table_top/hardware_validation_raw_data_20260331_060618.csv
pose_id,iteration,test_type,status,failure_type,target_x,target_y,target_z,target_qx,target_qy,target_qz,target_qw,cmd_j1,cmd_j2,cmd_j3,cmd_j4,cmd_j5,actual_x,actual_y,actual_z,actual_qx,actual_qy,actual_qz,actual_qw,actual_j1,actual_j2,actual_j3,actual_j4,actual_j5,cartesian_error_mm,orientation_error_deg,mean_joint_error_rad
0,1,Interior (FPS Spread),success,none,0.2461767683263909,-0.1786306741264617,0.3479804561417229,0.3995814818266923,-0.4796334238743813,-0.0179531572070189,0.7810019860602294,-0.6516446194485388,0.5502474769419767,-1.1969395566905312,-0.178741342505925,1.2395580407242384,0.24617676843903566,-0.1786306742123716,0.3479804559951499,0.39958148201624794,-0.47963342363779343,-0.017953157424663576,0.7810019861035394,-0.6516446194484963,0.5502474770842745,-1.1969395562973415,-0.17874134229131453,1.239558040768408,2.038455501830364e-07,0.0,1.588619957804127e-10
0,2,Interior (FPS Spread),success,none,0.2461767683263909,-0.1786306741264617,0.3479804561417229,0.3995814818266923,-0.4796334238743813,-0.0179531572070189,0.7810019860602294,-0.6516446194485388,0.5502474769419767,-1.1969395566905312,-0.178741342505925,1.2395580407242384,0.24617676843972067,-0.17863067421057047,0.3479804559956451,0.39958148201491817,-0.4796334236339225,-0.01795315742749369,0.7810019861065319,-0.6516446194422235,0.5502474770693513,-1.1969395562829308,-0.17874134228285543,1.239558040756476,2.031173296447132e-07,1.7075472925031877e-06,1.5931946872882463e-10
0,3,Interior (FPS Spread),success,none,0.2461767683263909,-0.1786306741264617,0.3479804561417229,0.3995814818266923,-0.4796334238743813,-0.0179531572070189,0.7810019860602294,-0.6516446194485388,0.5502474769419767,-1.1969395566905312,-0.178741342505925,1.2395580407242384,0.24617676843903424,-0.17863067421237516,0.34798045599514893,0.3995814820162507,-0.47963342363780115,-0.017953157424657747,0.7810019861035333,-0.6516446194485087,0.550247477084304,-1.1969395562973704,-0.17874134229133137,1.239558040768432,2.038469438217431e-07,1.7075472925031877e-06,1.5886106874418716e-10
1,1,Interior (FPS Spread),failed,safety_block_jump,-0.3427748706328329,-0.1435113537313826,0.1433644504356312,0.3209884209927846,-0.6099061517335781,0.7228218635147319,0.0500946433382541,-2.75720108140574,1.1512923552939514,-0.906002061125884,-0.7981710357128435,-1.512054037692885,,,,,,,,,,,,,,,
1,2,Interior (FPS Spread),failed,safety_block_jump,-0.3427748706328329,-0.1435113537313826,0.1433644504356312,0.3209884209927846,-0.6099061517335781,0.7228218635147319,0.0500946433382541,-2.75720108140574,1.1512923552939514,-0.906002061125884,-0.7981710357128435,-1.512054037692885,,,,,,,,,,,,,,,
1,3,Interior (FPS Spread),failed,safety_block_jump,-0.3427748706328329,-0.1435113537313826,0.1433644504356312,0.3209884209927846,-0.6099061517335781,0.7228218635147319,0.0500946433382541,-2.75720108140574,1.1512923552939514,-0.906002061125884,-0.7981710357128435,-1.512054037692885,,,,,,,,,,,,,,,
2,1,Interior (FPS Spread),success,none,0.0567450867658377,-0.3808471089073296,0.1339687890126491,0.5734347799824046,-0.5546001203311555,-0.3666510334392133,0.4787047934929796,-1.45384415746414,0.727602521658627,-0.5428657198249587,-0.2954413492840113,1.8488637467967952,0.0567450867670721,-0.38084710891767487,0.13396878887434369,0.5734347801229264,-0.5546001202218388,-0.3666510335994584,0.47870479332856253,-1.4538441574640912,0.7276025217494927,-0.5428657196088975,-0.2954413490135465,1.8488637468619855,1.3869729092195733e-07,1.7075472925031877e-06,1.2852614528213736e-10
2,2,Interior (FPS Spread),success,none,0.0567450867658377,-0.3808471089073296,0.1339687890126491,0.5734347799824046,-0.5546001203311555,-0.3666510334392133,0.4787047934929796,-1.45384415746414,0.727602521658627,-0.5428657198249587,-0.2954413492840113,1.8488637467967952,0.05674508676824774,-0.3808471089172836,0.13396878887492764,0.5734347801228926,-0.5546001202201433,-0.3666510335998914,0.47870479333023563,-1.4538441574609273,0.7276025217457327,-0.5428657196070631,-0.29544134901138,1.8488637468579614,1.3810175717649747e-07,1.7075472925031877e-06,1.2840229990374042e-10
2,3,Interior (FPS Spread),success,none,0.0567450867658377,-0.3808471089073296,0.1339687890126491,0.5734347799824046,-0.5546001203311555,-0.3666510334392133,0.4787047934929796,-1.45384415746414,0.727602521658627,-0.5428657198249587,-0.2954413492840113,1.8488637467967952,0.05674508676708283,-0.38084710891767126,0.133968788874349,0.5734347801229257,-0.5546001202218233,-0.3666510335994626,0.4787047933285782,-1.4538441574640624,0.7276025217494584,-0.5428657196088809,-0.29544134901352687,1.8488637468619478,1.3869183138184222e-07,0.0,1.285247686055868e-10
3,1,Interior (FPS Spread),failed,safety_block_jump,0.2189117899156943,0.0526854973453186,0.4092328901136596,0.6548742208526106,-0.2217973112150678,0.3625662515711451,0.6248931275202998,-2.892263163230876,-0.6619060634713874,-1.3120667336485865,-0.3164229362547133,-1.6374402730259077,,,,,,,,,,,,,,,
3,2,Interior (FPS Spread),failed,safety_block_jump,0.2189117899156943,0.0526854973453186,0.4092328901136596,0.6548742208526106,-0.2217973112150678,0.3625662515711451,0.6248931275202998,-2.892263163230876,-0.6619060634713874,-1.3120667336485865,-0.3164229362547133,-1.6374402730259077,,,,,,,,,,,,,,,
3,3,Interior (FPS Spread),failed,safety_block_jump,0.2189117899156943,0.0526854973453186,0.4092328901136596,0.6548742208526106,-0.2217973112150678,0.3625662515711451,0.6248931275202998,-2.892263163230876,-0.6619060634713874,-1.3120667336485865,-0.3164229362547133,-1.6374402730259077,,,,,,,,,,,,,,,
4,1,Boundary (Edge Case),success,none,0.2254595782042039,-0.328108132164921,0.137129650246144,-0.6559263312925212,0.3614642653144985,-0.3109828786614795,0.5851443257839924,-0.994015645122036,0.7949779202224843,-0.855697650622596,0.0757741092879915,-1.6929048873445331,0.22545957821030693,-0.3281081321742486,0.13712965003073843,-0.6559263311741667,0.3614642655729052,-0.310982878366729,0.585144325913686,-0.9940156451219615,0.7949779203500864,-0.8556976502250555,0.07577410961939714,-1.6929048874096877,2.1569380129348066e-07,0.0,1.8435545590111956e-10
4,2,Boundary (Edge Case),success,none,0.2254595782042039,-0.328108132164921,0.137129650246144,-0.6559263312925212,0.3614642653144985,-0.3109828786614795,0.5851443257839924,-0.994015645122036,0.7949779202224843,-0.855697650622596,0.0757741092879915,-1.6929048873445331,0.2254595782122732,-0.3281081321717163,0.137129650032885,-0.6559263311717277,0.36146426556828354,-0.3109828783668859,0.5851443259191914,-0.994015645114223,0.7949779203361118,-0.8556976502160583,0.07577410962425697,-1.6929048873965071,2.1351978765141748e-07,0.0,1.8324353423526673e-10
4,3,Boundary (Edge Case),success,none,0.2254595782042039,-0.328108132164921,0.137129650246144,-0.6559263312925212,0.3614642653144985,-0.3109828786614795,0.5851443257839924,-0.994015645122036,0.7949779202224843,-0.855697650622596,0.0757741092879915,-1.6929048873445331,0.22545957821036303,-0.32810813217417634,0.1371296500307998,-0.6559263311740969,0.3614642655727731,-0.3109828783667338,0.5851443259138434,-0.9940156451217408,0.794977920349687,-0.8556976502247985,0.07577410961953597,-1.6929048874093107,2.1563099635523166e-07,0.0,1.8432347037578013e-10
5,1,Interior (FPS Spread),success,none,-0.0050390328603101,-0.0106619370578895,0.396978215293216,0.3053440023365492,-0.7191497826638139,0.2846772432134928,0.555470519044938,0.5591284321107413,-0.8365112662975154,0.1485361342399536,-1.1166689675272048,0.3079301978750624,-0.0050390328606117404,-0.010661937058078889,0.396978215289762,0.3053440023359405,-0.7191497826664939,0.2846772432120014,0.5554705190425671,0.5591284321107649,-0.8365112663084487,0.14853613427511989,-1.1166689675587311,0.30793019787214,3.47227449851164e-09,0.0,1.6114404255418435e-11
5,2,Interior (FPS Spread),success,none,-0.0050390328603101,-0.0106619370578895,0.396978215293216,0.3053440023365492,-0.7191497826638139,0.2846772432134928,0.555470519044938,0.5591284321107413,-0.8365112662975154,0.1485361342399536,-1.1166689675272048,0.3079301978750624,-0.005039032860032336,-0.010661937057680794,0.3969782152899093,0.30534400233504344,-0.7191497826653362,0.28467724321158494,0.5554705190447721,0.5591284321092663,-0.8365112663088873,0.14853613427552584,-1.1166689675538626,0.3079301978713149,3.324890727415918e-09,0.0,1.576486163834545e-11
5,3,Interior (FPS Spread),success,none,-0.0050390328603101,-0.0106619370578895,0.396978215293216,0.3053440023365492,-0.7191497826638139,0.2846772432134928,0.555470519044938,0.5591284321107413,-0.8365112662975154,0.1485361342399536,-1.1166689675272048,0.3079301978750624,-0.005039032860587028,-0.010661937058061913,0.39697821528976834,0.305344002335902,-0.7191497826664444,0.28467724321198346,0.5554705190426613,0.5591284321107008,-0.8365112663084678,0.14853613427513732,-1.1166689675585229,0.3079301978721046,3.4630297481935985e-09,0.0,1.6090478949237762e-11
6,1,Interior (FPS Spread),success,none,-0.2455634201196065,0.3023574762285636,0.1731081801084019,0.2513289398078407,0.7762968282264945,-0.4501650580260285,-0.3626960422074849,2.276363822318461,1.16982796614219,-1.4310034195086831,-0.0823838906863907,-1.9307033610615427,-0.24556342017982766,0.3023574762994588,0.17310817981346732,0.2513289401422148,0.7762968281784566,-0.4501650582469461,-0.3626960418044047,2.2763638223181335,1.169827966352265,-1.4310034189081653,-0.08238389035764353,-1.930703361120351,3.092557504713581e-07,1.7075472925031877e-06,2.396951359617816e-10
6,2,Interior (FPS Spread),success,none,-0.2455634201196065,0.3023574762285636,0.1731081801084019,0.2513289398078407,0.7762968282264945,-0.4501650580260285,-0.3626960422074849,2.276363822318461,1.16982796614219,-1.4310034195086831,-0.0823838906863907,-1.9307033610615427,-0.24556342017981636,0.3023574762994673,0.17310817981347187,0.2513289401422245,0.7762968281784449,-0.45016505824695263,-0.3626960418044148,2.276363822318098,1.1698279663522304,-1.4310034189081378,-0.08238389035763119,-1.9307033611203204,3.092511569289363e-07,0.0,2.39697159343244e-10
6,3,Interior (FPS Spread),success,none,-0.2455634201196065,0.3023574762285636,0.1731081801084019,0.2513289398078407,0.7762968282264945,-0.4501650580260285,-0.3626960422074849,2.276363822318461,1.16982796614219,-1.4310034195086831,-0.0823838906863907,-1.9307033610615427,-0.24556342017956415,0.3023574762996565,0.1731081798135681,0.25132894014244417,0.7762968281781878,-0.45016505824709535,-0.362696041804636,2.2763638223173057,1.169827966351476,-1.4310034189075358,-0.08238389035735896,-1.9307033611196485,3.091538145875622e-07,0.0,2.397451653868288e-10
7,1,Interior (FPS Spread),success,none,0.2930410044796523,-0.2696797164409216,0.1510936835819318,0.1064078028793258,-0.2981869765867863,-0.3046563203108126,0.8983019720423091,-0.7647712353282015,1.1275776500581616,-0.992288793789982,-0.6255862627390631,0.4363710389919424,0.2930410045139161,-0.2696797164737687,0.15109368340060067,0.10640780302612173,-0.29818697630076463,-0.30465632040263185,0.8983019720887238,-0.764771235328143,1.1275776502280697,-0.9922887934308164,-0.6255862625934859,0.43637103901673596,1.874404325617426e-07,0.0,1.3990059111179676e-10
7,2,Interior (FPS Spread),success,none,0.2930410044796523,-0.2696797164409216,0.1510936835819318,0.1064078028793258,-0.2981869765867863,-0.3046563203108126,0.8983019720423091,-0.7647712353282015,1.1275776500581616,-0.992288793789982,-0.6255862627390631,0.4363710389919424,0.29304100451391346,-0.26967971647377187,0.15109368340059626,0.10640780302612154,-0.2981869763007691,-0.3046563204026347,0.8983019720887213,-0.7647712353281537,1.1275776502281003,-0.992288793430835,-0.6255862625935049,0.4363710390167422,1.874447693178825e-07,0.0,1.3989830405236602e-10
7,3,Interior (FPS Spread),success,none,0.2930410044796523,-0.2696797164409216,0.1510936835819318,0.1064078028793258,-0.2981869765867863,-0.3046563203108126,0.8983019720423091,-0.7647712353282015,1.1275776500581616,-0.992288793789982,-0.6255862627390631,0.4363710389919424,0.2930410045140096,-0.2696797164736573,0.15109368340074755,0.10640780302612972,-0.29818697630060986,-0.30465632040253,0.8983019720888087,-0.7647712353277705,1.1275776502270332,-0.992288793430187,-0.6255862625928401,0.43637103901652324,1.8729596020989545e-07,0.0,1.3998028292050436e-10
8,1,Interior (FPS Spread),success,none,-0.1561956079128458,-0.1708758118282737,0.1500334128780964,-0.1134568724252112,0.8007114892932462,-0.3236607810153828,0.4911540978611432,-2.3482901138863905,0.0587564731953293,-0.7380631994882624,1.4732203034982094,-2.0256903987169856,-0.15619560790367198,-0.1708758118189886,0.15003341279987786,-0.11345687231521541,0.8007114892755303,-0.32366078090020406,0.4911540979913346,-2.3482901138862884,0.05875647327188054,-0.7380631992558674,1.473220303600679,-2.0256903987523027,7.930014279974719e-08,0.0,8.936700962580702e-11
8,2,Interior (FPS Spread),success,none,-0.1561956079128458,-0.1708758118282737,0.1500334128780964,-0.1134568724252112,0.8007114892932462,-0.3236607810153828,0.4911540978611432,-2.3482901138863905,0.0587564731953293,-0.7380631994882624,1.4732203034982094,-2.0256903987169856,-0.1561956079036671,-0.17087581181899275,0.15003341279987928,-0.11345687231522353,0.8007114892755258,-0.32366078090020806,0.49115409799133736,-2.3482901138862617,0.05875647327186923,-0.7380631992558563,1.4732203036006706,-2.025690398752282,7.929882447526591e-08,0.0,8.936643508539177e-11
8,3,Interior (FPS Spread),success,none,-0.1561956079128458,-0.1708758118282737,0.1500334128780964,-0.1134568724252112,0.8007114892932462,-0.3236607810153828,0.4911540978611432,-2.3482901138863905,0.0587564731953293,-0.7380631994882624,1.4732203034982094,-2.0256903987169856,-0.15619560787261957,-0.17087581184501396,0.15003341280877922,-0.11345687236340132,0.8007114892457031,-0.32366078093099265,0.49115409800854065,-2.3482901137178462,0.05875647319593637,-0.7380631991814076,1.4732203035452163,-2.025690398607002,8.187343946908233e-08,0.0,1.265993088139794e-10
9,1,Boundary (Edge Case),failed,safety_block_jump,-0.3816187664387298,-0.0491026943604966,0.1394569118760197,-0.0087600933589978,-0.3623983844254333,0.9293597655011476,-0.0698648552408838,-3.0174869393337747,1.022066586105853,-1.3877591478823477,0.4326629893266529,-0.7394525578572311,,,,,,,,,,,,,,,
9,2,Boundary (Edge Case),failed,safety_block_jump,-0.3816187664387298,-0.0491026943604966,0.1394569118760197,-0.0087600933589978,-0.3623983844254333,0.9293597655011476,-0.0698648552408838,-3.0174869393337747,1.022066586105853,-1.3877591478823477,0.4326629893266529,-0.7394525578572311,,,,,,,,,,,,,,,
9,3,Boundary (Edge Case),failed,safety_block_jump,-0.3816187664387298,-0.0491026943604966,0.1394569118760197,-0.0087600933589978,-0.3623983844254333,0.9293597655011476,-0.0698648552408838,-3.0174869393337747,1.022066586105853,-1.3877591478823477,0.4326629893266529,-0.7394525578572311,,,,,,,,,,,,,,,
10,1,Interior (FPS Spread),success,none,0.0235702068968823,-0.1614599767033016,0.2109912688056577,-0.1464697722905558,-0.2095495313042235,-0.651873043495593,0.7139307633791429,-1.4992587046285797,-1.0706714162122228,1.1443786890624246,-0.5859887326679598,0.07356189324158,0.02357020689836561,-0.16145997672377893,0.21099126875927118,-0.1464697722002862,-0.20954953121171271,-0.6518730435217073,0.7139307634009715,-1.4992587046284822,-1.0706714162080284,1.144378689136253,-0.5859887324786865,0.07356189324526426,5.072701116007915e-08,0.0,5.4215584799344187e-11
10,2,Interior (FPS Spread),success,none,0.0235702068968823,-0.1614599767033016,0.2109912688056577,-0.1464697722905558,-0.2095495313042235,-0.651873043495593,0.7139307633791429,-1.4992587046285797,-1.0706714162122228,1.1443786890624246,-0.5859887326679598,0.07356189324158,0.023570206898367287,-0.1614599767237792,0.21099126875927132,-0.14646977220028407,-0.20954953121171194,-0.651873043521704,0.7139307634009752,-1.499258704628472,-1.0706714162080277,1.1443786891362473,-0.5859887324786777,0.0735618932452637,5.072704532887937e-08,0.0,5.421827153906378e-11
10,3,Interior (FPS Spread),success,none,0.0235702068968823,-0.1614599767033016,0.2109912688056577,-0.1464697722905558,-0.2095495313042235,-0.651873043495593,0.7139307633791429,-1.4992587046285797,-1.0706714162122228,1.1443786890624246,-0.5859887326679598,0.07356189324158,0.02357020689992036,-0.16145997672400314,0.21099126875947088,-0.14646977219838084,-0.20954953121111952,-0.6518730435186932,0.7139307634042886,-1.4992587046190011,-1.0706714162075817,1.1443786891309133,-0.5859887324705539,0.07356189324479903,5.070507806683633e-08,0.0,5.6666682457517934e-11
11,1,Boundary (Edge Case),success,none,-0.1713184606239237,-0.3575654051972515,0.1452436572565293,-0.4575194443127425,0.7753091576839491,0.3557270641518287,-0.25105761075316,-2.0445404521957675,1.109664157532599,-1.4390313341636267,0.2655334023317051,2.2422486997299464,-0.17131846064644365,-0.3575654052417192,0.14524365696565877,-0.45751944452864896,0.7753091575828261,0.3557270643940614,-0.2510576103287618,-2.044540452195152,1.109664157739837,-1.439031333586907,0.26553340263407454,2.242248699779103,2.9511046430089134e-07,0.0,2.27219887349861e-10
11,2,Boundary (Edge Case),success,none,-0.1713184606239237,-0.3575654051972515,0.1452436572565293,-0.4575194443127425,0.7753091576839491,0.3557270641518287,-0.25105761075316,-2.0445404521957675,1.109664157532599,-1.4390313341636267,0.2655334023317051,2.2422486997299464,-0.1713184606462418,-0.3575654052417963,0.14524365696573704,-0.4575194445287853,0.7753091575825976,0.35572706439422613,-0.25105761032898555,-2.0445404521946173,1.109664157739284,-1.439031333586452,0.2655334026341884,2.2422486997785147,2.950296103647373e-07,1.7075472925031877e-06,2.2721232673106328e-10
11,3,Boundary (Edge Case),success,none,-0.1713184606239237,-0.3575654051972515,0.1452436572565293,-0.4575194443127425,0.7753091576839491,0.3557270641518287,-0.25105761075316,-2.0445404521957675,1.109664157532599,-1.4390313341636267,0.2655334023317051,2.2422486997299464,-0.171318460557738,-0.3575654052756965,0.14524365699987885,-0.45751944458881677,0.7753091574824758,0.35572706446624386,-0.2510576104267364,-2.0445404519601276,1.1096641574973256,-1.4390313333870008,0.2655334026840175,2.2422486995213493,2.764120524333136e-07,2.4148365394514667e-06,3.2168974151147723e-10
12,1,Interior (FPS Spread),success,none,0.3855590830889179,-0.0418762297936758,0.121922176964112,-0.1884434990990401,0.1642019711425693,-0.0227553604229463,0.9679922282189184,-0.1116346224481446,0.7563893954770684,-1.0436506865371684,0.6017352436025265,-0.4022566890841181,0.3855590830777683,-0.04187622979242388,0.12192217671836429,-0.18844349906839813,0.1642019716104735,-0.02275536032146175,0.9679922281478982,-0.11163462244813924,0.7563893956413004,-1.0436506860171784,0.6017352438880356,-0.40225668910618356,2.46003697800401e-07,0.0,1.983603781230414e-10
12,2,Interior (FPS Spread),success,none,0.3855590830889179,-0.0418762297936758,0.121922176964112,-0.1884434990990401,0.1642019711425693,-0.0227553604229463,0.9679922282189184,-0.1116346224481446,0.7563893954770684,-1.0436506865371684,0.6017352436025265,-0.4022566890841181,0.38555908307776954,-0.04187622979242447,0.12192217671836147,-0.18844349906839997,0.16420197161047506,-0.02275536032146169,0.9679922281478975,-0.1116346224481404,0.7563893956413185,-1.0436506860171926,0.6017352438880346,-0.4022566891061878,2.460064537124485e-07,0.0,1.9836156606167775e-10
12,3,Interior (FPS Spread),success,none,0.3855590830889179,-0.0418762297936758,0.121922176964112,-0.1884434990990401,0.1642019711425693,-0.0227553604229463,0.9679922282189184,-0.1116346224481446,0.7563893954770684,-1.0436506865371684,0.6017352436025265,-0.4022566890841181,0.3855590830756704,-0.041876229791496945,0.12192217672297945,-0.18844349906557842,0.1642019716077421,-0.022755360321647083,0.967992228148906,-0.11163462244631041,0.7563893956125273,-1.0436506859951662,0.6017352438896453,-0.4022566890995938,2.4150601388420894e-07,1.7075472925031877e-06,1.963779444613678e-10
13,1,Interior (FPS Spread),failed,safety_block_jump,-0.039399835907492,0.1672109254436232,0.1807375685047576,0.571471840027899,0.8006751773850929,-0.0438508207713669,-0.1744027003579786,1.8690238240387047,-1.1122289400414291,1.0597457249443003,-0.1787322451344815,-2.861003003055607,,,,,,,,,,,,,,,
13,2,Interior (FPS Spread),failed,safety_block_jump,-0.039399835907492,0.1672109254436232,0.1807375685047576,0.571471840027899,0.8006751773850929,-0.0438508207713669,-0.1744027003579786,1.8690238240387047,-1.1122289400414291,1.0597457249443003,-0.1787322451344815,-2.861003003055607,,,,,,,,,,,,,,,
13,3,Interior (FPS Spread),failed,safety_block_jump,-0.039399835907492,0.1672109254436232,0.1807375685047576,0.571471840027899,0.8006751773850929,-0.0438508207713669,-0.1744027003579786,1.8690238240387047,-1.1122289400414291,1.0597457249443003,-0.1787322451344815,-2.861003003055607,,,,,,,,,,,,,,,
14,1,Interior (FPS Spread),success,none,0.1603484253768592,-0.3219586703687064,0.2684161513244875,0.7154894569261903,-0.2052658009574448,0.5409198672070094,-0.391594797265637,-1.1390234557777177,0.9659837254775973,-1.4532502431795542,-0.1729436694347794,-1.7081098708989595,0.16034842543949263,-0.32195867050443033,0.268416151097161,0.7154894568723583,-0.205265801297962,0.5409198669596266,-0.3915947975272185,-1.1390234557774717,0.9659837256679011,-1.4532502426463412,-0.17294366916279016,-1.7081098709525762,2.720684937981782e-07,0.0,2.0987376836423267e-10
14,2,Interior (FPS Spread),success,none,0.1603484253768592,-0.3219586703687064,0.2684161513244875,0.7154894569261903,-0.2052658009574448,0.5409198672070094,-0.391594797265637,-1.1390234557777177,0.9659837254775973,-1.4532502431795542,-0.1729436694347794,-1.7081098708989595,0.16034842543943456,-0.32195867050446686,0.26841615109713163,0.7154894568724018,-0.20526580129807193,0.5409198669596617,-0.39159479752703286,-1.1390234557776635,0.9659837256682315,-1.4532502426466352,-0.17294366916293694,-1.7081098709528626,2.720978929915088e-07,0.0,2.0987061533084272e-10
14,3,Interior (FPS Spread),success,none,0.1603484253768592,-0.3219586703687064,0.2684161513244875,0.7154894569261903,-0.2052658009574448,0.5409198672070094,-0.391594797265637,-1.1390234557777177,0.9659837254775973,-1.4532502431795542,-0.1729436694347794,-1.7081098708989595,0.16034842543982855,-0.3219586705042198,0.2684161510973304,0.7154894568721046,-0.20526580129732588,0.5409198669594238,-0.39159479752829524,-1.1390234557763623,0.9659837256659854,-1.4532502426446323,-0.17294366916193957,-1.7081098709509117,2.718995216196121e-07,1.7075472925031877e-06,2.0989149862593593e-10
15,1,Boundary (Edge Case),success,none,0.1679787339652045,-0.3567366317716893,0.1218114261326104,-0.4790977807631882,0.4034410637483039,-0.375041398070736,0.683406595141262,-1.1586059967829088,0.8424504580236709,-1.0508516454339172,0.4016676526328291,-1.3495070441424648,0.16797873396462165,-0.3567366317698454,0.12181142587122964,-0.47909778054276925,0.4034410640717146,-0.3750413977744254,0.6834065952674736,-1.1586059967823832,0.8424504581907138,-1.0508516449056697,0.40166765294951545,-1.3495070442018295,2.6138790405808275e-07,0.0,2.1437340791408133e-10
15,2,Boundary (Edge Case),success,none,0.1679787339652045,-0.3567366317716893,0.1218114261326104,-0.4790977807631882,0.4034410637483039,-0.375041398070736,0.683406595141262,-1.1586059967829088,0.8424504580236709,-1.0508516454339172,0.4016676526328291,-1.3495070441424648,0.16797873396447546,-0.35673663176996706,0.12181142587110973,-0.479097780542843,0.4034410640719542,-0.375041397774453,0.6834065952672652,-1.1586059967828526,0.8424504581914612,-1.0508516449062173,0.40166765294939455,-1.3495070442023775,2.6150735575300044e-07,0.0,2.144049160435202e-10
15,3,Boundary (Edge Case),success,none,0.1679787339652045,-0.3567366317716893,0.1218114261326104,-0.4790977807631882,0.4034410637483039,-0.375041398070736,0.683406595141262,-1.1586059967829088,0.8424504580236709,-1.0508516454339172,0.4016676526328291,-1.3495070441424648,0.16797873396447371,-0.3567366317699685,0.12181142587110849,-0.479097780542844,0.40344106407195673,-0.37504139777445356,0.6834065952672628,-1.1586059967828581,0.8424504581914699,-1.050851644906224,0.4016676529493929,-1.3495070442023838,2.615085862239069e-07,0.0,2.1440511588366463e-10
16,1,Interior (FPS Spread),success,none,0.2216979075049563,0.2476889392931219,0.2980911853530479,-0.4629316050262451,-0.3803444640614724,0.2338351265276939,0.7657372599837318,-2.2733236698277697,-1.089367682610864,-1.118529844866584,-0.5590003330483528,1.878733684799596,0.22169790756572977,0.24768893936695047,0.2980911852092569,-0.4629316051837711,-0.38034446385475634,0.23383512670632778,0.7657372599366252,-2.2733236698236983,-1.0893676827547307,-1.1185298451935166,-0.5590003332131246,1.8787336847458043,1.726844397313402e-07,0.0,1.386868397901253e-10
16,2,Interior (FPS Spread),success,none,0.2216979075049563,0.2476889392931219,0.2980911853530479,-0.4629316050262451,-0.3803444640614724,0.2338351265276939,0.7657372599837318,-2.2733236698277697,-1.089367682610864,-1.118529844866584,-0.5590003330483528,1.878733684799596,0.22169790756707614,0.24768893936654224,0.2980911852083272,-0.4629316051843181,-0.38034446385182025,0.23383512670685713,0.7657372599375911,-2.2733236698276773,-1.0893676827548862,-1.1185298451960008,-0.5590003332153289,1.8787336847490925,1.7376275066805347e-07,2.4148365394514667e-06,1.3820218303095545e-10
16,3,Interior (FPS Spread),success,none,0.2216979075049563,0.2476889392931219,0.2980911853530479,-0.4629316050262451,-0.3803444640614724,0.2338351265276939,0.7657372599837318,-2.2733236698277697,-1.089367682610864,-1.118529844866584,-0.5590003330483528,1.878733684799596,0.2216979075670808,0.24768893936654085,0.29809118520832395,-0.46293160518432025,-0.3803444638518101,0.2338351267068593,0.7657372599375943,-2.273323669827691,-1.089367682754887,-1.1185298451960093,-0.5590003332153366,1.878733684749104,1.7376655909490587e-07,1.7075472925031877e-06,1.382005176964185e-10
17,1,Interior (FPS Spread),success,none,-0.2448386510280711,-0.0345336990846939,0.3757103643561268,-0.0728757672772893,0.9374840443894736,-0.050613723681139,-0.3365279186546501,0.1336551967204138,-0.7841364263733103,-1.3193409398682312,-0.3457545236413071,0.0596003107635638,-0.2448386511566879,-0.034533699101881705,0.37571036423792264,-0.072875767274887,0.9374840444991607,-0.05061372366270267,-0.3365279183523825,0.13365519672000997,-0.7841364265020553,-1.3193409402105818,-0.3457545238143854,0.0596003107605897,1.7552757740702377e-07,0.0,1.2951035938124634e-10
17,2,Interior (FPS Spread),success,none,-0.2448386510280711,-0.0345336990846939,0.3757103643561268,-0.0728757672772893,0.9374840443894736,-0.050613723681139,-0.3365279186546501,0.1336551967204138,-0.7841364263733103,-1.3193409398682312,-0.3457545236413071,0.0596003107635638,-0.24483865115714196,-0.03453369910198541,0.3757103642374623,-0.07287576727496797,0.9374840444996667,-0.05061372366268553,-0.3365279183509578,0.13365519672017312,-0.7841364265017895,-1.3193409402125782,-0.3457545238156751,0.05960031076066436,1.7618045698121056e-07,1.7075472925031877e-06,1.3006686977456993e-10
17,3,Interior (FPS Spread),success,none,-0.2448386510280711,-0.0345336990846939,0.3757103643561268,-0.0728757672772893,0.9374840443894736,-0.050613723681139,-0.3365279186546501,0.1336551967204138,-0.7841364263733103,-1.3193409398682312,-0.3457545236413071,0.0596003107635638,-0.24483865115774903,-0.03453369910212466,0.37571036423684673,-0.0728757672750771,0.9374840445003434,-0.050613723662662244,-0.33652791834905266,0.1336551967203935,-0.7841364265014333,-1.319340940215249,-0.34575452381739963,0.05960031076076267,1.7705348639156656e-07,2.4148365394514667e-06,1.3081095234790396e-10
18,1,Boundary (Edge Case),failed,safety_block_jump,-0.3782069668224105,0.0550474590294798,0.1444528828131626,0.0570239958906201,0.916806360552757,0.3927146465905113,0.0446045681064659,3.001445017698701,0.877026766195435,-1.1003140952682635,0.2602949625999851,2.329584251304419,,,,,,,,,,,,,,,
18,2,Boundary (Edge Case),failed,safety_block_jump,-0.3782069668224105,0.0550474590294798,0.1444528828131626,0.0570239958906201,0.916806360552757,0.3927146465905113,0.0446045681064659,3.001445017698701,0.877026766195435,-1.1003140952682635,0.2602949625999851,2.329584251304419,,,,,,,,,,,,,,,
18,3,Boundary (Edge Case),failed,safety_block_jump,-0.3782069668224105,0.0550474590294798,0.1444528828131626,0.0570239958906201,0.916806360552757,0.3927146465905113,0.0446045681064659,3.001445017698701,0.877026766195435,-1.1003140952682635,0.2602949625999851,2.329584251304419,,,,,,,,,,,,,,,
19,1,Interior (FPS Spread),success,none,0.0407894015802111,-0.2347706161681521,0.3986192386588416,0.6873459781007881,-0.1959676569017211,0.651770301252131,-0.2536684021371732,1.6928149279906206,-0.7908285514302006,-1.3410493558832235,-0.0881281907408229,1.5349018003084285,0.04078940159113073,-0.2347706163113294,0.39861923855713544,0.6873459780507416,-0.19596765715072212,0.6517703011597206,-0.25366840231785603,1.6928149279627656,-0.7908285515589802,-1.341049356209863,-0.08812819092953957,1.5349018002435884,1.7596340020328814e-07,0.0,1.473662220030647e-10
19,2,Interior (FPS Spread),success,none,0.0407894015802111,-0.2347706161681521,0.3986192386588416,0.6873459781007881,-0.1959676569017211,0.651770301252131,-0.2536684021371732,1.6928149279906206,-0.7908285514302006,-1.3410493558832235,-0.0881281907408229,1.5349018003084285,0.040789401598462754,-0.23477061631720209,0.39861923855233117,0.6873459780471313,-0.19596765714532283,0.6517703011536043,-0.2536684023475247,1.6928149279905114,-0.7908285515555514,-1.341049356236766,-0.08812819094246091,1.5349018002687451,1.841018512903092e-07,0.0,1.4406479897921544e-10
19,3,Interior (FPS Spread),success,none,0.0407894015802111,-0.2347706161681521,0.3986192386588416,0.6873459781007881,-0.1959676569017211,0.651770301252131,-0.2536684021371732,1.6928149279906206,-0.7908285514302006,-1.3410493558832235,-0.0881281907408229,1.5349018003084285,0.04078940159846521,-0.234770616317204,0.39861923855232967,0.6873459780471303,-0.1959676571453209,0.651770301153602,-0.2536684023475346,1.6928149279905207,-0.7908285515555503,-1.341049356236775,-0.08812819094246538,1.5349018002687536,1.8410451244750966e-07,0.0,1.440636943073059e-10
20,1,Boundary (Edge Case),success,none,0.3382137401582886,0.225734002597554,0.1415697126968857,0.7492156827793244,0.1096606537199138,0.3229258079802508,0.5677757693346331,0.6053243920954645,1.0893790901128335,-0.9823674334107544,-0.4745902553452217,1.728651215666543,0.3382137401940294,0.2257340026191343,0.14156971250170286,0.7492156827707046,0.1096606539704911,0.32292580771964313,0.5677757694458323,0.6053243920889311,1.0893790902540696,-0.9823674330236268,-0.47459025511811953,1.728651215711472,1.995982355464184e-07,0.0,1.6138564928880327e-10
20,2,Boundary (Edge Case),success,none,0.3382137401582886,0.225734002597554,0.1415697126968857,0.7492156827793244,0.1096606537199138,0.3229258079802508,0.5677757693346331,0.6053243920954645,1.0893790901128335,-0.9823674334107544,-0.4745902553452217,1.728651215666543,0.33821374019303174,0.22573400262143128,0.14156971249858535,0.749215682775492,0.10966065397444082,0.32292580772170876,0.5677757694375778,0.6053243920951238,1.0893790902754314,-0.9823674330367416,-0.47459025513013,1.728651215729149,2.027319406492319e-07,0.0,1.6292982518706366e-10
20,3,Boundary (Edge Case),success,none,0.3382137401582886,0.225734002597554,0.1415697126968857,0.7492156827793244,0.1096606537199138,0.3229258079802508,0.5677757693346331,0.6053243920954645,1.0893790901128335,-0.9823674334107544,-0.4745902553452217,1.728651215666543,0.33821374019298106,0.22573400262154825,0.14156971249842631,0.7492156827757356,0.1096606539746419,0.3229258077218137,0.5677757694371576,0.605324392095439,1.0893790902765201,-0.9823674330374095,-0.474590255130742,1.728651215730049,2.0289263230994368e-07,0.0,1.6300857330620033e-10
21,1,Boundary (Edge Case),success,none,0.4119272979456513,0.0021104448749616,0.1245918978023531,0.8655644775458186,-0.0217324565787083,-0.0430055017340774,-0.4984740337896137,0.0052770223386553,1.0583348317379078,-1.3746952895844462,0.412623259155416,-2.096325577833767,0.4119272979655987,0.0021104448750053953,0.12459189752525669,0.8655644775234704,-0.021732456841856963,-0.043005502190389996,-0.4984740337775789,0.005277022338501489,1.0583348318890031,-1.3746952889632325,0.4126232594378258,-2.0963255778295355,2.778134543685694e-07,0.0,2.1182080325865548e-10
21,2,Boundary (Edge Case),success,none,0.4119272979456513,0.0021104448749616,0.1245918978023531,0.8655644775458186,-0.0217324565787083,-0.0430055017340774,-0.4984740337896137,0.0052770223386553,1.0583348317379078,-1.3746952895844462,0.412623259155416,-2.096325577833767,0.4119272979683568,0.0021104448750809356,0.12459189751653967,0.8655644775378977,-0.021732456841206275,-0.04300550219221244,-0.4984740337523981,0.005277022338653978,1.058334831946085,-1.3746952890096706,0.41262325942984707,-2.0963255778876304,2.867139167512989e-07,0.0,2.2224976095608363e-10
21,3,Boundary (Edge Case),success,none,0.4119272979456513,0.0021104448749616,0.1245918978023531,0.8655644775458186,-0.0217324565787083,-0.0430055017340774,-0.4984740337896137,0.0052770223386553,1.0583348317379078,-1.3746952895844462,0.412623259155416,-2.096325577833767,0.4119272979677166,0.0021104448750639705,0.12459189751856324,0.8655644775345467,-0.02173245684135656,-0.04300550219178913,-0.4984740337582468,0.005277022338620006,1.0583348319328347,-1.3746952889988902,0.4126232594316971,-2.0963255778741368,2.846463914970956e-07,0.0,2.1943386881856374e-10
22,1,Boundary (Edge Case),failed,safety_block_jump,0.3685634204458778,0.1715182180134477,0.1456124075631252,0.9336690444832848,0.2194722667110226,0.0414507093686754,0.2799569220634298,0.4483579397931225,0.9792765582888808,-1.324079965157301,0.3903021754794558,2.569337596835373,,,,,,,,,,,,,,,
22,2,Boundary (Edge Case),failed,safety_block_jump,0.3685634204458778,0.1715182180134477,0.1456124075631252,0.9336690444832848,0.2194722667110226,0.0414507093686754,0.2799569220634298,0.4483579397931225,0.9792765582888808,-1.324079965157301,0.3903021754794558,2.569337596835373,,,,,,,,,,,,,,,
22,3,Boundary (Edge Case),failed,safety_block_jump,0.3685634204458778,0.1715182180134477,0.1456124075631252,0.9336690444832848,0.2194722667110226,0.0414507093686754,0.2799569220634298,0.4483579397931225,0.9792765582888808,-1.324079965157301,0.3903021754794558,2.569337596835373,,,,,,,,,,,,,,,
23,1,Interior (FPS Spread),failed,safety_block_limits,0.2841099970273361,0.1355798380087381,0.1297051293086674,0.9419953123839454,0.2051229320731433,0.2656477132523464,-0.0008406117944173,0.4622496675098184,0.613644180236546,0.331370744566305,-1.469563885700217,3.01719234764716,,,,,,,,,,,,,,,
23,2,Interior (FPS Spread),failed,safety_block_limits,0.2841099970273361,0.1355798380087381,0.1297051293086674,0.9419953123839454,0.2051229320731433,0.2656477132523464,-0.0008406117944173,0.4622496675098184,0.613644180236546,0.331370744566305,-1.469563885700217,3.01719234764716,,,,,,,,,,,,,,,
23,3,Interior (FPS Spread),failed,safety_block_limits,0.2841099970273361,0.1355798380087381,0.1297051293086674,0.9419953123839454,0.2051229320731433,0.2656477132523464,-0.0008406117944173,0.4622496675098184,0.613644180236546,0.331370744566305,-1.469563885700217,3.01719234764716,,,,,,,,,,,,,,,
24,1,Interior (FPS Spread),failed,safety_block_limits,-0.1382120405118465,-0.2499762629975108,0.3482863589667584,-0.4459835542675281,0.7736361905232202,-0.233995864480777,-0.3844888157560845,-2.1118811618485607,0.7465814490769098,-1.4794157187530697,-0.2005280924486887,-3.1094869384105635,,,,,,,,,,,,,,,
24,2,Interior (FPS Spread),failed,safety_block_limits,-0.1382120405118465,-0.2499762629975108,0.3482863589667584,-0.4459835542675281,0.7736361905232202,-0.233995864480777,-0.3844888157560845,-2.1118811618485607,0.7465814490769098,-1.4794157187530697,-0.2005280924486887,-3.1094869384105635,,,,,,,,,,,,,,,
24,3,Interior (FPS Spread),failed,safety_block_limits,-0.1382120405118465,-0.2499762629975108,0.3482863589667584,-0.4459835542675281,0.7736361905232202,-0.233995864480777,-0.3844888157560845,-2.1118811618485607,0.7465814490769098,-1.4794157187530697,-0.2005280924486887,-3.1094869384105635,,,,,,,,,,,,,,,
25,1,Boundary (Edge Case),success,none,0.1769764731402875,0.3559480039367005,0.1336479538255894,0.7025491774560852,0.4291678343575429,-0.3254426980698772,-0.465109313475481,1.1367852351738137,0.8179632396623493,-0.9263020348918176,0.1664305490262674,-1.93491028055367,0.17697647314430856,0.35594800394505605,0.13364795358915557,0.7025491776023326,0.429167834139515,-0.32544269837455303,-0.46510931324256827,1.1367852351734702,0.8179632398037725,-0.9263020344394144,0.16643054936002627,-1.9349102806135718,2.3661558225022613e-07,2.4148365394514667e-06,1.9756613567345483e-10
25,2,Boundary (Edge Case),success,none,0.1769764731402875,0.3559480039367005,0.1336479538255894,0.7025491774560852,0.4291678343575429,-0.3254426980698772,-0.465109313475481,1.1367852351738137,0.8179632396623493,-0.9263020348918176,0.1664305490262674,-1.93491028055367,0.17697647314422532,0.3559480039451301,0.13364795358908813,0.7025491776023839,0.4291678341396823,-0.3254426983745218,-0.46510931324235827,1.1367852351737422,0.8179632398042074,-0.9263020344397075,0.1664305493598988,-1.9349102806140346,2.3668420278309244e-07,0.0,1.9760714176086934e-10
25,3,Boundary (Edge Case),success,none,0.1769764731402875,0.3559480039367005,0.1336479538255894,0.7025491774560852,0.4291678343575429,-0.3254426980698772,-0.465109313475481,1.1367852351738137,0.8179632396623493,-0.9263020348918176,0.1664305490262674,-1.93491028055367,0.17697647314457365,0.35594800394482023,0.13364795358937007,0.7025491776021694,0.42916783413898196,-0.3254426983746529,-0.465109313243237,1.1367852351726044,0.8179632398023886,-0.9263020344384807,0.16643054936043258,-1.9349102806120984,2.363976927147748e-07,0.0,1.974358121437092e-10
26,1,Interior (FPS Spread),success,none,0.1425469326836538,0.3244055895075801,0.1312668420731624,-0.376901244200425,-0.4148199040170678,0.3882263119153092,0.7315396298821268,1.188206452641082,0.6269798908871596,-0.0471923602025186,-0.899473481100509,-1.16844877807605,0.14254693268838314,0.32440558951887505,0.13126684199707828,-0.3769012443119513,-0.41481990392206686,0.38822631199114416,0.7315396298382916,1.1882064526405935,0.6269798909656277,-0.047192360109719625,-0.8994734809356237,-1.1684487781354318,7.70631885011134e-08,1.7075472925031877e-06,7.920452904652819e-11
26,2,Interior (FPS Spread),success,none,0.1425469326836538,0.3244055895075801,0.1312668420731624,-0.376901244200425,-0.4148199040170678,0.3882263119153092,0.7315396298821268,1.188206452641082,0.6269798908871596,-0.0471923602025186,-0.899473481100509,-1.16844877807605,0.14254693268825697,0.3244055895189416,0.1312668419969968,-0.376901244311984,-0.41481990392225554,0.3882263119911812,0.7315396298381482,1.1882064526409994,0.6269798909661842,-0.04719236010983844,-0.8994734809361709,-1.168448778135831,7.714575877598097e-08,1.7075472925031877e-06,7.918132122197719e-11
26,3,Interior (FPS Spread),success,none,0.1425469326836538,0.3244055895075801,0.1312668420731624,-0.376901244200425,-0.4148199040170678,0.3882263119153092,0.7315396298821268,1.188206452641082,0.6269798908871596,-0.0471923602025186,-0.899473481100509,-1.16844877807605,0.14254693268824659,0.3244055895189471,0.1312668419969901,-0.37690124431198696,-0.41481990392227097,0.38822631199118424,0.7315396298381364,1.1882064526410328,0.6269798909662297,-0.047192360109848154,-0.8994734809362154,-1.168448778135864,7.71525811300923e-08,0.0,7.917948935398655e-11
27,1,Interior (FPS Spread),failed,safety_block_jump,0.0850679398600716,0.1229279386278919,0.3173370411383543,0.3502941363846341,0.372780467531963,0.7004492057284559,-0.4976943351451466,1.0345072142350729,0.8999316235353145,-1.4013932406122456,-1.6013471801684862,-2.7924163695384343,,,,,,,,,,,,,,,
27,2,Interior (FPS Spread),failed,safety_block_jump,0.0850679398600716,0.1229279386278919,0.3173370411383543,0.3502941363846341,0.372780467531963,0.7004492057284559,-0.4976943351451466,1.0345072142350729,0.8999316235353145,-1.4013932406122456,-1.6013471801684862,-2.7924163695384343,,,,,,,,,,,,,,,
27,3,Interior (FPS Spread),failed,safety_block_jump,0.0850679398600716,0.1229279386278919,0.3173370411383543,0.3502941363846341,0.372780467531963,0.7004492057284559,-0.4976943351451466,1.0345072142350729,0.8999316235353145,-1.4013932406122456,-1.6013471801684862,-2.7924163695384343,,,,,,,,,,,,,,,
28,1,Boundary (Edge Case),success,none,0.2918198648078899,0.286824201232097,0.1543419739090237,0.111968838038832,-0.1407712228300873,0.3899075871082065,0.9031160034273624,0.7977586205710496,1.1870018016679689,-1.3057108047181218,-0.2298890149515537,0.0985431044368527,0.29181986485889266,0.28682420128408925,0.1543419736333863,0.11196883784832447,-0.14077122235935383,0.3899075871200492,0.9031160035192435,0.7977586205705492,1.1870018018754966,-1.30571080415913,-0.22988901468568365,0.0985431044427667,2.8509726755370694e-07,2.4148365394514667e-06,2.077607891282085e-10
28,2,Boundary (Edge Case),success,none,0.2918198648078899,0.286824201232097,0.1543419739090237,0.111968838038832,-0.1407712228300873,0.3899075871082065,0.9031160034273624,0.7977586205710496,1.1870018016679689,-1.3057108047181218,-0.2298890149515537,0.0985431044368527,0.2918198648587776,0.28682420128423897,0.1543419736332117,0.1119688378484212,-0.14077122235940895,0.3899075871202616,0.9031160035191312,0.7977586205710157,1.1870018018767747,-1.3057108041600678,-0.22988901468622708,0.09854310444282403,2.852728624121169e-07,1.7075472925031877e-06,2.0763836761084064e-10
28,3,Boundary (Edge Case),success,none,0.2918198648078899,0.286824201232097,0.1543419739090237,0.111968838038832,-0.1407712228300873,0.3899075871082065,0.9031160034273624,0.7977586205710496,1.1870018016679689,-1.3057108047181218,-0.2298890149515537,0.0985431044368527,0.2918198648587827,0.2868242012842322,0.15434197363321964,0.11196883784841706,-0.14077122235940687,0.3899075871202521,0.9031160035191361,0.7977586205709949,1.1870018018767179,-1.3057108041600267,-0.22988901468620307,0.09854310444282148,2.852648608595715e-07,2.4148365394514667e-06,2.07643657823553e-10
29,1,Interior (FPS Spread),success,none,0.2380699870404282,-0.0238195285268448,0.2486764644619587,0.6331108338046961,0.08145585040033,-0.1341153493762712,0.7579899007350706,-0.1049761952403671,-0.1024523984069893,-0.9255176945388106,1.32565234453922,1.3759810227658913,0.23806998705986374,-0.023819528528871245,0.24867646437195715,0.6331108338112231,0.08145585057204158,-0.13411534951981807,0.7579899006857678,-0.10497619524027363,-0.10245239834535856,-0.9255176942908833,1.3256523446855022,1.3759810228155689,9.209846729385191e-08,0.0,1.0112224946290382e-10
29,2,Interior (FPS Spread),success,none,0.2380699870404282,-0.0238195285268448,0.2486764644619587,0.6331108338046961,0.08145585040033,-0.1341153493762712,0.7579899007350706,-0.1049761952403671,-0.1024523984069893,-0.9255176945388106,1.32565234453922,1.3759810227658913,0.2380699870599026,-0.02381952852888967,0.24867646437193677,0.633110833811533,0.08145585057203476,-0.13411534951993062,0.7579899006854898,-0.10497619524033631,-0.1024523983448213,-0.9255176942916167,1.3256523446858761,1.3759810228163925,9.212698951318281e-08,0.0,1.0130997984969526e-10
29,3,Interior (FPS Spread),success,none,0.2380699870404282,-0.0238195285268448,0.2486764644619587,0.6331108338046961,0.08145585040033,-0.1341153493762712,0.7579899007350706,-0.1049761952403671,-0.1024523984069893,-0.9255176945388106,1.32565234453922,1.3759810227658913,0.23806998705989463,-0.02381952852888588,0.2486764643719409,0.6331108338114696,0.08145585057203616,-0.13411534951990753,0.7579899006855467,-0.10497619524032342,-0.10245239834493143,-0.9255176942914664,1.3256523446857993,1.3759810228162237,9.212118071751305e-08,0.0,1.0127148009075882e-10
30,1,Interior (FPS Spread),failed,safety_block_jump,-0.147318360670106,-0.0051834132235912,0.1694667142167372,-0.043973078589725,0.6924571386631881,0.7198452463131553,0.0198065856240995,-3.1090691864701423,-1.1969940808687265,0.7342293498927122,0.5536277546361219,1.5334948778053747,,,,,,,,,,,,,,,
30,2,Interior (FPS Spread),failed,safety_block_jump,-0.147318360670106,-0.0051834132235912,0.1694667142167372,-0.043973078589725,0.6924571386631881,0.7198452463131553,0.0198065856240995,-3.1090691864701423,-1.1969940808687265,0.7342293498927122,0.5536277546361219,1.5334948778053747,,,,,,,,,,,,,,,
30,3,Interior (FPS Spread),failed,safety_block_jump,-0.147318360670106,-0.0051834132235912,0.1694667142167372,-0.043973078589725,0.6924571386631881,0.7198452463131553,0.0198065856240995,-3.1090691864701423,-1.1969940808687265,0.7342293498927122,0.5536277546361219,1.5334948778053747,,,,,,,,,,,,,,,
31,1,Interior (FPS Spread),failed,safety_block_jump,-0.3500365316896033,0.0656069241409663,0.1220636202429021,0.1698556345902001,0.8550023128131052,-0.4713864135399329,0.133846769150998,2.962321827954054,0.8094186043850748,-1.2570840703906931,0.847226370666595,-2.170261293550895,,,,,,,,,,,,,,,
31,2,Interior (FPS Spread),failed,safety_block_jump,-0.3500365316896033,0.0656069241409663,0.1220636202429021,0.1698556345902001,0.8550023128131052,-0.4713864135399329,0.133846769150998,2.962321827954054,0.8094186043850748,-1.2570840703906931,0.847226370666595,-2.170261293550895,,,,,,,,,,,,,,,
31,3,Interior (FPS Spread),failed,safety_block_jump,-0.3500365316896033,0.0656069241409663,0.1220636202429021,0.1698556345902001,0.8550023128131052,-0.4713864135399329,0.133846769150998,2.962321827954054,0.8094186043850748,-1.2570840703906931,0.847226370666595,-2.170261293550895,,,,,,,,,,,,,,,
32,1,Boundary (Edge Case),failed,safety_block_jump,-0.3702683449429963,-0.1124885353797272,0.1325020682628792,-0.1339641154332852,0.9749285769094116,-0.1669300274679394,0.0608461307818323,-2.85540477565737,1.0880802638566145,-1.4736385256565705,0.4595417318649237,-2.791771656768653,,,,,,,,,,,,,,,
32,2,Boundary (Edge Case),failed,safety_block_jump,-0.3702683449429963,-0.1124885353797272,0.1325020682628792,-0.1339641154332852,0.9749285769094116,-0.1669300274679394,0.0608461307818323,-2.85540477565737,1.0880802638566145,-1.4736385256565705,0.4595417318649237,-2.791771656768653,,,,,,,,,,,,,,,
32,3,Boundary (Edge Case),failed,safety_block_jump,-0.3702683449429963,-0.1124885353797272,0.1325020682628792,-0.1339641154332852,0.9749285769094116,-0.1669300274679394,0.0608461307818323,-2.85540477565737,1.0880802638566145,-1.4736385256565705,0.4595417318649237,-2.791771656768653,,,,,,,,,,,,,,,
33,1,Interior (FPS Spread),success,none,-0.0485965815229749,0.2612553288099235,0.3517264361646671,-0.032511560284811,-0.5381101881896834,0.5437042809438649,0.6432465147185995,-1.3428824842860307,-1.19492594032722,-0.6846251435860657,-0.5453130141770257,2.159659535104377,-0.04859658153827415,0.2612553288730156,0.3517264361076019,-0.03251156042265371,-0.5381101881358595,0.5437042810208741,0.643246514691567,-1.342882484283614,-1.1949259404088257,-0.6846251437081939,-0.5453130143091666,2.159659535065105,8.64356054390556e-08,0.0,7.551261838045775e-11
33,2,Interior (FPS Spread),success,none,-0.0485965815229749,0.2612553288099235,0.3517264361646671,-0.032511560284811,-0.5381101881896834,0.5437042809438649,0.6432465147185995,-1.3428824842860307,-1.19492594032722,-0.6846251435860657,-0.5453130141770257,2.159659535104377,-0.048596581537823466,0.2612553288738473,0.3517264361069795,-0.03251156042365473,-0.538110188133988,0.5437042810222251,0.6432465146919402,-1.3428824842859517,-1.1949259404091648,-0.6846251437099083,-0.5453130143113342,2.1596595350688665,8.737610054023495e-08,0.0,7.513700772676657e-11
33,3,Interior (FPS Spread),success,none,-0.0485965815229749,0.2612553288099235,0.3517264361646671,-0.032511560284811,-0.5381101881896834,0.5437042809438649,0.6432465147185995,-1.3428824842860307,-1.19492594032722,-0.6846251435860657,-0.5453130141770257,2.159659535104377,-0.0485965815381469,0.2612553288732503,0.3517264361074263,-0.03251156042293612,-0.5381101881353312,0.5437042810212558,0.6432465146916723,-1.342882484284274,-1.1949259404089208,-0.6846251437086782,-0.5453130143097787,2.159659535066168,8.670050321050489e-08,0.0,7.540639224146162e-11
34,1,Interior (FPS Spread),failed,safety_block_jump,-0.2956197315939537,0.1677642584709422,0.2760771627498359,0.3248901419678519,0.3145315686225904,0.8839408809994556,0.1190159942605534,2.642316892687372,0.7000762289647757,-1.154922622424019,-0.0681737219662979,0.8199772791596787,,,,,,,,,,,,,,,
34,2,Interior (FPS Spread),failed,safety_block_jump,-0.2956197315939537,0.1677642584709422,0.2760771627498359,0.3248901419678519,0.3145315686225904,0.8839408809994556,0.1190159942605534,2.642316892687372,0.7000762289647757,-1.154922622424019,-0.0681737219662979,0.8199772791596787,,,,,,,,,,,,,,,
34,3,Interior (FPS Spread),failed,safety_block_jump,-0.2956197315939537,0.1677642584709422,0.2760771627498359,0.3248901419678519,0.3145315686225904,0.8839408809994556,0.1190159942605534,2.642316892687372,0.7000762289647757,-1.154922622424019,-0.0681737219662979,0.8199772791596787,,,,,,,,,,,,,,,
35,1,Interior (FPS Spread),success,none,0.0972835138303502,0.0356384139413163,0.1265556328692946,0.247865106503792,0.4399249410265822,0.0218172786270531,0.8628748122375177,0.3958259097006849,-0.9794504792295214,0.1048814239970101,1.72019257690967,0.739423636859105,0.0972835138183778,0.035638413936273705,0.12655563284791743,0.24786510649328716,0.4399249410876098,0.021817278590175623,0.8628748122103537,0.39582590970028936,-0.9794504792365788,0.10488142406375357,1.7201925770009914,0.739423636889256,2.5014991056181796e-08,1.7075472925031877e-06,3.9133768447996434e-11
35,2,Interior (FPS Spread),success,none,0.0972835138303502,0.0356384139413163,0.1265556328692946,0.247865106503792,0.4399249410265822,0.0218172786270531,0.8628748122375177,0.3958259097006849,-0.9794504792295214,0.1048814239970101,1.72019257690967,0.739423636859105,0.0972835138182937,0.03563841393626617,0.12655563284786625,0.24786510649335705,0.4399249410878862,0.021817278590063927,0.8628748122101955,0.39582590970056486,-0.9794504792365646,0.10488142406361754,1.7201925770017015,0.7394236368897716,2.5100547604486292e-08,0.0,3.929375713696004e-11
35,3,Interior (FPS Spread),success,none,0.0972835138303502,0.0356384139413163,0.1265556328692946,0.247865106503792,0.4399249410265822,0.0218172786270531,0.8628748122375177,0.3958259097006849,-0.9794504792295214,0.1048814239970101,1.72019257690967,0.739423636859105,0.09728351381828278,0.035638413936265156,0.12655563284785953,0.2478651064933659,0.4399249410879223,0.0218172785900494,0.862874812210175,0.3958259097006004,-0.9794504792365628,0.10488142406359986,1.7201925770017938,0.739423636889838,2.5111732470322185e-08,0.0,3.931451275640541e-11
36,1,Boundary (Edge Case),success,none,-0.2231209403936065,-0.3256765888130571,0.1554314137296029,-0.4483734997987252,0.7234330753252676,-0.5085684238695677,0.1302457233328291,-2.196099869927744,1.107977970091747,-1.2501868818992998,-0.1287018377240487,-2.0553081394647603,-0.22312094043222652,-0.32567658886874284,0.15543141344017963,-0.448373499581477,0.7234330755233274,-0.508568423671356,0.13024572375456744,-2.1960998699245504,1.1079779702921575,-1.2501868813243764,-0.12870183739873056,-2.0553081395190707,2.972511268837866e-07,1.7075472925031877e-06,2.3163118645364023e-10
36,2,Boundary (Edge Case),success,none,-0.2231209403936065,-0.3256765888130571,0.1554314137296029,-0.4483734997987252,0.7234330753252676,-0.5085684238695677,0.1302457233328291,-2.196099869927744,1.107977970091747,-1.2501868818992998,-0.1287018377240487,-2.0553081394647603,-0.22312094043326514,-0.3256765888681172,0.15543141343978123,-0.44837349958064704,0.7234330755246555,-0.5085684236705934,0.13024572375302526,-2.1960998699275587,1.1079779702950452,-1.2501868813265,-0.12870183739986554,-2.0553081395218866,2.9765922972761373e-07,1.7075472925031877e-06,2.3151854322556175e-10
36,3,Boundary (Edge Case),success,none,-0.2231209403936065,-0.3256765888130571,0.1554314137296029,-0.4483734997987252,0.7234330753252676,-0.5085684238695677,0.1302457233328291,-2.196099869927744,1.107977970091747,-1.2501868818992998,-0.1287018377240487,-2.0553081394647603,-0.22312094043328295,-0.32567658886810646,0.1554314134397744,-0.4483734995806328,0.7234330755246781,-0.5085684236705806,0.13024572375299906,-2.19609986992761,1.1079779702950943,-1.250186881326536,-0.12870183739988492,-2.055308139521934,2.976662708860663e-07,2.4148365394514667e-06,2.315164893129662e-10
37,1,Interior (FPS Spread),failed,safety_block_jump,-0.0828806762840737,0.3631749987737995,0.1295320682887126,0.6151708375528647,0.7307425217669121,-0.2936879407532321,-0.0364362588964184,1.826337992323407,0.8166846073440279,-1.2231976437907437,0.7196929901022997,-2.6199708549467,,,,,,,,,,,,,,,
37,2,Interior (FPS Spread),failed,safety_block_jump,-0.0828806762840737,0.3631749987737995,0.1295320682887126,0.6151708375528647,0.7307425217669121,-0.2936879407532321,-0.0364362588964184,1.826337992323407,0.8166846073440279,-1.2231976437907437,0.7196929901022997,-2.6199708549467,,,,,,,,,,,,,,,
37,3,Interior (FPS Spread),failed,safety_block_jump,-0.0828806762840737,0.3631749987737995,0.1295320682887126,0.6151708375528647,0.7307425217669121,-0.2936879407532321,-0.0364362588964184,1.826337992323407,0.8166846073440279,-1.2231976437907437,0.7196929901022997,-2.6199708549467,,,,,,,,,,,,,,,
38,1,Interior (FPS Spread),success,none,-0.2054254846744624,-0.3247357106264069,0.1666493042397329,0.3559403381138633,-0.1770408103954207,0.8447089047151262,-0.3583711671617755,-2.1607896424804096,1.1422187405624662,-1.143119612986838,-0.493426102350599,-0.6810147742586636,-0.20542548471165703,-0.32473571068301343,0.16664930402275263,0.35594033780730394,-0.17704081061570554,0.8447089047323846,-0.358371167316752,-2.160789642478908,1.1422187407507198,-1.1431196125411927,-0.4934261021684212,-0.6810147742953695,2.2730635514462865e-07,0.0,1.7085681758288728e-10
38,2,Interior (FPS Spread),success,none,-0.2054254846744624,-0.3247357106264069,0.1666493042397329,0.3559403381138633,-0.1770408103954207,0.8447089047151262,-0.3583711671617755,-2.1607896424804096,1.1422187405624662,-1.143119612986838,-0.493426102350599,-0.6810147742586636,-0.20542548471210706,-0.3247357106827346,0.1666493040225724,0.3559403378073799,-0.177040810616049,0.8447089047325813,-0.358371167316043,-2.160789642480262,1.1422187407520619,-1.1431196125420973,-0.4934261021691691,-0.6810147742957966,2.2748323184068922e-07,2.4148365394514667e-06,1.706093377684681e-10
38,3,Interior (FPS Spread),success,none,-0.2054254846744624,-0.3247357106264069,0.1666493042397329,0.3559403381138633,-0.1770408103954207,0.8447089047151262,-0.3583711671617755,-2.1607896424804096,1.1422187405624662,-1.143119612986838,-0.493426102350599,-0.6810147742586636,-0.20542548470915828,-0.3247357106845615,0.1666493040237546,0.3559403378068847,-0.17704081061379945,0.8447089047312911,-0.3583711673206874,-2.1607896424713915,1.142218740743268,-1.1431196125361724,-0.4934261021642697,-0.6810147742930005,2.2634571597409944e-07,0.0,1.722303299978023e-10
39,1,Interior (FPS Spread),success,none,-0.1266921148474442,0.1234009675894712,0.4263914490813668,0.5541206533053511,-0.1764871103108437,0.7681866590552596,0.2677533535253993,2.414470858755813,0.3949677091068151,-1.4378484460921033,-0.1973108783394939,0.078899000981877,-0.1266921149378447,0.12340096767017819,0.4263914490268306,0.5541206531295161,-0.17648711023783065,0.7681866591795918,0.26775335358070856,2.4144708587547132,0.3949677092095993,-1.4378484458272522,-0.1973108782390851,0.07889900098352204,1.3289117886624525e-07,0.0,9.4157720509358e-11
39,2,Interior (FPS Spread),success,none,-0.1266921148474442,0.1234009675894712,0.4263914490813668,0.5541206533053511,-0.1764871103108437,0.7681866590552596,0.2677533535253993,2.414470858755813,0.3949677091068151,-1.4378484460921033,-0.1973108783394939,0.078899000981877,-0.1266921149379408,0.12340096767002774,0.42639144902682513,0.5541206531297875,-0.17648711023763147,0.7681866591795922,0.2677533535802776,2.4144708587556627,0.39496770921014795,-1.4378484458279357,-0.19731087823943808,0.07889900098355304,1.328675478955102e-07,0.0,9.387647881275996e-11
39,3,Interior (FPS Spread),success,none,-0.1266921148474442,0.1234009675894712,0.4263914490813668,0.5541206533053511,-0.1764871103108437,0.7681866590552596,0.2677533535253993,2.414470858755813,0.3949677091068151,-1.4378484460921033,-0.1973108783394939,0.078899000981877,-0.12669211493793836,0.12340096767003172,0.42639144902682524,0.5541206531297802,-0.17648711023763658,0.7681866591795922,0.26775335358028896,2.414470858755638,0.3949677092101335,-1.4378484458279175,-0.1973108782394287,0.07889900098355221,1.3286825362768097e-07,0.0,9.388391730702495e-11
